game/workspace/lut/05 - KDK - Portra + warm.cube
#Copyright Tim Martin Presetpro.com StockPresets.com
TITLE "05 - KDK - Portra + warm"
#LUT size
LUT_3D_SIZE 4
#LUT data points
0.003922 0.003922 0.000000
0.168627 0.031373 0.007843
0.658824 0.003922 0.011765
1.000000 0.196078 0.000000
0.003922 0.223529 0.086275
0.137255 0.282353 0.011765
0.725490 0.250980 0.003922
1.000000 0.400000 0.003922
0.000000 0.643137 0.243137
0.078431 0.639216 0.258824
0.678431 0.705882 0.015686
1.000000 0.729412 0.007843
0.639216 0.941176 0.666667
0.666667 0.945098 0.678431
0.752941 0.956863 0.666667
0.945098 1.000000 0.564706
0.003922 0.043137 0.243137
0.219608 0.066667 0.250980
0.694118 0.003922 0.227451
0.996078 0.290196 0.294118
0.000000 0.274510 0.270588
0.282353 0.305882 0.290196
0.721569 0.321569 0.266667
1.000000 0.431373 0.270588
0.333333 0.662745 0.427451
0.388235 0.666667 0.407843
0.709804 0.705882 0.352941
1.000000 0.717647 0.243137
0.662745 0.945098 0.698039
0.690196 0.941176 0.705882
0.768627 0.956863 0.713725
0.945098 0.996078 0.635294
0.035294 0.125490 0.631373
0.431373 0.149020 0.643137
0.803922 0.262745 0.666667
1.000000 0.419608 0.647059
0.105882 0.356863 0.647059
0.462745 0.388235 0.654902
0.796078 0.486275 0.678431
0.992157 0.545098 0.654902
0.419608 0.698039 0.666667
0.549020 0.701961 0.674510
0.780392 0.729412 0.698039
0.992157 0.721569 0.670588
0.737255 0.956863 0.819608
0.764706 0.960784 0.823529
0.815686 0.964706 0.811765
0.960784 0.996078 0.788235
0.678431 0.513725 0.937255
0.749020 0.545098 0.937255
0.882353 0.639216 0.941176
1.000000 0.705882 0.929412
0.674510 0.615686 0.933333
0.741176 0.639216 0.933333
0.874510 0.694118 0.937255
1.000000 0.752941 0.937255
0.596078 0.772549 0.937255
0.670588 0.764706 0.937255
0.847059 0.800000 0.941176
1.000000 0.854902 0.945098
0.725490 0.988235 0.949020
0.752941 0.988235 0.949020
0.847059 0.996078 0.945098
0.996078 0.996078 0.949020
