game/workspace/lut/05 - KDK - Portra + warm.cube
#Copyright Tim Martin Presetpro.com StockPresets.com
TITLE "05 - KDK - Portra + warm"
#LUT size
LUT_3D_SIZE 8
#LUT data points
0.003922 0.003922 0.000000
0.050980 0.011765 0.003922
0.129412 0.039216 0.019608
0.294118 0.019608 0.023529
0.513725 0.003922 0.019608
0.721569 0.000000 0.007843
0.890196 0.000000 0.000000
1.000000 0.196078 0.000000
0.000000 0.058824 0.031373
0.027451 0.074510 0.019608
0.152941 0.086275 0.015686
0.317647 0.070588 0.011765
0.529412 0.003922 0.015686
0.733333 0.000000 0.000000
0.890196 0.074510 0.003922
1.000000 0.254902 0.000000
0.000000 0.168627 0.070588
0.000000 0.172549 0.074510
0.086275 0.211765 0.027451
0.372549 0.231373 0.000000
0.592157 0.192157 0.003922
0.768627 0.196078 0.000000
0.901961 0.254902 0.003922
0.996078 0.356863 0.007843
0.000000 0.345098 0.117647
0.000000 0.341176 0.125490
0.003922 0.364706 0.101961
0.290196 0.419608 0.000000
0.631373 0.454902 0.003922
0.788235 0.419608 0.000000
0.921569 0.427451 0.003922
0.996078 0.482353 0.000000
0.000000 0.525490 0.176471
0.000000 0.525490 0.176471
0.003922 0.521569 0.192157
0.223529 0.560784 0.125490
0.556863 0.600000 0.000000
0.803922 0.639216 0.000000
0.913725 0.623529 0.000000
1.000000 0.619608 0.000000
0.000000 0.686275 0.282353
0.003922 0.686275 0.282353
0.145098 0.682353 0.298039
0.337255 0.694118 0.278431
0.541176 0.717647 0.219608
0.737255 0.741176 0.101961
0.917647 0.788235 0.000000
1.000000 0.776471 0.000000
0.400000 0.815686 0.454902
0.411765 0.815686 0.454902
0.454902 0.819608 0.462745
0.521569 0.811765 0.462745
0.603922 0.823529 0.435294
0.717647 0.847059 0.388235
0.850980 0.870588 0.313725
1.000000 0.909804 0.117647
0.639216 0.941176 0.666667
0.647059 0.945098 0.662745
0.674510 0.933333 0.674510
0.690196 0.945098 0.678431
0.725490 0.949020 0.682353
0.776471 0.964706 0.666667
0.843137 0.976471 0.635294
0.945098 1.000000 0.564706
0.000000 0.011765 0.078431
0.043137 0.027451 0.082353
0.137255 0.027451 0.082353
0.305882 0.039216 0.098039
0.517647 0.000000 0.101961
0.725490 0.000000 0.094118
0.894118 0.003922 0.082353
1.000000 0.223529 0.078431
0.000000 0.078431 0.090196
0.031373 0.086275 0.098039
0.141176 0.094118 0.094118
0.329412 0.094118 0.101961
0.537255 0.043137 0.090196
0.737255 0.000000 0.082353
0.886275 0.129412 0.070588
1.000000 0.266667 0.058824
0.000000 0.196078 0.137255
0.003922 0.192157 0.137255
0.109804 0.223529 0.098039
0.384314 0.227451 0.086275
0.592157 0.200000 0.070588
0.764706 0.215686 0.047059
0.905882 0.274510 0.019608
0.996078 0.368627 0.007843
0.000000 0.360784 0.168627
0.000000 0.360784 0.160784
0.003922 0.376471 0.156863
0.329412 0.419608 0.098039
0.631373 0.447059 0.000000
0.796078 0.407843 0.000000
0.913725 0.431373 0.000000
1.000000 0.486275 0.007843
0.000000 0.537255 0.215686
0.007843 0.533333 0.223529
0.003922 0.529412 0.227451
0.270588 0.564706 0.192157
0.564706 0.603922 0.090196
0.803922 0.639216 0.000000
0.921569 0.623529 0.003922
0.992157 0.615686 0.000000
0.000000 0.694118 0.317647
0.039216 0.694118 0.321569
0.231373 0.690196 0.321569
0.376471 0.694118 0.321569
0.552941 0.717647 0.286275
0.733333 0.745098 0.184314
0.909804 0.788235 0.000000
1.000000 0.776471 0.000000
0.423529 0.815686 0.470588
0.447059 0.815686 0.470588
0.486275 0.815686 0.482353
0.537255 0.819608 0.498039
0.619608 0.827451 0.466667
0.725490 0.847059 0.431373
0.847059 0.870588 0.345098
1.000000 0.905882 0.207843
0.647059 0.941176 0.678431
0.654902 0.937255 0.678431
0.666667 0.945098 0.686275
0.690196 0.941176 0.694118
0.733333 0.949020 0.686275
0.772549 0.968627 0.678431
0.847059 0.980392 0.643137
0.937255 0.996078 0.584314
0.000000 0.031373 0.192157
0.019608 0.039216 0.188235
0.156863 0.054902 0.200000
0.325490 0.031373 0.192157
0.545098 0.000000 0.184314
0.745098 0.003922 0.200000
0.886275 0.137255 0.227451
1.000000 0.262745 0.239216
0.000000 0.098039 0.207843
0.011765 0.105882 0.207843
0.168627 0.113725 0.211765
0.352941 0.109804 0.207843
0.560784 0.023529 0.188235
0.745098 0.117647 0.219608
0.890196 0.196078 0.227451
1.000000 0.298039 0.239216
0.000000 0.211765 0.219608
0.000000 0.223529 0.215686
0.184314 0.239216 0.239216
0.388235 0.239216 0.227451
0.592157 0.243137 0.227451
0.764706 0.262745 0.219608
0.898039 0.301961 0.211765
0.996078 0.392157 0.219608
0.000000 0.396078 0.270588
0.066667 0.400000 0.278431
0.184314 0.400000 0.274510
0.388235 0.435294 0.247059
0.650980 0.435294 0.211765
0.800000 0.423529 0.196078
0.917647 0.450980 0.184314
0.996078 0.498039 0.196078
0.149020 0.560784 0.333333
0.152941 0.560784 0.329412
0.223529 0.560784 0.321569
0.360784 0.576471 0.309804
0.596078 0.611765 0.270588
0.811765 0.631373 0.196078
0.913725 0.611765 0.164706
1.000000 0.615686 0.149020
0.301961 0.701961 0.411765
0.301961 0.701961 0.403922
0.360784 0.698039 0.403922
0.454902 0.698039 0.411765
0.580392 0.721569 0.376471
0.749020 0.745098 0.321569
0.913725 0.784314 0.247059
1.000000 0.768627 0.207843
0.486275 0.827451 0.521569
0.494118 0.815686 0.517647
0.529412 0.819608 0.525490
0.580392 0.815686 0.541176
0.650980 0.823529 0.529412
0.733333 0.847059 0.494118
0.854902 0.870588 0.439216
0.996078 0.909804 0.341176
0.658824 0.941176 0.690196
0.658824 0.941176 0.694118
0.674510 0.941176 0.698039
0.701961 0.941176 0.705882
0.741176 0.952941 0.717647
0.780392 0.964706 0.698039
0.847059 0.984314 0.670588
0.941176 0.996078 0.623529
0.000000 0.062745 0.345098
0.000000 0.070588 0.352941
0.203922 0.082353 0.356863
0.411765 0.066667 0.372549
0.580392 0.000000 0.345098
0.768627 0.003922 0.341176
0.917647 0.000000 0.341176
1.000000 0.211765 0.352941
0.000000 0.125490 0.356863
0.003922 0.129412 0.360784
0.223529 0.141176 0.372549
0.427451 0.156863 0.380392
0.596078 0.125490 0.364706
0.780392 0.109804 0.352941
0.917647 0.133333 0.345098
1.000000 0.286275 0.364706
0.000000 0.239216 0.368627
0.000000 0.247059 0.384314
0.231373 0.266667 0.388235
0.447059 0.290196 0.392157
0.623529 0.290196 0.380392
0.784314 0.286275 0.364706
0.901961 0.333333 0.368627
0.992157 0.431373 0.400000
0.000000 0.419608 0.388235
0.000000 0.427451 0.392157
0.274510 0.439216 0.400000
0.478431 0.450980 0.411765
0.647059 0.450980 0.407843
0.784314 0.458824 0.396078
0.898039 0.482353 0.388235
1.000000 0.521569 0.388235
0.258824 0.592157 0.431373
0.313725 0.588235 0.443137
0.431373 0.592157 0.458824
0.501961 0.588235 0.447059
0.650980 0.619608 0.435294
0.803922 0.623529 0.392157
0.917647 0.603922 0.372549
1.000000 0.619608 0.372549
0.490196 0.713725 0.537255
0.517647 0.717647 0.541176
0.525490 0.713725 0.525490
0.549020 0.713725 0.517647
0.627451 0.725490 0.501961
0.764706 0.752941 0.474510
0.913725 0.772549 0.427451
1.000000 0.756863 0.392157
0.592157 0.819608 0.619608
0.588235 0.823529 0.611765
0.600000 0.823529 0.607843
0.623529 0.823529 0.600000
0.670588 0.823529 0.607843
0.741176 0.847059 0.584314
0.854902 0.878431 0.541176
1.000000 0.905882 0.482353
0.694118 0.949020 0.729412
0.690196 0.941176 0.733333
0.694118 0.949020 0.729412
0.717647 0.949020 0.737255
0.756863 0.952941 0.752941
0.792157 0.960784 0.741176
0.850980 0.980392 0.709804
0.949020 0.996078 0.674510
0.000000 0.105882 0.525490
0.011765 0.101961 0.517647
0.290196 0.109804 0.533333
0.505882 0.125490 0.545098
0.674510 0.137255 0.552941
0.784314 0.149020 0.517647
0.921569 0.243137 0.525490
1.000000 0.325490 0.521569
0.000000 0.160784 0.521569
0.090196 0.172549 0.529412
0.313725 0.176471 0.545098
0.517647 0.203922 0.552941
0.678431 0.227451 0.560784
0.792157 0.235294 0.533333
0.917647 0.305882 0.529412
1.000000 0.364706 0.529412
0.000000 0.274510 0.533333
0.090196 0.282353 0.541176
0.325490 0.301961 0.552941
0.533333 0.333333 0.556863
0.690196 0.368627 0.568627
0.796078 0.368627 0.545098
0.913725 0.403922 0.545098
1.000000 0.435294 0.537255
0.003922 0.439216 0.545098
0.027451 0.443137 0.537255
0.290196 0.447059 0.549020
0.529412 0.474510 0.564706
0.690196 0.517647 0.584314
0.796078 0.513725 0.568627
0.905882 0.513725 0.552941
1.000000 0.529412 0.537255
0.247059 0.607843 0.564706
0.305882 0.603922 0.556863
0.427451 0.607843 0.564706
0.556863 0.619608 0.576471
0.686275 0.631373 0.596078
0.796078 0.623529 0.580392
0.894118 0.631373 0.564706
0.992157 0.647059 0.560784
0.501961 0.733333 0.615686
0.533333 0.729412 0.615686
0.576471 0.737255 0.619608
0.647059 0.733333 0.635294
0.694118 0.733333 0.627451
0.780392 0.756863 0.615686
0.905882 0.764706 0.576471
1.000000 0.737255 0.545098
0.635294 0.839216 0.690196
0.639216 0.835294 0.682353
0.674510 0.839216 0.694118
0.698039 0.839216 0.698039
0.705882 0.831373 0.670588
0.768627 0.839216 0.674510
0.870588 0.870588 0.658824
1.000000 0.894118 0.615686
0.729412 0.949020 0.796078
0.733333 0.949020 0.784314
0.737255 0.952941 0.788235
0.749020 0.956863 0.776471
0.772549 0.956863 0.784314
0.815686 0.960784 0.792157
0.866667 0.980392 0.768627
0.960784 0.996078 0.741176
0.180392 0.156863 0.690196
0.266667 0.156863 0.690196
0.419608 0.172549 0.694118
0.596078 0.200000 0.701961
0.749020 0.282353 0.713725
0.850980 0.333333 0.721569
0.909804 0.352941 0.690196
1.000000 0.450980 0.690196
0.211765 0.219608 0.686275
0.294118 0.215686 0.690196
0.431373 0.231373 0.694118
0.607843 0.270588 0.705882
0.745098 0.337255 0.709804
0.850980 0.388235 0.725490
0.905882 0.396078 0.686275
0.988235 0.478431 0.698039
0.231373 0.337255 0.694118
0.301961 0.337255 0.694118
0.447059 0.352941 0.698039
0.607843 0.380392 0.709804
0.741176 0.447059 0.717647
0.839216 0.486275 0.725490
0.905882 0.486275 0.690196
0.988235 0.549020 0.698039
0.160784 0.470588 0.694118
0.262745 0.478431 0.698039
0.423529 0.482353 0.698039
0.592157 0.517647 0.705882
0.733333 0.556863 0.717647
0.827451 0.592157 0.725490
0.894118 0.596078 0.705882
0.988235 0.619608 0.713725
0.282353 0.615686 0.694118
0.329412 0.611765 0.690196
0.431373 0.615686 0.686275
0.552941 0.619608 0.698039
0.717647 0.650980 0.721569
0.827451 0.686275 0.741176
0.894118 0.686275 0.725490
0.984314 0.682353 0.713725
0.478431 0.741176 0.705882
0.501961 0.741176 0.709804
0.549020 0.745098 0.709804
0.631373 0.749020 0.717647
0.717647 0.756863 0.725490
0.807843 0.764706 0.749020
0.894118 0.760784 0.725490
0.988235 0.760784 0.713725
0.635294 0.854902 0.749020
0.647059 0.850980 0.760784
0.666667 0.854902 0.760784
0.713725 0.850980 0.764706
0.764706 0.854902 0.776471
0.800000 0.854902 0.764706
0.878431 0.882353 0.760784
0.996078 0.890196 0.729412
0.737255 0.960784 0.831373
0.737255 0.952941 0.827451
0.756863 0.956863 0.827451
0.784314 0.960784 0.831373
0.807843 0.964706 0.831373
0.835294 0.968627 0.831373
0.882353 0.980392 0.823529
0.964706 0.996078 0.803922
0.462745 0.270588 0.831373
0.501961 0.278431 0.823529
0.580392 0.298039 0.831373
0.694118 0.349020 0.831373
0.792157 0.415686 0.839216
0.874510 0.509804 0.835294
0.941176 0.533333 0.835294
0.988235 0.537255 0.811765
0.470588 0.329412 0.823529
0.505882 0.329412 0.827451
0.584314 0.349020 0.827451
0.690196 0.388235 0.835294
0.792157 0.454902 0.835294
0.870588 0.541176 0.847059
0.937255 0.564706 0.839216
0.988235 0.560784 0.823529
0.474510 0.427451 0.827451
0.505882 0.435294 0.835294
0.584314 0.443137 0.827451
0.686275 0.470588 0.827451
0.780392 0.529412 0.835294
0.862745 0.596078 0.839216
0.933333 0.615686 0.843137
0.980392 0.611765 0.815686
0.443137 0.529412 0.823529
0.486275 0.541176 0.827451
0.572549 0.549020 0.823529
0.670588 0.572549 0.831373
0.768627 0.615686 0.831373
0.850980 0.658824 0.843137
0.925490 0.678431 0.850980
0.972549 0.666667 0.819608
0.376471 0.639216 0.815686
0.423529 0.647059 0.823529
0.517647 0.643137 0.827451
0.639216 0.654902 0.831373
0.749020 0.678431 0.835294
0.850980 0.721569 0.843137
0.921569 0.749020 0.847059
0.984314 0.741176 0.839216
0.494118 0.756863 0.819608
0.513725 0.760784 0.827451
0.556863 0.756863 0.831373
0.627451 0.756863 0.831373
0.705882 0.756863 0.827451
0.823529 0.780392 0.843137
0.921569 0.819608 0.862745
0.984314 0.815686 0.850980
0.600000 0.854902 0.831373
0.615686 0.862745 0.831373
0.647059 0.862745 0.839216
0.694118 0.862745 0.835294
0.752941 0.866667 0.847059
0.827451 0.870588 0.847059
0.913725 0.886275 0.862745
0.992157 0.882353 0.839216
0.733333 0.968627 0.870588
0.733333 0.968627 0.870588
0.756863 0.968627 0.874510
0.780392 0.968627 0.874510
0.823529 0.972549 0.882353
0.874510 0.972549 0.890196
0.909804 0.980392 0.886275
0.976471 0.996078 0.870588
0.678431 0.513725 0.937255
0.690196 0.521569 0.941176
0.729412 0.541176 0.941176
0.780392 0.564706 0.933333
0.843137 0.600000 0.933333
0.898039 0.650980 0.929412
0.964706 0.698039 0.929412
1.000000 0.705882 0.929412
0.678431 0.541176 0.941176
0.694118 0.545098 0.933333
0.737255 0.564706 0.937255
0.780392 0.592157 0.937255
0.847059 0.623529 0.933333
0.901961 0.662745 0.933333
0.972549 0.705882 0.937255
1.000000 0.713725 0.933333
0.678431 0.600000 0.933333
0.694118 0.600000 0.937255
0.725490 0.611765 0.941176
0.776471 0.631373 0.941176
0.839216 0.662745 0.933333
0.905882 0.694118 0.937255
0.960784 0.733333 0.933333
1.000000 0.737255 0.937255
0.662745 0.658824 0.933333
0.674510 0.662745 0.933333
0.709804 0.666667 0.933333
0.768627 0.682353 0.933333
0.831373 0.709804 0.941176
0.894118 0.737255 0.933333
0.956863 0.768627 0.933333
1.000000 0.772549 0.937255
0.631373 0.717647 0.941176
0.643137 0.717647 0.937255
0.682353 0.725490 0.937255
0.737255 0.737255 0.941176
0.815686 0.752941 0.937255
0.886275 0.776471 0.933333
0.952941 0.807843 0.937255
0.996078 0.819608 0.933333
0.607843 0.803922 0.941176
0.615686 0.803922 0.945098
0.635294 0.800000 0.941176
0.690196 0.803922 0.937255
0.772549 0.803922 0.945098
0.866667 0.823529 0.941176
0.956863 0.858824 0.941176
0.996078 0.874510 0.937255
0.654902 0.901961 0.937255
0.670588 0.898039 0.941176
0.686275 0.898039 0.937255
0.713725 0.898039 0.937255
0.764706 0.898039 0.945098
0.819608 0.890196 0.945098
0.933333 0.909804 0.956863
1.000000 0.933333 0.941176
0.725490 0.988235 0.949020
0.729412 0.988235 0.949020
0.745098 0.988235 0.945098
0.776471 0.984314 0.945098
0.807843 0.988235 0.945098
0.866667 0.992157 0.949020
0.933333 0.996078 0.952941
0.996078 0.996078 0.949020
