game/workspace/lut/05 - KDK - Portra + warm.cube
#Copyright Tim Martin Presetpro.com StockPresets.com
TITLE "05 - KDK - Portra + warm"
#LUT size
LUT_3D_SIZE 64
#LUT data points
0.003922 0.003922 0.000000
0.000000 0.000000 0.000000
0.007843 0.000000 0.003922
0.015686 0.000000 0.003922
0.023529 0.000000 0.000000
0.039216 0.007843 0.007843
0.039216 0.007843 0.000000
0.043137 0.003922 0.000000
0.047059 0.007843 0.003922
0.050980 0.011765 0.003922
0.058824 0.015686 0.007843
0.062745 0.019608 0.003922
0.070588 0.015686 0.003922
0.086275 0.027451 0.007843
0.098039 0.027451 0.011765
0.101961 0.027451 0.011765
0.109804 0.027451 0.007843
0.117647 0.035294 0.015686
0.129412 0.039216 0.019608
0.145098 0.031373 0.015686
0.160784 0.031373 0.011765
0.168627 0.031373 0.007843
0.192157 0.039216 0.019608
0.211765 0.035294 0.023529
0.227451 0.027451 0.015686
0.250980 0.023529 0.011765
0.274510 0.023529 0.019608
0.294118 0.019608 0.023529
0.321569 0.007843 0.019608
0.337255 0.000000 0.019608
0.364706 0.003922 0.023529
0.388235 0.000000 0.019608
0.411765 0.003922 0.015686
0.435294 0.000000 0.023529
0.466667 0.000000 0.023529
0.490196 0.000000 0.019608
0.513725 0.003922 0.019608
0.533333 0.000000 0.015686
0.564706 0.000000 0.015686
0.588235 0.000000 0.015686
0.611765 0.000000 0.011765
0.631373 0.003922 0.019608
0.658824 0.003922 0.011765
0.682353 0.000000 0.007843
0.705882 0.000000 0.011765
0.721569 0.000000 0.007843
0.745098 0.000000 0.007843
0.760784 0.000000 0.003922
0.784314 0.000000 0.000000
0.800000 0.003922 0.000000
0.815686 0.003922 0.003922
0.839216 0.000000 0.000000
0.862745 0.003922 0.000000
0.878431 0.000000 0.000000
0.890196 0.000000 0.000000
0.901961 0.003922 0.000000
0.921569 0.000000 0.011765
0.925490 0.011765 0.000000
0.945098 0.054902 0.000000
0.956863 0.094118 0.000000
0.972549 0.125490 0.003922
0.984314 0.149020 0.000000
0.992157 0.176471 0.000000
1.000000 0.196078 0.000000
0.000000 0.007843 0.000000
0.000000 0.007843 0.000000
0.007843 0.011765 0.000000
0.015686 0.011765 0.000000
0.023529 0.007843 0.000000
0.031373 0.011765 0.000000
0.043137 0.011765 0.000000
0.043137 0.011765 0.000000
0.054902 0.019608 0.000000
0.058824 0.023529 0.003922
0.062745 0.019608 0.003922
0.066667 0.023529 0.007843
0.078431 0.023529 0.011765
0.086275 0.027451 0.007843
0.094118 0.023529 0.007843
0.101961 0.031373 0.015686
0.113725 0.031373 0.011765
0.117647 0.035294 0.015686
0.133333 0.035294 0.015686
0.149020 0.035294 0.011765
0.168627 0.039216 0.011765
0.184314 0.039216 0.007843
0.196078 0.039216 0.011765
0.211765 0.035294 0.015686
0.231373 0.031373 0.011765
0.254902 0.027451 0.015686
0.266667 0.027451 0.019608
0.286275 0.019608 0.007843
0.321569 0.015686 0.015686
0.345098 0.007843 0.027451
0.364706 0.003922 0.023529
0.396078 0.003922 0.015686
0.415686 0.000000 0.019608
0.439216 0.000000 0.015686
0.470588 0.007843 0.011765
0.490196 0.000000 0.015686
0.517647 0.000000 0.023529
0.541176 0.000000 0.027451
0.560784 0.003922 0.019608
0.580392 0.003922 0.007843
0.611765 0.000000 0.015686
0.631373 0.003922 0.011765
0.658824 0.003922 0.011765
0.682353 0.000000 0.007843
0.698039 0.003922 0.011765
0.721569 0.000000 0.007843
0.745098 0.000000 0.000000
0.760784 0.000000 0.000000
0.784314 0.003922 0.000000
0.800000 0.000000 0.003922
0.811765 0.000000 0.000000
0.839216 0.000000 0.000000
0.850980 0.000000 0.000000
0.870588 0.003922 0.000000
0.890196 0.000000 0.000000
0.905882 0.000000 0.000000
0.913725 0.000000 0.007843
0.929412 0.027451 0.003922
0.945098 0.066667 0.000000
0.960784 0.101961 0.000000
0.972549 0.133333 0.000000
0.980392 0.152941 0.000000
0.996078 0.180392 0.000000
0.996078 0.200000 0.000000
0.000000 0.015686 0.000000
0.003922 0.011765 0.000000
0.007843 0.015686 0.003922
0.011765 0.015686 0.000000
0.019608 0.015686 0.000000
0.031373 0.015686 0.003922
0.035294 0.015686 0.000000
0.035294 0.015686 0.000000
0.050980 0.023529 0.000000
0.058824 0.023529 0.003922
0.062745 0.027451 0.000000
0.066667 0.023529 0.000000
0.078431 0.027451 0.003922
0.090196 0.031373 0.003922
0.094118 0.035294 0.007843
0.101961 0.035294 0.007843
0.117647 0.039216 0.011765
0.117647 0.039216 0.011765
0.133333 0.043137 0.019608
0.152941 0.039216 0.015686
0.160784 0.043137 0.011765
0.176471 0.043137 0.007843
0.200000 0.043137 0.015686
0.215686 0.039216 0.027451
0.227451 0.035294 0.019608
0.254902 0.027451 0.015686
0.270588 0.031373 0.019608
0.294118 0.027451 0.023529
0.321569 0.011765 0.023529
0.337255 0.003922 0.023529
0.364706 0.003922 0.023529
0.392157 0.000000 0.019608
0.415686 0.000000 0.019608
0.439216 0.000000 0.015686
0.470588 0.000000 0.007843
0.494118 0.000000 0.015686
0.517647 0.000000 0.023529
0.537255 0.003922 0.027451
0.564706 0.000000 0.015686
0.592157 0.003922 0.011765
0.611765 0.000000 0.015686
0.635294 0.000000 0.019608
0.658824 0.003922 0.003922
0.686275 0.003922 0.007843
0.705882 0.000000 0.011765
0.725490 0.000000 0.007843
0.745098 0.000000 0.007843
0.764706 0.003922 0.000000
0.776471 0.003922 0.000000
0.800000 0.000000 0.003922
0.823529 0.000000 0.003922
0.843137 0.000000 0.000000
0.862745 0.003922 0.000000
0.878431 0.000000 0.000000
0.886275 0.000000 0.000000
0.905882 0.007843 0.003922
0.905882 0.000000 0.000000
0.929412 0.035294 0.000000
0.949020 0.082353 0.000000
0.960784 0.113725 0.000000
0.976471 0.137255 0.003922
0.984314 0.160784 0.000000
0.996078 0.180392 0.000000
1.000000 0.203922 0.003922
0.000000 0.019608 0.003922
0.000000 0.019608 0.003922
0.000000 0.019608 0.003922
0.011765 0.019608 0.000000
0.019608 0.023529 0.003922
0.027451 0.023529 0.003922
0.035294 0.023529 0.003922
0.039216 0.027451 0.007843
0.054902 0.027451 0.003922
0.058824 0.031373 0.007843
0.062745 0.035294 0.003922
0.070588 0.035294 0.007843
0.074510 0.031373 0.007843
0.086275 0.035294 0.011765
0.094118 0.035294 0.007843
0.105882 0.039216 0.011765
0.121569 0.047059 0.019608
0.133333 0.043137 0.019608
0.137255 0.043137 0.011765
0.149020 0.043137 0.007843
0.164706 0.047059 0.015686
0.188235 0.043137 0.019608
0.200000 0.043137 0.015686
0.211765 0.043137 0.019608
0.239216 0.039216 0.019608
0.254902 0.039216 0.019608
0.278431 0.031373 0.011765
0.298039 0.027451 0.015686
0.317647 0.019608 0.019608
0.345098 0.015686 0.023529
0.372549 0.000000 0.015686
0.392157 0.000000 0.019608
0.415686 0.000000 0.015686
0.447059 0.000000 0.015686
0.474510 0.003922 0.019608
0.494118 0.000000 0.015686
0.517647 0.000000 0.019608
0.541176 0.000000 0.019608
0.572549 0.003922 0.023529
0.592157 0.003922 0.019608
0.619608 0.000000 0.015686
0.643137 0.000000 0.011765
0.654902 0.000000 0.000000
0.674510 0.003922 0.003922
0.705882 0.000000 0.003922
0.725490 0.003922 0.003922
0.737255 0.003922 0.000000
0.760784 0.000000 0.003922
0.784314 0.003922 0.000000
0.803922 0.007843 0.000000
0.823529 0.003922 0.000000
0.839216 0.003922 0.000000
0.862745 0.003922 0.000000
0.878431 0.000000 0.000000
0.890196 0.000000 0.003922
0.901961 0.003922 0.000000
0.921569 0.007843 0.000000
0.941176 0.047059 0.003922
0.949020 0.086275 0.000000
0.956863 0.117647 0.000000
0.968627 0.141176 0.000000
0.984314 0.164706 0.003922
0.996078 0.188235 0.003922
1.000000 0.207843 0.007843
0.000000 0.023529 0.007843
0.000000 0.023529 0.007843
0.003922 0.027451 0.011765
0.007843 0.027451 0.003922
0.019608 0.027451 0.007843
0.027451 0.031373 0.007843
0.035294 0.035294 0.003922
0.035294 0.035294 0.003922
0.050980 0.031373 0.007843
0.058824 0.031373 0.000000
0.062745 0.035294 0.003922
0.070588 0.035294 0.007843
0.078431 0.039216 0.003922
0.090196 0.039216 0.007843
0.098039 0.043137 0.007843
0.101961 0.047059 0.003922
0.113725 0.047059 0.019608
0.129412 0.039216 0.015686
0.137255 0.050980 0.007843
0.145098 0.050980 0.003922
0.160784 0.050980 0.007843
0.180392 0.047059 0.011765
0.211765 0.043137 0.019608
0.219608 0.043137 0.015686
0.231373 0.047059 0.015686
0.254902 0.047059 0.023529
0.278431 0.039216 0.019608
0.305882 0.035294 0.015686
0.329412 0.023529 0.015686
0.349020 0.019608 0.019608
0.372549 0.011765 0.023529
0.396078 0.000000 0.023529
0.415686 0.007843 0.019608
0.443137 0.003922 0.019608
0.470588 0.000000 0.015686
0.494118 0.000000 0.011765
0.521569 0.003922 0.015686
0.541176 0.003922 0.011765
0.572549 0.000000 0.019608
0.603922 0.000000 0.019608
0.619608 0.000000 0.019608
0.639216 0.000000 0.015686
0.654902 0.000000 0.007843
0.686275 0.003922 0.011765
0.709804 0.000000 0.003922
0.729412 0.003922 0.003922
0.745098 0.000000 0.000000
0.764706 0.003922 0.000000
0.788235 0.000000 0.003922
0.803922 0.003922 0.007843
0.823529 0.003922 0.000000
0.847059 0.003922 0.000000
0.862745 0.003922 0.000000
0.878431 0.000000 0.000000
0.890196 0.000000 0.003922
0.905882 0.000000 0.007843
0.909804 0.023529 0.007843
0.933333 0.058824 0.007843
0.949020 0.098039 0.000000
0.956863 0.125490 0.000000
0.972549 0.152941 0.000000
0.980392 0.172549 0.000000
0.992157 0.196078 0.000000
1.000000 0.211765 0.000000
0.000000 0.031373 0.011765
0.000000 0.035294 0.015686
0.000000 0.031373 0.011765
0.007843 0.031373 0.015686
0.011765 0.039216 0.011765
0.015686 0.035294 0.007843
0.027451 0.039216 0.003922
0.035294 0.039216 0.007843
0.035294 0.043137 0.000000
0.050980 0.050980 0.003922
0.066667 0.050980 0.007843
0.074510 0.047059 0.007843
0.082353 0.043137 0.007843
0.090196 0.039216 0.007843
0.098039 0.047059 0.011765
0.101961 0.047059 0.011765
0.121569 0.050980 0.011765
0.133333 0.054902 0.019608
0.141176 0.054902 0.011765
0.156863 0.050980 0.007843
0.180392 0.050980 0.015686
0.188235 0.054902 0.011765
0.207843 0.058824 0.019608
0.219608 0.050980 0.015686
0.235294 0.050980 0.011765
0.258824 0.047059 0.015686
0.282353 0.043137 0.023529
0.301961 0.035294 0.023529
0.325490 0.031373 0.019608
0.352941 0.023529 0.015686
0.376471 0.015686 0.019608
0.396078 0.003922 0.015686
0.427451 0.000000 0.011765
0.450980 0.000000 0.019608
0.470588 0.000000 0.015686
0.494118 0.000000 0.015686
0.525490 0.000000 0.019608
0.549020 0.000000 0.011765
0.572549 0.000000 0.011765
0.596078 0.000000 0.011765
0.619608 0.003922 0.007843
0.635294 0.000000 0.011765
0.654902 0.000000 0.000000
0.686275 0.003922 0.007843
0.705882 0.000000 0.003922
0.729412 0.003922 0.003922
0.745098 0.000000 0.000000
0.764706 0.003922 0.007843
0.788235 0.000000 0.000000
0.803922 0.007843 0.000000
0.827451 0.007843 0.000000
0.839216 0.003922 0.000000
0.858824 0.000000 0.000000
0.878431 0.000000 0.003922
0.890196 0.000000 0.003922
0.905882 0.000000 0.000000
0.917647 0.047059 0.003922
0.933333 0.078431 0.003922
0.949020 0.105882 0.000000
0.956863 0.133333 0.000000
0.976471 0.156863 0.000000
0.988235 0.180392 0.003922
0.992157 0.196078 0.000000
1.000000 0.219608 0.000000
0.000000 0.043137 0.019608
0.000000 0.043137 0.019608
0.000000 0.043137 0.019608
0.000000 0.039216 0.007843
0.007843 0.047059 0.015686
0.019608 0.047059 0.015686
0.019608 0.047059 0.015686
0.027451 0.047059 0.019608
0.039216 0.054902 0.000000
0.047059 0.054902 0.003922
0.054902 0.054902 0.007843
0.066667 0.050980 0.003922
0.078431 0.054902 0.007843
0.090196 0.050980 0.011765
0.101961 0.054902 0.007843
0.109804 0.054902 0.011765
0.117647 0.050980 0.019608
0.125490 0.054902 0.015686
0.145098 0.058824 0.007843
0.152941 0.058824 0.011765
0.176471 0.058824 0.019608
0.192157 0.058824 0.023529
0.203922 0.058824 0.019608
0.219608 0.062745 0.023529
0.243137 0.054902 0.015686
0.266667 0.054902 0.023529
0.278431 0.047059 0.015686
0.301961 0.047059 0.023529
0.325490 0.039216 0.015686
0.349020 0.031373 0.015686
0.376471 0.027451 0.019608
0.403922 0.019608 0.023529
0.419608 0.003922 0.019608
0.450980 0.000000 0.019608
0.474510 0.000000 0.015686
0.505882 0.000000 0.019608
0.529412 0.003922 0.015686
0.549020 0.000000 0.011765
0.572549 0.000000 0.011765
0.603922 0.000000 0.007843
0.619608 0.000000 0.015686
0.643137 0.000000 0.011765
0.662745 0.000000 0.000000
0.690196 0.000000 0.007843
0.713725 0.003922 0.007843
0.733333 0.000000 0.003922
0.749020 0.000000 0.000000
0.772549 0.000000 0.000000
0.780392 0.000000 0.000000
0.800000 0.000000 0.003922
0.823529 0.003922 0.000000
0.843137 0.000000 0.000000
0.858824 0.000000 0.000000
0.870588 0.003922 0.000000
0.894118 0.003922 0.000000
0.917647 0.019608 0.000000
0.917647 0.066667 0.007843
0.937255 0.090196 0.007843
0.952941 0.121569 0.003922
0.960784 0.145098 0.000000
0.976471 0.164706 0.000000
0.984314 0.188235 0.000000
0.996078 0.207843 0.003922
0.996078 0.219608 0.000000
0.003922 0.047059 0.023529
0.003922 0.047059 0.023529
0.000000 0.043137 0.019608
0.003922 0.047059 0.023529
0.003922 0.047059 0.015686
0.007843 0.054902 0.015686
0.011765 0.058824 0.019608
0.015686 0.062745 0.023529
0.035294 0.058824 0.003922
0.050980 0.066667 0.011765
0.058824 0.066667 0.011765
0.062745 0.066667 0.011765
0.074510 0.066667 0.007843
0.086275 0.062745 0.007843
0.098039 0.058824 0.011765
0.109804 0.062745 0.015686
0.121569 0.066667 0.023529
0.133333 0.070588 0.011765
0.145098 0.070588 0.003922
0.156863 0.066667 0.003922
0.172549 0.062745 0.011765
0.196078 0.062745 0.019608
0.211765 0.062745 0.019608
0.227451 0.062745 0.015686
0.247059 0.058824 0.011765
0.266667 0.062745 0.011765
0.290196 0.062745 0.019608
0.305882 0.054902 0.015686
0.333333 0.047059 0.019608
0.360784 0.043137 0.027451
0.380392 0.039216 0.019608
0.400000 0.027451 0.019608
0.435294 0.007843 0.027451
0.450980 0.000000 0.019608
0.478431 0.000000 0.019608
0.505882 0.000000 0.019608
0.525490 0.000000 0.011765
0.552941 0.003922 0.015686
0.576471 0.003922 0.007843
0.603922 0.000000 0.011765
0.619608 0.003922 0.007843
0.643137 0.000000 0.011765
0.670588 0.000000 0.003922
0.694118 0.000000 0.007843
0.709804 0.000000 0.003922
0.729412 0.003922 0.000000
0.749020 0.000000 0.000000
0.768627 0.003922 0.000000
0.788235 0.000000 0.000000
0.807843 0.000000 0.007843
0.831373 0.003922 0.007843
0.847059 0.003922 0.003922
0.862745 0.003922 0.000000
0.870588 0.003922 0.000000
0.886275 0.023529 0.000000
0.909804 0.050980 0.011765
0.913725 0.082353 0.000000
0.937255 0.109804 0.003922
0.949020 0.133333 0.000000
0.956863 0.156863 0.000000
0.972549 0.180392 0.007843
0.988235 0.196078 0.007843
0.992157 0.215686 0.000000
1.000000 0.235294 0.000000
0.003922 0.050980 0.035294
0.003922 0.050980 0.035294
0.007843 0.054902 0.039216
0.003922 0.054902 0.027451
0.003922 0.054902 0.027451
0.007843 0.058824 0.023529
0.003922 0.066667 0.023529
0.007843 0.070588 0.027451
0.027451 0.070588 0.007843
0.039216 0.070588 0.011765
0.058824 0.074510 0.015686
0.066667 0.078431 0.011765
0.074510 0.078431 0.015686
0.086275 0.074510 0.007843
0.101961 0.074510 0.011765
0.109804 0.074510 0.007843
0.125490 0.074510 0.003922
0.141176 0.074510 0.007843
0.156863 0.066667 0.007843
0.176471 0.074510 0.019608
0.176471 0.074510 0.019608
0.192157 0.078431 0.023529
0.219608 0.070588 0.019608
0.235294 0.062745 0.011765
0.254902 0.074510 0.015686
0.274510 0.070588 0.019608
0.290196 0.070588 0.019608
0.313725 0.070588 0.027451
0.333333 0.058824 0.019608
0.356863 0.047059 0.019608
0.384314 0.043137 0.015686
0.407843 0.035294 0.019608
0.435294 0.023529 0.011765
0.454902 0.019608 0.015686
0.482353 0.003922 0.015686
0.505882 0.000000 0.015686
0.529412 0.003922 0.015686
0.552941 0.003922 0.015686
0.580392 0.003922 0.007843
0.603922 0.000000 0.007843
0.627451 0.000000 0.000000
0.647059 0.003922 0.007843
0.670588 0.000000 0.003922
0.694118 0.000000 0.000000
0.709804 0.000000 0.000000
0.733333 0.000000 0.000000
0.752941 0.003922 0.000000
0.772549 0.007843 0.000000
0.788235 0.003922 0.007843
0.803922 0.003922 0.007843
0.831373 0.003922 0.000000
0.847059 0.000000 0.000000
0.866667 0.000000 0.000000
0.882353 0.015686 0.003922
0.890196 0.047059 0.003922
0.905882 0.070588 0.007843
0.925490 0.101961 0.003922
0.937255 0.117647 0.000000
0.952941 0.149020 0.003922
0.960784 0.168627 0.000000
0.964706 0.184314 0.000000
0.984314 0.203922 0.003922
1.000000 0.223529 0.007843
1.000000 0.239216 0.000000
0.000000 0.058824 0.031373
0.000000 0.058824 0.031373
0.003922 0.062745 0.035294
0.003922 0.062745 0.035294
0.003922 0.062745 0.035294
0.000000 0.066667 0.035294
0.003922 0.070588 0.031373
0.003922 0.070588 0.031373
0.023529 0.070588 0.023529
0.027451 0.074510 0.019608
0.047059 0.078431 0.019608
0.058824 0.086275 0.015686
0.074510 0.086275 0.011765
0.078431 0.086275 0.003922
0.098039 0.090196 0.003922
0.109804 0.090196 0.007843
0.125490 0.082353 0.007843
0.137255 0.086275 0.011765
0.152941 0.086275 0.015686
0.168627 0.078431 0.015686
0.184314 0.082353 0.023529
0.192157 0.086275 0.019608
0.211765 0.082353 0.015686
0.231373 0.078431 0.011765
0.250980 0.082353 0.019608
0.282353 0.078431 0.023529
0.298039 0.074510 0.015686
0.317647 0.070588 0.011765
0.341176 0.070588 0.019608
0.368627 0.062745 0.023529
0.384314 0.054902 0.011765
0.415686 0.054902 0.011765
0.439216 0.047059 0.015686
0.458824 0.031373 0.011765
0.482353 0.019608 0.011765
0.501961 0.007843 0.011765
0.529412 0.003922 0.015686
0.556863 0.000000 0.015686
0.580392 0.003922 0.007843
0.607843 0.000000 0.007843
0.635294 0.000000 0.011765
0.650980 0.000000 0.007843
0.674510 0.003922 0.003922
0.694118 0.000000 0.000000
0.721569 0.000000 0.000000
0.733333 0.000000 0.000000
0.760784 0.000000 0.000000
0.772549 0.000000 0.000000
0.800000 0.003922 0.000000
0.811765 0.000000 0.000000
0.835294 0.000000 0.000000
0.847059 0.003922 0.000000
0.866667 0.019608 0.007843
0.878431 0.047059 0.003922
0.890196 0.074510 0.003922
0.905882 0.101961 0.003922
0.929412 0.121569 0.000000
0.945098 0.141176 0.003922
0.956863 0.160784 0.003922
0.960784 0.176471 0.003922
0.976471 0.196078 0.003922
0.992157 0.215686 0.007843
1.000000 0.239216 0.000000
1.000000 0.254902 0.000000
0.000000 0.074510 0.039216
0.000000 0.074510 0.039216
0.000000 0.074510 0.039216
0.000000 0.074510 0.039216
0.000000 0.074510 0.039216
0.000000 0.074510 0.031373
0.000000 0.078431 0.035294
0.003922 0.082353 0.039216
0.011765 0.082353 0.027451
0.019608 0.086275 0.023529
0.031373 0.086275 0.019608
0.047059 0.090196 0.023529
0.070588 0.098039 0.027451
0.082353 0.101961 0.023529
0.094118 0.101961 0.011765
0.105882 0.101961 0.015686
0.129412 0.105882 0.019608
0.145098 0.094118 0.019608
0.156863 0.090196 0.019608
0.172549 0.090196 0.015686
0.192157 0.094118 0.015686
0.211765 0.090196 0.011765
0.235294 0.090196 0.015686
0.239216 0.090196 0.007843
0.266667 0.090196 0.015686
0.294118 0.086275 0.023529
0.309804 0.086275 0.019608
0.329412 0.082353 0.015686
0.349020 0.078431 0.015686
0.372549 0.074510 0.011765
0.396078 0.070588 0.015686
0.419608 0.058824 0.007843
0.443137 0.058824 0.023529
0.458824 0.050980 0.015686
0.486275 0.035294 0.015686
0.513725 0.023529 0.007843
0.541176 0.015686 0.011765
0.560784 0.003922 0.011765
0.588235 0.000000 0.007843
0.615686 0.000000 0.011765
0.635294 0.003922 0.003922
0.654902 0.000000 0.000000
0.682353 0.000000 0.003922
0.701961 0.000000 0.000000
0.721569 0.000000 0.000000
0.733333 0.000000 0.000000
0.760784 0.000000 0.000000
0.768627 0.003922 0.000000
0.803922 0.000000 0.003922
0.811765 0.000000 0.000000
0.831373 0.011765 0.003922
0.847059 0.031373 0.000000
0.858824 0.058824 0.000000
0.878431 0.082353 0.000000
0.894118 0.101961 0.000000
0.909804 0.117647 0.000000
0.925490 0.137255 0.003922
0.941176 0.152941 0.003922
0.952941 0.176471 0.003922
0.960784 0.192157 0.000000
0.976471 0.211765 0.000000
0.988235 0.223529 0.003922
0.992157 0.243137 0.000000
1.000000 0.262745 0.000000
0.000000 0.082353 0.035294
0.000000 0.086275 0.039216
0.000000 0.086275 0.039216
0.000000 0.086275 0.039216
0.000000 0.086275 0.035294
0.000000 0.086275 0.035294
0.000000 0.086275 0.035294
0.003922 0.090196 0.039216
0.003922 0.098039 0.035294
0.007843 0.098039 0.027451
0.015686 0.098039 0.023529
0.031373 0.098039 0.023529
0.050980 0.105882 0.015686
0.070588 0.109804 0.007843
0.090196 0.113725 0.011765
0.101961 0.117647 0.011765
0.133333 0.109804 0.015686
0.141176 0.109804 0.019608
0.152941 0.113725 0.015686
0.168627 0.105882 0.007843
0.192157 0.105882 0.015686
0.207843 0.105882 0.015686
0.223529 0.105882 0.011765
0.243137 0.098039 0.000000
0.266667 0.101961 0.015686
0.286275 0.098039 0.019608
0.317647 0.094118 0.019608
0.333333 0.094118 0.019608
0.356863 0.098039 0.011765
0.376471 0.094118 0.007843
0.400000 0.082353 0.007843
0.423529 0.078431 0.003922
0.443137 0.078431 0.011765
0.470588 0.070588 0.015686
0.498039 0.058824 0.011765
0.517647 0.050980 0.003922
0.545098 0.035294 0.003922
0.568627 0.023529 0.003922
0.592157 0.019608 0.000000
0.615686 0.007843 0.000000
0.643137 0.000000 0.000000
0.662745 0.000000 0.000000
0.682353 0.000000 0.003922
0.701961 0.000000 0.000000
0.725490 0.000000 0.000000
0.745098 0.000000 0.000000
0.764706 0.000000 0.000000
0.788235 0.000000 0.000000
0.803922 0.019608 0.000000
0.815686 0.031373 0.003922
0.839216 0.047059 0.007843
0.854902 0.066667 0.007843
0.866667 0.078431 0.007843
0.882353 0.098039 0.000000
0.901961 0.121569 0.000000
0.917647 0.141176 0.003922
0.921569 0.156863 0.000000
0.937255 0.176471 0.000000
0.949020 0.192157 0.000000
0.964706 0.200000 0.000000
0.980392 0.215686 0.000000
0.988235 0.239216 0.003922
0.988235 0.258824 0.000000
0.996078 0.274510 0.000000
0.000000 0.094118 0.043137
0.000000 0.094118 0.043137
0.003922 0.098039 0.047059
0.000000 0.094118 0.043137
0.000000 0.094118 0.043137
0.000000 0.094118 0.043137
0.000000 0.094118 0.039216
0.007843 0.094118 0.043137
0.000000 0.101961 0.043137
0.000000 0.101961 0.035294
0.007843 0.105882 0.031373
0.019608 0.113725 0.027451
0.039216 0.113725 0.027451
0.058824 0.121569 0.019608
0.082353 0.121569 0.015686
0.098039 0.133333 0.019608
0.121569 0.133333 0.011765
0.141176 0.125490 0.011765
0.160784 0.121569 0.015686
0.180392 0.117647 0.015686
0.192157 0.125490 0.015686
0.219608 0.125490 0.023529
0.247059 0.113725 0.015686
0.250980 0.117647 0.011765
0.274510 0.113725 0.011765
0.305882 0.109804 0.019608
0.317647 0.105882 0.011765
0.345098 0.109804 0.015686
0.360784 0.101961 0.007843
0.384314 0.101961 0.007843
0.407843 0.090196 0.007843
0.435294 0.090196 0.015686
0.458824 0.086275 0.015686
0.482353 0.078431 0.011765
0.509804 0.074510 0.007843
0.529412 0.070588 0.003922
0.556863 0.062745 0.007843
0.572549 0.054902 0.003922
0.592157 0.054902 0.000000
0.615686 0.047059 0.000000
0.639216 0.035294 0.000000
0.658824 0.031373 0.000000
0.682353 0.031373 0.000000
0.705882 0.027451 0.003922
0.725490 0.023529 0.000000
0.741176 0.023529 0.000000
0.760784 0.035294 0.000000
0.792157 0.039216 0.000000
0.803922 0.054902 0.000000
0.819608 0.062745 0.000000
0.835294 0.082353 0.007843
0.850980 0.094118 0.003922
0.862745 0.113725 0.003922
0.874510 0.129412 0.003922
0.890196 0.149020 0.000000
0.905882 0.160784 0.000000
0.925490 0.172549 0.000000
0.941176 0.192157 0.000000
0.952941 0.203922 0.000000
0.956863 0.219608 0.003922
0.976471 0.231373 0.003922
0.992157 0.250980 0.000000
0.996078 0.266667 0.000000
1.000000 0.286275 0.000000
0.000000 0.098039 0.047059
0.000000 0.101961 0.050980
0.000000 0.101961 0.050980
0.000000 0.101961 0.050980
0.000000 0.101961 0.050980
0.000000 0.101961 0.050980
0.000000 0.105882 0.047059
0.000000 0.105882 0.047059
0.003922 0.109804 0.050980
0.003922 0.109804 0.043137
0.000000 0.113725 0.035294
0.003922 0.117647 0.031373
0.023529 0.125490 0.027451
0.039216 0.129412 0.019608
0.062745 0.137255 0.023529
0.086275 0.145098 0.023529
0.113725 0.152941 0.015686
0.133333 0.149020 0.011765
0.149020 0.149020 0.015686
0.168627 0.145098 0.011765
0.196078 0.145098 0.019608
0.211765 0.137255 0.011765
0.235294 0.133333 0.011765
0.258824 0.129412 0.007843
0.282353 0.129412 0.007843
0.305882 0.129412 0.015686
0.329412 0.121569 0.000000
0.341176 0.117647 0.003922
0.368627 0.117647 0.007843
0.388235 0.117647 0.003922
0.407843 0.113725 0.007843
0.439216 0.109804 0.007843
0.458824 0.105882 0.003922
0.486275 0.101961 0.011765
0.509804 0.101961 0.011765
0.529412 0.090196 0.003922
0.556863 0.086275 0.000000
0.576471 0.078431 0.003922
0.596078 0.078431 0.000000
0.623529 0.070588 0.000000
0.650980 0.066667 0.003922
0.666667 0.066667 0.003922
0.686275 0.062745 0.000000
0.709804 0.066667 0.000000
0.725490 0.066667 0.000000
0.752941 0.070588 0.003922
0.772549 0.074510 0.000000
0.792157 0.078431 0.000000
0.803922 0.090196 0.003922
0.815686 0.098039 0.003922
0.835294 0.109804 0.000000
0.850980 0.121569 0.000000
