game/public/levels/Train Scene/post/Presetpro_-_Santorini.cube
#Website: © https://presetpro.com Tim Martin
TITLE "Presetpro - Santorini"
#LUT size
LUT_3D_SIZE 4
#LUT data points
0.003922 0.000000 0.000000
0.227451 0.058824 0.027451
0.584314 0.082353 0.070588
0.937255 0.231373 0.133333
0.007843 0.239216 0.066667
0.262745 0.258824 0.039216
0.631373 0.294118 0.101961
0.941176 0.392157 0.168627
0.117647 0.494118 0.105882
0.266667 0.478431 0.094118
0.596078 0.525490 0.000000
0.964706 0.650980 0.184314
0.486275 0.898039 0.250980
0.556863 0.898039 0.247059
0.772549 0.921569 0.211765
1.000000 0.964706 0.011765
0.000000 0.133333 0.243137
0.243137 0.149020 0.274510
0.615686 0.172549 0.298039
0.933333 0.270588 0.329412
0.000000 0.317647 0.290196
0.305882 0.321569 0.317647
0.643137 0.341176 0.317647
0.937255 0.411765 0.337255
0.196078 0.576471 0.298039
0.325490 0.549020 0.282353
0.623529 0.564706 0.239216
0.960784 0.670588 0.384314
0.454902 0.913725 0.364706
0.541176 0.901961 0.356863
0.756863 0.925490 0.333333
1.000000 0.968627 0.250980
0.000000 0.341176 0.588235
0.000000 0.298039 0.619608
0.686275 0.427451 0.678431
0.933333 0.564706 0.705882
0.000000 0.470588 0.584314
0.254902 0.470588 0.623529
0.701961 0.545098 0.686275
0.925490 0.611765 0.709804
0.121569 0.701961 0.639216
0.376471 0.701961 0.654902
0.713725 0.713725 0.705882
0.956863 0.701961 0.678431
0.396078 0.956863 0.666667
0.462745 0.949020 0.643137
0.694118 0.941176 0.615686
1.000000 0.980392 0.572549
0.266667 0.690196 0.933333
0.415686 0.682353 0.937255
0.721569 0.701961 0.952941
0.952941 0.803922 0.956863
0.384314 0.752941 0.933333
0.486275 0.745098 0.933333
0.729412 0.741176 0.956863
0.952941 0.831373 0.960784
0.078431 0.866667 0.937255
0.309804 0.862745 0.941176
0.729412 0.847059 0.956863
0.968627 0.901961 0.972549
0.498039 1.000000 0.980392
0.568627 1.000000 0.980392
0.745098 1.000000 0.984314
0.996078 1.000000 1.000000
