game/public/levels/Train Scene/post/Presetpro_-_Travel_Film.cube
#Copyright Tim Martin Presetpro.com StockPresets.com
TITLE "Presetpro - Travel Film"
#LUT size
LUT_3D_SIZE 8
#LUT data points
0.000000 0.000000 0.000000
0.078431 0.007843 0.007843
0.207843 0.015686 0.000000
0.384314 0.000000 0.000000
0.552941 0.000000 0.000000
0.694118 0.000000 0.000000
0.843137 0.101961 0.000000
0.988235 0.239216 0.003922
0.015686 0.070588 0.003922
0.094118 0.090196 0.011765
0.243137 0.098039 0.000000
0.423529 0.094118 0.000000
0.572549 0.086275 0.000000
0.713725 0.117647 0.003922
0.850980 0.188235 0.000000
0.996078 0.298039 0.007843
0.000000 0.219608 0.003922
0.019608 0.231373 0.003922
0.247059 0.270588 0.000000
0.458824 0.278431 0.000000
0.623529 0.286275 0.000000
0.752941 0.298039 0.000000
0.874510 0.341176 0.003922
1.000000 0.403922 0.000000
0.000000 0.392157 0.000000
0.000000 0.396078 0.000000
0.192157 0.423529 0.000000
0.427451 0.454902 0.000000
0.635294 0.478431 0.003922
0.768627 0.490196 0.000000
0.909804 0.517647 0.000000
0.996078 0.549020 0.000000
0.000000 0.545098 0.086275
0.000000 0.541176 0.074510
0.145098 0.556863 0.054902
0.384314 0.580392 0.003922
0.592157 0.619608 0.000000
0.780392 0.658824 0.007843
0.917647 0.674510 0.003922
0.996078 0.694118 0.011765
0.000000 0.690196 0.184314
0.000000 0.690196 0.184314
0.184314 0.694118 0.168627
0.380392 0.713725 0.137255
0.556863 0.745098 0.039216
0.737255 0.780392 0.003922
0.921569 0.811765 0.000000
1.000000 0.811765 0.000000
0.125490 0.847059 0.290196
0.192157 0.847059 0.298039
0.282353 0.850980 0.290196
0.419608 0.862745 0.274510
0.572549 0.874510 0.254902
0.725490 0.894118 0.200000
0.886275 0.913725 0.054902
1.000000 0.929412 0.000000
0.388235 0.992157 0.513725
0.419608 0.988235 0.521569
0.447059 0.992157 0.517647
0.521569 0.988235 0.517647
0.627451 0.996078 0.509804
0.741176 1.000000 0.478431
0.862745 0.996078 0.423529
0.992157 1.000000 0.317647
0.031373 0.000000 0.090196
0.098039 0.000000 0.082353
0.203922 0.003922 0.070588
0.388235 0.000000 0.082353
0.545098 0.000000 0.062745
0.694118 0.000000 0.039216
0.835294 0.101961 0.000000
0.984314 0.235294 0.000000
0.011765 0.090196 0.094118
0.105882 0.098039 0.101961
0.250980 0.101961 0.090196
0.419608 0.094118 0.078431
0.572549 0.090196 0.062745
0.713725 0.125490 0.027451
0.850980 0.196078 0.000000
0.988235 0.286275 0.000000
0.007843 0.247059 0.113725
0.078431 0.239216 0.105882
0.262745 0.270588 0.078431
0.462745 0.282353 0.050980
0.619608 0.286275 0.035294
0.756863 0.301961 0.000000
0.874510 0.345098 0.000000
0.996078 0.407843 0.000000
0.000000 0.415686 0.133333
0.000000 0.411765 0.129412
0.215686 0.423529 0.117647
0.435294 0.458824 0.027451
0.631373 0.478431 0.003922
0.772549 0.494118 0.007843
0.901961 0.517647 0.000000
1.000000 0.549020 0.011765
0.000000 0.552941 0.176471
0.003922 0.549020 0.176471
0.180392 0.556863 0.168627
0.388235 0.584314 0.133333
0.588235 0.623529 0.031373
0.772549 0.662745 0.000000
0.917647 0.674510 0.003922
1.000000 0.690196 0.011765
0.000000 0.701961 0.243137
0.027451 0.694118 0.235294
0.207843 0.690196 0.231373
0.384314 0.717647 0.219608
0.568627 0.745098 0.184314
0.737255 0.780392 0.074510
0.921569 0.811765 0.000000
1.000000 0.811765 0.000000
0.156863 0.850980 0.333333
0.203922 0.850980 0.341176
0.290196 0.850980 0.333333
0.419608 0.858824 0.325490
0.564706 0.878431 0.301961
0.721569 0.894118 0.270588
0.890196 0.913725 0.192157
1.000000 0.925490 0.000000
0.384314 0.992157 0.525490
0.419608 0.992157 0.537255
0.450980 0.988235 0.541176
0.529412 0.988235 0.541176
0.627451 1.000000 0.537255
0.741176 1.000000 0.513725
0.866667 1.000000 0.466667
0.992157 1.000000 0.360784
0.007843 0.000000 0.262745
0.121569 0.000000 0.262745
0.282353 0.000000 0.258824
0.380392 0.000000 0.215686
0.541176 0.000000 0.203922
0.670588 0.015686 0.196078
0.819608 0.137255 0.203922
0.976471 0.235294 0.188235
0.007843 0.078431 0.274510
0.117647 0.094118 0.282353
0.298039 0.078431 0.262745
0.400000 0.105882 0.235294
0.549020 0.094118 0.215686
0.690196 0.164706 0.231373
0.827451 0.211765 0.207843
0.976471 0.290196 0.184314
0.003922 0.258824 0.282353
0.109804 0.270588 0.278431
0.290196 0.282353 0.286275
0.447059 0.286275 0.270588
0.596078 0.294118 0.262745
0.725490 0.313725 0.247059
0.858824 0.349020 0.223529
0.984314 0.403922 0.192157
0.125490 0.443137 0.313725
0.203922 0.443137 0.313725
0.278431 0.435294 0.294118
0.454902 0.466667 0.282353
0.631373 0.486275 0.282353
0.764706 0.505882 0.278431
0.890196 0.521569 0.247059
1.000000 0.545098 0.215686
0.105882 0.576471 0.325490
0.164706 0.576471 0.317647
0.262745 0.572549 0.317647
0.411765 0.588235 0.317647
0.607843 0.631373 0.294118
0.772549 0.662745 0.266667
0.905882 0.674510 0.266667
0.996078 0.690196 0.266667
0.121569 0.717647 0.364706
0.176471 0.709804 0.364706
0.278431 0.701961 0.356863
0.400000 0.717647 0.349020
0.564706 0.741176 0.329412
0.745098 0.784314 0.305882
0.917647 0.811765 0.258824
1.000000 0.815686 0.266667
0.200000 0.858824 0.415686
0.235294 0.854902 0.419608
0.313725 0.854902 0.411765
0.415686 0.854902 0.415686
0.564706 0.874510 0.403922
0.717647 0.894118 0.380392
0.878431 0.905882 0.349020
1.000000 0.929412 0.270588
0.407843 0.988235 0.588235
0.427451 0.992157 0.588235
0.462745 0.992157 0.588235
0.529412 0.992157 0.592157
0.627451 1.000000 0.592157
0.737255 1.000000 0.576471
0.862745 1.000000 0.529412
0.992157 1.000000 0.470588
0.000000 0.000000 0.454902
0.113725 0.000000 0.454902
0.301961 0.000000 0.447059
0.470588 0.000000 0.443137
0.537255 0.000000 0.376471
0.654902 0.047059 0.372549
0.807843 0.066667 0.364706
0.952941 0.129412 0.345098
0.000000 0.070588 0.462745
0.125490 0.066667 0.462745
0.309804 0.054902 0.454902
0.486275 0.047059 0.454902
0.552941 0.121569 0.400000
0.666667 0.156863 0.376471
0.811765 0.164706 0.360784
0.949020 0.250980 0.360784
0.000000 0.247059 0.486275
0.027451 0.247059 0.470588
0.305882 0.266667 0.470588
0.482353 0.282353 0.458824
0.564706 0.305882 0.423529
0.694118 0.301961 0.411765
0.819608 0.333333 0.388235
0.956863 0.368627 0.372549
0.000000 0.458824 0.486275
0.149020 0.458824 0.478431
0.317647 0.470588 0.490196
0.478431 0.482353 0.490196
0.603922 0.482353 0.474510
0.733333 0.486275 0.450980
0.858824 0.501961 0.431373
0.996078 0.529412 0.403922
0.239216 0.603922 0.498039
0.290196 0.611765 0.513725
0.380392 0.607843 0.509804
0.450980 0.603922 0.490196
0.611765 0.643137 0.490196
0.768627 0.666667 0.478431
0.913725 0.678431 0.490196
1.000000 0.682353 0.462745
0.301961 0.741176 0.541176
0.305882 0.737255 0.521569
0.349020 0.737255 0.505882
0.435294 0.729412 0.505882
0.568627 0.749020 0.494118
0.737255 0.784314 0.486275
0.913725 0.811765 0.482353
1.000000 0.811765 0.482353
0.250980 0.866667 0.541176
0.282353 0.866667 0.545098
0.349020 0.866667 0.537255
0.435294 0.862745 0.529412
0.556863 0.870588 0.529412
0.713725 0.890196 0.517647
0.878431 0.909804 0.505882
1.000000 0.921569 0.470588
0.431373 0.992157 0.662745
0.447059 0.992157 0.658824
0.478431 0.996078 0.666667
0.549020 0.992157 0.670588
0.627451 0.992157 0.666667
0.733333 1.000000 0.650980
0.858824 0.996078 0.627451
0.988235 1.000000 0.588235
0.007843 0.000000 0.639216
0.141176 0.000000 0.619608
0.321569 0.003922 0.619608
0.494118 0.003922 0.615686
0.635294 0.000000 0.607843
0.674510 0.058824 0.533333
0.780392 0.149020 0.533333
0.937255 0.172549 0.549020
0.003922 0.043137 0.635294
0.168627 0.031373 0.627451
0.341176 0.011765 0.631373
0.498039 0.000000 0.615686
0.643137 0.035294 0.607843
0.682353 0.176471 0.549020
0.780392 0.219608 0.533333
0.933333 0.227451 0.545098
0.000000 0.239216 0.654902
0.164706 0.250980 0.639216
0.345098 0.258824 0.643137
0.505882 0.266667 0.639216
0.639216 0.290196 0.619608
0.690196 0.321569 0.564706
0.800000 0.333333 0.560784
0.949020 0.325490 0.552941
0.003922 0.439216 0.658824
0.043137 0.447059 0.654902
0.282353 0.450980 0.658824
0.482353 0.470588 0.654902
0.627451 0.474510 0.647059
0.694118 0.478431 0.603922
0.831373 0.462745 0.568627
0.968627 0.447059 0.533333
0.160784 0.623529 0.658824
0.227451 0.631373 0.658824
0.337255 0.627451 0.662745
0.478431 0.635294 0.662745
0.611765 0.647059 0.666667
0.733333 0.650980 0.647059
0.858824 0.643137 0.623529
0.996078 0.654902 0.596078
0.329412 0.772549 0.686275
0.360784 0.772549 0.682353
0.427451 0.768627 0.686275
0.521569 0.768627 0.686275
0.580392 0.760784 0.658824
0.741176 0.796078 0.666667
0.905882 0.811765 0.670588
1.000000 0.807843 0.670588
0.431373 0.882353 0.721569
0.447059 0.886275 0.729412
0.486275 0.890196 0.721569
0.486275 0.878431 0.674510
0.560784 0.874510 0.666667
0.698039 0.890196 0.662745
0.874510 0.913725 0.674510
1.000000 0.917647 0.662745
0.494118 0.996078 0.764706
0.494118 0.996078 0.756863
0.521569 0.992157 0.752941
0.580392 0.996078 0.752941
0.639216 0.992157 0.752941
0.741176 1.000000 0.756863
0.858824 1.000000 0.741176
0.980392 1.000000 0.721569
0.192157 0.000000 0.803922
0.262745 0.000000 0.796078
0.396078 0.000000 0.792157
0.541176 0.000000 0.788235
0.682353 0.000000 0.780392
0.796078 0.000000 0.764706
0.815686 0.149020 0.709804
0.929412 0.223529 0.713725
0.200000 0.000000 0.788235
0.278431 0.000000 0.800000
0.400000 0.000000 0.792157
0.552941 0.000000 0.792157
0.682353 0.000000 0.780392
0.788235 0.090196 0.772549
0.819608 0.227451 0.709804
0.929412 0.270588 0.713725
0.207843 0.239216 0.800000
0.274510 0.239216 0.800000
0.400000 0.239216 0.796078
0.549020 0.247059 0.796078
0.682353 0.262745 0.788235
0.788235 0.294118 0.784314
0.823529 0.349020 0.729412
0.929412 0.360784 0.725490
0.003922 0.407843 0.811765
0.035294 0.403922 0.815686
0.349020 0.439216 0.807843
0.509804 0.447059 0.803922
0.662745 0.450980 0.796078
0.776471 0.466667 0.792157
0.827451 0.478431 0.737255
0.937255 0.470588 0.721569
0.000000 0.619608 0.815686
0.098039 0.619608 0.819608
0.274510 0.615686 0.815686
0.435294 0.615686 0.815686
0.615686 0.631373 0.815686
0.764706 0.635294 0.803922
0.835294 0.623529 0.764706
0.960784 0.603922 0.733333
0.254902 0.780392 0.823529
0.294118 0.780392 0.819608
0.380392 0.780392 0.819608
0.498039 0.788235 0.823529
0.623529 0.792157 0.823529
0.752941 0.803922 0.827451
0.870588 0.792157 0.800000
0.988235 0.788235 0.784314
0.462745 0.909804 0.839216
0.478431 0.905882 0.831373
0.525490 0.905882 0.831373
0.588235 0.905882 0.839216
0.670588 0.898039 0.839216
0.721569 0.890196 0.811765
0.878431 0.917647 0.823529
1.000000 0.921569 0.823529
0.627451 1.000000 0.882353
0.643137 0.996078 0.886275
0.658824 0.992157 0.870588
0.705882 0.992157 0.874510
0.701961 0.992157 0.854902
0.768627 0.996078 0.847059
0.862745 0.996078 0.850980
0.984314 1.000000 0.847059
0.376471 0.007843 0.941176
0.423529 0.003922 0.937255
0.509804 0.000000 0.933333
0.623529 0.003922 0.933333
0.737255 0.000000 0.925490
0.858824 0.000000 0.925490
0.949020 0.035294 0.913725
0.988235 0.227451 0.882353
0.392157 0.000000 0.941176
0.427451 0.000000 0.937255
0.505882 0.003922 0.933333
0.619608 0.000000 0.937255
0.737255 0.000000 0.929412
0.850980 0.043137 0.925490
0.945098 0.168627 0.909804
0.984314 0.278431 0.878431
0.372549 0.215686 0.937255
0.411765 0.223529 0.937255
0.501961 0.223529 0.937255
0.603922 0.231373 0.929412
0.725490 0.247059 0.925490
0.839216 0.282353 0.925490
0.949020 0.321569 0.909804
0.968627 0.372549 0.870588
0.286275 0.411765 0.937255
0.345098 0.423529 0.937255
0.435294 0.423529 0.933333
0.564706 0.427451 0.929412
0.698039 0.439216 0.933333
0.819608 0.450980 0.929412
0.933333 0.462745 0.917647
0.964706 0.494118 0.874510
0.000000 0.592157 0.941176
0.050980 0.596078 0.949020
0.270588 0.580392 0.941176
0.474510 0.592157 0.937255
0.647059 0.611765 0.937255
0.788235 0.615686 0.925490
0.921569 0.623529 0.917647
0.964706 0.635294 0.878431
0.192157 0.768627 0.937255
0.231373 0.768627 0.933333
0.341176 0.768627 0.929412
0.458824 0.768627 0.929412
0.596078 0.772549 0.937255
0.760784 0.776471 0.921569
0.898039 0.780392 0.921569
0.968627 0.772549 0.886275
0.423529 0.901961 0.937255
0.439216 0.901961 0.937255
0.498039 0.905882 0.933333
0.580392 0.905882 0.929412
0.682353 0.913725 0.937255
0.788235 0.917647 0.937255
0.905882 0.925490 0.941176
0.992157 0.913725 0.921569
0.674510 0.996078 0.941176
0.690196 0.996078 0.945098
0.717647 1.000000 0.945098
0.752941 0.996078 0.945098
0.800000 0.996078 0.949020
0.858824 0.988235 0.945098
0.890196 0.996078 0.929412
0.988235 1.000000 0.937255
0.533333 0.003922 0.996078
0.552941 0.000000 1.000000
0.615686 0.000000 1.000000
0.698039 0.000000 0.996078
0.788235 0.000000 0.996078
0.894118 0.105882 1.000000
1.000000 0.223529 1.000000
0.996078 0.313725 1.000000
0.529412 0.000000 1.000000
0.552941 0.000000 1.000000
0.615686 0.000000 1.000000
0.690196 0.003922 0.988235
0.788235 0.117647 1.000000
0.886275 0.203922 1.000000
1.000000 0.278431 1.000000
1.000000 0.349020 1.000000
0.513725 0.239216 1.000000
0.529412 0.247059 0.992157
0.592157 0.254902 0.996078
0.670588 0.274510 0.996078
0.776471 0.305882 1.000000
0.882353 0.337255 1.000000
0.992157 0.384314 1.000000
1.000000 0.439216 1.000000
0.458824 0.427451 1.000000
0.478431 0.431373 0.996078
0.549020 0.435294 1.000000
0.639216 0.447059 1.000000
0.745098 0.462745 1.000000
0.858824 0.486275 0.996078
0.968627 0.513725 1.000000
1.000000 0.545098 0.996078
0.258824 0.556863 0.996078
0.325490 0.560784 1.000000
0.454902 0.588235 1.000000
0.580392 0.600000 1.000000
0.698039 0.619608 1.000000
0.823529 0.631373 1.000000
0.945098 0.647059 1.000000
0.996078 0.670588 0.992157
0.274510 0.749020 0.996078
0.313725 0.745098 1.000000
0.380392 0.745098 1.000000
0.498039 0.749020 1.000000
0.639216 0.756863 1.000000
0.788235 0.776471 1.000000
0.929412 0.780392 1.000000
1.000000 0.796078 0.996078
0.482353 0.890196 0.996078
0.501961 0.890196 1.000000
0.541176 0.890196 1.000000
0.603922 0.894118 0.992157
0.686275 0.898039 1.000000
0.780392 0.898039 1.000000
0.909804 0.909804 1.000000
1.000000 0.909804 0.996078
0.682353 0.988235 0.996078
0.698039 0.992157 1.000000
0.717647 0.988235 1.000000
0.760784 0.996078 1.000000
0.815686 0.992157 1.000000
0.870588 0.992157 1.000000
0.937255 1.000000 0.996078
1.000000 0.996078 1.000000
