game/public/levels/Train Scene/post/Presetpro_-_Desert_Heat.cube
#Created by: Adobe Photoshop Export Color Lookup Plugin
#Copyright: (C) Copyright 2022 Tim Martin and Presetpro.com
TITLE "Presetpro - Desert Heat.jpg"
#LUT size
LUT_3D_SIZE 32
#data domain
DOMAIN_MIN 0.0 0.0 0.0
DOMAIN_MAX 1.0 1.0 1.0
#LUT data points
0.003937 0.000000 0.000000
0.004303 0.000000 0.000122
0.020355 0.000000 0.003662
0.039215 0.000000 0.000000
0.048584 0.000000 0.000000
0.071838 0.000000 0.000641
0.085388 0.000763 0.000000
0.121185 0.000000 0.000000
0.145203 0.002899 0.000000
0.184937 0.000000 0.000000
0.223267 0.000000 0.000000
0.276154 0.000000 0.000000
0.305603 0.000000 0.001526
0.357239 0.002289 0.000000
0.401001 0.000000 0.000000
0.444763 0.001892 0.000000
0.490723 0.000000 0.003937
0.538422 0.000000 0.000000
0.573181 0.001648 0.000000
0.618347 0.003937 0.000000
0.665039 0.000000 0.000000
0.703491 0.001251 0.000000
0.746124 0.003937 0.003937
0.784180 0.000000 0.000000
0.834808 0.000000 0.000000
0.875397 0.000763 0.000000
0.914490 0.000000 0.003937
0.947510 0.003418 0.000000
0.983551 0.000000 0.000000
0.996063 0.000000 0.000000
0.996063 0.000000 0.000000
0.996063 0.000000 0.000000
0.003937 0.003937 0.003784
0.011780 0.007843 0.000000
0.020355 0.004425 0.000000
0.036163 0.004059 0.000000
0.052368 0.007599 0.000000
0.071991 0.011261 0.000000
0.092590 0.007721 0.000000
0.124359 0.003174 0.003784
0.152191 0.000122 0.000000
0.185181 0.000122 0.000000
0.226044 0.002655 0.000122
0.272461 0.001251 0.001404
0.314972 0.000000 0.000000
0.361267 0.000000 0.000122
0.404907 0.001770 0.000000
0.448547 0.000000 0.000000
0.488831 0.000122 0.000000
0.538147 0.000000 0.000000
0.580017 0.001648 0.003937
0.622406 0.000122 0.000122
0.667572 0.002533 0.002533
0.707550 0.002533 0.000000
0.752838 0.000000 0.000000
0.792175 0.000000 0.000000
0.835693 0.000885 0.000000
0.877808 0.000000 0.000000
0.917786 0.000000 0.003174
0.954468 0.000000 0.000000
0.987091 0.003540 0.006836
0.996063 0.000000 0.000000
0.999878 0.003784 0.003784
0.996216 0.000122 0.000122
0.008087 0.008362 0.000000
0.012146 0.012146 0.003662
0.027954 0.012024 0.000000
0.047180 0.016052 0.003540
0.055664 0.012512 0.003662
0.073120 0.012268 0.000000
0.096649 0.012787 0.000000
0.124207 0.011780 0.000641
0.156982 0.004181 0.000000
0.193298 0.000885 0.000000
0.235291 0.000000 0.000000
0.285889 0.000000 0.005310
0.315491 0.000000 0.000244
0.365570 0.001404 0.000000
0.407837 0.003937 0.002167
0.458435 0.000000 0.001892
0.496674 0.001770 0.000000
0.542328 0.000000 0.000000
0.582184 0.001892 0.002014
0.625580 0.000244 0.001526
0.667572 0.002533 0.002289
0.707916 0.002411 0.000000
0.756226 0.000000 0.000244
0.798859 0.001007 0.000244
0.835938 0.003662 0.000000
0.881744 0.003937 0.003174
0.918427 0.000641 0.000000
0.954834 0.000519 0.000000
0.983673 0.000641 0.000366
0.996063 0.000000 0.000000
0.996338 0.000244 0.000244
0.999756 0.003662 0.003662
0.015686 0.020355 0.000000
0.019745 0.023651 0.003662
0.024414 0.020996 0.000244
0.050598 0.023895 0.000366
0.059723 0.025177 0.003418
0.081085 0.027588 0.000000
0.101837 0.024292 0.000763
0.133820 0.023407 0.000763
0.167877 0.016205 0.002899
0.202515 0.007843 0.000000
0.241974 0.000000 0.000000
0.288147 0.000000 0.000763
0.329132 0.002411 0.001129
0.374939 0.000000 0.000000
0.417450 0.001404 0.003540
0.462341 0.000000 0.001892
0.503113 0.001648 0.001648
0.552338 0.000000 0.000000
0.586975 0.003540 0.000000
0.635559 0.000000 0.000000
0.674408 0.001404 0.000000
0.717529 0.000000 0.000000
0.761810 0.003937 0.000000
0.802399 0.002533 0.000000
0.842651 0.003052 0.003937
0.883636 0.003540 0.003937
0.922699 0.002899 0.007843
0.955597 0.000366 0.000000
0.987488 0.003540 0.006317
0.995575 0.000244 0.000000
0.996063 0.000000 0.000000
0.999634 0.003540 0.003540
0.013275 0.036804 0.001007
0.027954 0.039734 0.004181
0.032135 0.040222 0.000519
0.048187 0.040619 0.000366
0.068176 0.044647 0.000000
0.095245 0.044647 0.006592
0.112091 0.045166 0.003174
0.137878 0.040863 0.000366
0.175201 0.035797 0.001007
0.219604 0.032257 0.004547
0.253632 0.021759 0.003418
0.289429 0.004547 0.000000
0.344818 0.000000 0.002411
0.381775 0.001648 0.000000
0.421600 0.000519 0.002167
0.463867 0.002777 0.000000
0.512726 0.003784 0.001526
0.556885 0.000519 0.000000
0.597870 0.000000 0.001648
0.642395 0.000000 0.001892
0.685150 0.000000 0.006836
0.725250 0.000519 0.003418
0.768005 0.000000 0.000000
0.807739 0.000000 0.000000
0.848450 0.000000 0.000000
0.885651 0.000000 0.000000
0.922852 0.002777 0.000000
0.955841 0.003937 0.000000
0.994568 0.000366 0.001007
0.999481 0.003418 0.003418
0.996063 0.000000 0.001007
1.000000 0.003937 0.003937
0.016327 0.060730 0.000641
0.026825 0.060089 0.000000
0.032501 0.060730 0.000885
0.045044 0.060730 0.000641
0.060974 0.065887 0.006592
0.083618 0.072479 0.003296
0.123962 0.073120 0.000000
0.155334 0.072723 0.000000
0.192261 0.065887 0.003540
0.229218 0.063629 0.000000
0.269684 0.060089 0.003937
0.310547 0.050079 0.000000
0.353302 0.034027 0.002411
0.393402 0.013519 0.000000
0.433136 0.002411 0.000641
0.481964 0.000000 0.005188
0.521210 0.001404 0.000000
0.566498 0.000641 0.000641
0.607727 0.001648 0.006195
0.651001 0.003296 0.003937
0.692474 0.002533 0.003296
0.732849 0.002014 0.000000
0.769775 0.000641 0.001129
0.810638 0.000641 0.001007
0.857697 0.002411 0.000000
0.892365 0.003174 0.000000
0.928162 0.000641 0.001251
0.958893 0.006714 0.000000
0.988739 0.003296 0.007477
0.996338 0.000244 0.000244
0.996704 0.000641 0.000641
0.996704 0.003143 0.000641
0.014160 0.084625 0.006317
0.022766 0.085388 0.000000
0.034271 0.085388 0.003174
0.046692 0.085754 0.000000
0.060852 0.093994 0.000519
0.082611 0.097656 0.001251
0.124603 0.101837 0.003937
0.156464 0.110413 0.003174
0.200623 0.106262 0.007324
0.240204 0.106140 0.004303
0.276886 0.099426 0.003937
0.316132 0.094727 0.000000
0.358856 0.093231 0.002411
0.408844 0.078186 0.002289
0.451721 0.063873 0.005066
0.493835 0.044525 0.000000
0.533234 0.015656 0.000000
0.579407 0.005188 0.000000
0.619232 0.001648 0.001648
0.663757 0.000000 0.001526
0.701477 0.000000 0.001770
0.742310 0.001251 0.001251
0.782562 0.001129 0.000000
0.822388 0.001007 0.000000
0.863129 0.000000 0.000885
0.899689 0.003174 0.000763
0.933960 0.000763 0.000641
0.962189 0.003418 0.000000
0.994568 0.000366 0.007080
0.996338 0.007080 0.006592
0.996826 0.037170 0.000763
1.000000 0.106384 0.003174
0.006073 0.114227 0.001770
0.013916 0.117249 0.000000
0.021637 0.117249 0.000000
0.034790 0.119019 0.000000
0.062378 0.125610 0.000000
0.084869 0.129913 0.000000
0.119659 0.138519 0.003052
0.161285 0.146484 0.003052
0.203156 0.150391 0.005951
0.244904 0.150146 0.003662
0.284729 0.148254 0.000000
0.324097 0.142548 0.000000
0.373169 0.140411 0.002411
0.419098 0.131805 0.000885
0.458557 0.126862 0.003052
0.505493 0.119781 0.001007
0.546112 0.107880 0.000885
0.587738 0.092194 0.000000
0.627472 0.074585 0.002533
0.674133 0.050690 0.000000
0.712097 0.024628 0.004425
0.753204 0.016296 0.003418
0.794067 0.012634 0.004791
0.828979 0.011749 0.001770
0.869690 0.012756 0.000000
0.903748 0.013245 0.000000
0.937775 0.022491 0.000000
0.971039 0.032471 0.005951
0.997864 0.079285 0.000885
1.000000 0.119141 0.003662
0.999878 0.154327 0.000000
0.996948 0.187469 0.006073
0.001007 0.150146 0.000000
0.005829 0.154083 0.000000
0.006073 0.148499 0.002899
0.020874 0.155823 0.002899
0.049469 0.158508 0.001007
0.077026 0.163544 0.000366
0.112823 0.173431 0.000763
0.158508 0.175568 0.000000
0.197205 0.190369 0.000000
0.243896 0.191498 0.000000
0.290680 0.192780 0.002014
0.334198 0.189758 0.000763
0.380615 0.187347 0.003937
0.423889 0.181885 0.000000
0.464996 0.182037 0.000763
0.510559 0.178619 0.000000
0.558289 0.170776 0.002014
0.600006 0.166718 0.001007
0.644409 0.162415 0.003662
0.679596 0.155701 0.000000
0.719055 0.142426 0.001526
0.762329 0.135590 0.000000
0.799255 0.130890 0.001770
0.833405 0.130768 0.000000
0.877930 0.128876 0.000000
0.908051 0.136841 0.000000
0.943970 0.151642 0.003937
0.972046 0.163055 0.003937
0.995941 0.182281 0.002533
1.000000 0.204407 0.002899
0.997101 0.227295 0.003937
1.000000 0.247284 0.000000
0.002258 0.187225 0.001129
0.004791 0.190002 0.003937
0.000000 0.192139 0.000000
0.001129 0.195068 0.000000
0.026428 0.200500 0.000000
0.071472 0.201752 0.004059
0.106873 0.212006 0.007843
0.147614 0.213531 0.000244
0.189362 0.226288 0.001007
0.239319 0.229218 0.000000
0.287262 0.237061 0.003937
0.336365 0.236816 0.002777
0.382385 0.236664 0.003540
0.430603 0.229218 0.001129
0.471588 0.228699 0.000641
0.519287 0.226685 0.000000
0.562317 0.222504 0.000000
0.605072 0.220734 0.000000
0.651245 0.225281 0.001129
0.692993 0.223633 0.000000
0.737885 0.214142 0.002533
0.776337 0.215424 0.000000
0.809998 0.215790 0.002777
0.845428 0.218079 0.001129
0.884766 0.219086 0.000000
0.917786 0.222382 0.000000
0.947632 0.236420 0.000000
0.979523 0.243866 0.006836
0.998871 0.258942 0.002411
0.998871 0.269043 0.000000
0.997345 0.289917 0.001129
1.000000 0.307129 0.002258
0.003937 0.228455 0.000000
0.000000 0.232513 0.000000
0.000000 0.229828 0.000000
0.000000 0.233765 0.000000
0.001526 0.239075 0.000000
0.057556 0.238312 0.000000
0.097656 0.249451 0.003174
0.148773 0.252106 0.000885
0.190765 0.259308 0.000000
0.234650 0.266266 0.000000
0.286011 0.275513 0.001251
0.339020 0.280945 0.005310
0.382782 0.288422 0.000000
0.433380 0.283356 0.000000
0.476776 0.282074 0.002167
0.526489 0.278168 0.000641
0.565094 0.275513 0.002014
0.610779 0.274231 0.003021
0.651886 0.279419 0.002289
0.698669 0.280701 0.001526
0.743469 0.282074 0.002655
0.781799 0.283356 0.002533
0.820251 0.284607 0.002777
0.856049 0.288544 0.002655
0.888794 0.290680 0.000000
0.923737 0.294464 0.000000
0.952454 0.303589 0.000000
0.978882 0.310303 0.000000
0.995697 0.324707 0.002289
1.000000 0.333832 0.000000
0.998749 0.347229 0.002533
1.000000 0.361786 0.000000
0.000000 0.267151 0.000000
0.002533 0.267151 0.000000
0.002533 0.269684 0.002533
0.000366 0.275146 0.000000
0.000000 0.278687 0.000000
0.026947 0.279297 0.000641
0.081573 0.278931 0.004547
0.126984 0.291840 0.002533
0.179108 0.301819 0.001007
0.228973 0.302460 0.000000
0.276886 0.312958 0.000366
0.329651 0.320679 0.005310
0.383026 0.332428 0.002533
0.431976 0.328522 0.000000
0.477264 0.332428 0.000000
0.527618 0.326477 0.000000
0.571564 0.326233 0.003174
0.618744 0.325592 0.003296
0.659607 0.328247 0.001648
0.706024 0.325989 0.001404
0.744843 0.331055 0.001404
0.787109 0.339142 0.001404
0.827087 0.346985 0.001404
0.866425 0.353821 0.001526
0.899048 0.353943 0.000000
0.930298 0.360138 0.000000
0.953064 0.367340 0.003418
0.984833 0.373932 0.003418
0.996857 0.383270 0.002899
1.000000 0.391510 0.000519
0.999878 0.401764 0.001404
1.000000 0.413635 0.006439
0.000000 0.305603 0.002411
0.002411 0.311951 0.000000
0.000000 0.305603 0.002411
0.000763 0.308014 0.000000
0.001007 0.312958 0.001007
0.004303 0.322174 0.000000
0.067413 0.322052 0.003174
0.121826 0.328522 0.000641
0.175568 0.333069 0.000000
0.223022 0.342926 0.000366
0.273224 0.351166 0.000519
0.321930 0.354950 0.000000
0.370758 0.368347 0.000000
0.425781 0.375549 0.002289
0.475616 0.375549 0.002167
0.527496 0.374176 0.000000
0.577240 0.376190 0.005432
0.615326 0.377716 0.000000
0.663116 0.376068 0.000000
0.707031 0.377716 0.000000
0.746490 0.380249 0.000000
0.793945 0.385803 0.001526
0.830750 0.392273 0.001526
0.866150 0.399719 0.000000
0.896027 0.413635 0.000000
0.932098 0.421753 0.001648
0.961304 0.427795 0.003052
0.987610 0.432739 0.000000
0.999237 0.441986 0.001526
1.000000 0.449310 0.001526
0.999878 0.457550 0.000000
0.997589 0.467010 0.000000
0.002289 0.347107 0.002289
0.002289 0.347107 0.002289
0.002289 0.347107 0.002289
0.000000 0.344452 0.000000
0.005707 0.352173 0.003296
0.000000 0.354950 0.002014
0.034271 0.361023 0.000000
0.108795 0.362793 0.000000
0.164825 0.371643 0.002655
0.214783 0.379761 0.002289
0.262482 0.384674 0.001648
0.311188 0.392273 0.000000
0.368225 0.401764 0.002289
0.423889 0.411499 0.004547
0.471710 0.419983 0.002167
0.522552 0.424133 0.000000
0.576752 0.423889 0.002289
0.619141 0.429443 0.003937
0.665649 0.426178 0.000641
0.710083 0.427826 0.000000
0.745758 0.433380 0.000000
0.794708 0.435669 0.001007
0.829102 0.439453 0.001648
0.870483 0.446777 0.004944
0.898438 0.458313 0.000000
0.933350 0.469452 0.001526
0.961182 0.479187 0.000000
0.989014 0.485626 0.001648
0.999634 0.495758 0.003662
1.000000 0.497772 0.000000
1.000000 0.505615 0.000122
0.998352 0.512817 0.000000
0.001770 0.383148 0.001770
0.002167 0.383545 0.000000
0.002167 0.383545 0.000000
0.002167 0.383148 0.000000
0.003662 0.384796 0.004822
0.000000 0.389343 0.000641
0.015045 0.402130 0.000000
0.091949 0.399719 0.000000
0.152161 0.408081 0.002014
0.205048 0.414276 0.000000
0.259308 0.420105 0.001251
0.312439 0.426666 0.000000
0.358734 0.433868 0.001770
0.413635 0.444000 0.000000
0.463745 0.453735 0.000000
0.521423 0.463867 0.000000
0.569153 0.467773 0.000275
0.618622 0.469818 0.000000
0.662506 0.475494 0.000000
0.708954 0.476135 0.000000
0.750671 0.477264 0.000000
0.792419 0.479919 0.000000
0.830109 0.485107 0.001129
0.866547 0.490814 0.000000
0.897919 0.502075 0.001282
0.932068 0.506134 0.001404
0.958893 0.521301 0.000641
0.987213 0.525970 0.000519
0.996063 0.541412 0.000366
0.994049 0.548004 0.000000
0.997711 0.554199 0.000000
0.997833 0.559631 0.001770
0.000000 0.417297 0.000000
0.000000 0.419342 0.000000
0.001892 0.419220 0.003937
0.000000 0.417297 0.000000
0.000519 0.425293 0.002533
0.001892 0.423248 0.001251
0.004547 0.431091 0.000763
0.079437 0.431091 0.000885
0.150146 0.437927 0.000000
0.202515 0.447174 0.003174
0.255280 0.453247 0.001251
0.303101 0.459930 0.000000
0.357605 0.466034 0.003540
0.407562 0.475891 0.002014
0.459564 0.485870 0.002289
0.511444 0.493835 0.003784
0.564972 0.501831 0.001892
0.614563 0.511444 0.000000
0.661621 0.517242 0.000000
0.707794 0.519287 0.001526
0.753693 0.519775 0.000000
0.792419 0.527740 0.001251
0.827972 0.531799 0.002258
0.867554 0.539764 0.001007
0.892609 0.542816 0.000000
0.929047 0.549896 0.003174
0.956848 0.559265 0.003418
0.984680 0.565460 0.002014
0.999634 0.575439 0.001892
1.000000 0.585571 0.000244
0.998108 0.595673 0.000000
0.998108 0.599609 0.000000
0.000000 0.453156 0.001892
0.000000 0.453156 0.000000
0.000000 0.455414 0.002136
0.000000 0.456818 0.000000
0.000000 0.457184 0.000519
0.006592 0.458466 0.007843
0.002258 0.465668 0.003937
0.069427 0.470856 0.003174
0.142303 0.471863 0.000000
0.192261 0.479706 0.000000
0.246796 0.486542 0.001892
0.294617 0.492493 0.003784
0.348358 0.499817 0.002014
0.402252 0.507782 0.002014
0.453613 0.519287 0.003662
0.505341 0.525635 0.000000
0.559143 0.533722 0.000000
0.608612 0.547516 0.003540
0.660339 0.551575 0.003784
0.708557 0.559143 0.000000
0.749786 0.563080 0.000000
0.790253 0.568390 0.000000
0.827972 0.570557 0.001892
0.864655 0.580780 0.003052
0.899323 0.581818 0.000000
0.926392 0.586609 0.000000
0.954346 0.593689 0.000000
0.979004 0.607086 0.000000
0.999634 0.608612 0.003937
1.000000 0.617462 0.000519
1.000000 0.625427 0.003937
0.996216 0.631653 0.000000
0.000000 0.493134 0.002167
0.002167 0.490967 0.002167
0.003937 0.489197 0.003937
0.003540 0.488831 0.003540
0.001007 0.485291 0.002167
0.004822 0.491364 0.005432
0.003784 0.494141 0.001404
0.060699 0.500092 0.000885
0.145081 0.502747 0.000000
0.195435 0.510590 0.000000
0.245911 0.517029 0.000885
0.298523 0.522980 0.001404
0.346588 0.531708 0.000000
0.397583 0.538025 0.000000
0.451599 0.545471 0.000397
0.501556 0.557129 0.003784
0.552948 0.567627 0.000000
0.602936 0.573334 0.003937
0.652893 0.583954 0.004303
0.704376 0.591034 0.004303
0.746002 0.599396 0.004303
0.794067 0.603424 0.000000
0.828979 0.608612 0.000000
0.864777 0.617615 0.000000
0.895386 0.619507 0.000885
0.923462 0.623535 0.000000
0.954346 0.631500 0.000000
0.979248 0.637726 0.000000
0.997467 0.639618 0.002136
0.997589 0.647583 0.000244
0.998230 0.655670 0.000122
0.996063 0.665283 0.000000
0.000000 0.526764 0.000000
0.000000 0.525116 0.000000
0.000000 0.525116 0.000000
0.000366 0.524384 0.000000
0.006714 0.517792 0.001648
0.003296 0.528412 0.004944
0.002258 0.525879 0.000000
0.067413 0.533722 0.003937
0.143951 0.535614 0.000000
0.195068 0.544739 0.000000
0.252991 0.550293 0.001648
0.300171 0.555603 0.000000
0.348633 0.560425 0.000000
0.401001 0.572540 0.002289
0.452087 0.579376 0.001770
0.500305 0.583557 0.000000
0.549683 0.597107 0.000519
0.602661 0.603302 0.001648
0.652893 0.615326 0.001648
0.699951 0.619385 0.002411
0.746246 0.632660 0.000000
0.789764 0.636963 0.000366
0.830231 0.643799 0.001648
0.860992 0.651642 0.000641
0.889191 0.652893 0.000000
0.923218 0.656830 0.000763
0.950409 0.662384 0.000000
0.976593 0.664642 0.000000
0.999237 0.671875 0.002289
0.998596 0.673492 0.002289
0.999878 0.681091 0.000000
0.997711 0.689209 0.002289
0.003937 0.557129 0.000000
0.002411 0.560150 0.000000
0.002167 0.560425 0.001526
0.001526 0.558777 0.004425
0.002014 0.557129 0.001892
0.002411 0.560150 0.001526
0.004547 0.561066 0.000000
0.077271 0.567383 0.002411
0.156464 0.569916 0.001526
0.204163 0.577118 0.001526
0.257935 0.583069 0.001526
0.306885 0.588501 0.003937
0.355713 0.593933 0.001526
0.403656 0.603546 0.000000
0.450470 0.609863 0.001526
0.499664 0.617859 0.000000
0.552582 0.628845 0.001526
0.601288 0.637451 0.004303
0.649994 0.644806 0.002411
0.698303 0.648834 0.002411
0.747253 0.661987 0.000122
0.787109 0.667175 0.000244
0.828094 0.672363 0.000763
0.862640 0.677795 0.000000
0.892975 0.683258 0.000000
0.923218 0.685638 0.000000
0.949524 0.689575 0.000000
0.976471 0.696777 0.002411
0.993286 0.703369 0.003540
0.996063 0.706146 0.000000
0.996063 0.708923 0.000000
1.000000 0.713104 0.003937
0.003937 0.594452 0.001404
0.003784 0.594574 0.000000
0.000000 0.596985 0.000000
0.000000 0.598755 0.000000
0.006439 0.591919 0.000000
0.001892 0.596466 0.001404
0.015808 0.598480 0.000000
0.101318 0.603424 0.000000
0.171387 0.607208 0.001007
0.219727 0.612671 0.002533
0.270203 0.615448 0.001282
0.319275 0.617737 0.001129
0.365570 0.628357 0.003784
0.409851 0.633667 0.002777
0.457031 0.641754 0.000000
0.512451 0.649841 0.001892
0.557251 0.656036 0.002411
0.605835 0.666809 0.002533
0.651764 0.671234 0.000244
0.700714 0.682098 0.002533
0.744598 0.687164 0.001404
0.783325 0.691223 0.001526
0.823151 0.700592 0.002533
0.859711 0.704254 0.001007
0.888062 0.710327 0.000000
0.920563 0.714111 0.002533
0.951691 0.719299 0.000641
0.980652 0.723358 0.000000
0.996704 0.725250 0.002533
1.000000 0.728912 0.001129
0.999878 0.731689 0.003784
1.000000 0.737000 0.000000
0.003937 0.632904 0.001251
0.003937 0.632904 0.001251
0.001251 0.630249 0.001251
0.003937 0.632904 0.000000
0.000000 0.631500 0.003937
0.005829 0.633545 0.000000
0.066681 0.632904 0.000000
0.144226 0.638092 0.000000
0.192169 0.645691 0.001007
0.242126 0.645813 0.000000
0.289917 0.652496 0.000000
0.339142 0.656555 0.001404
0.377472 0.663116 0.001526
0.424896 0.670074 0.001251
0.472992 0.673889 0.001251
0.523834 0.677155 0.001251
0.571686 0.685150 0.002655
0.612152 0.692474 0.001251
0.655945 0.697784 0.001251
0.703125 0.708160 0.001251
0.747253 0.712341 0.000000
0.788513 0.720428 0.002655
0.822906 0.721710 0.001129
0.852386 0.728546 0.000000
0.883636 0.733856 0.003052
0.917786 0.740540 0.003937
0.943207 0.745850 0.000000
0.971527 0.746002 0.000763
0.995331 0.747375 0.000000
0.997345 0.756989 0.000000
1.000000 0.753082 0.005310
0.997345 0.756989 0.001251
0.000000 0.669952 0.001129
0.001129 0.669952 0.001129
0.000000 0.668823 0.000000
0.001129 0.669952 0.001129
0.012909 0.663757 0.000519
0.063019 0.667816 0.000641
0.124725 0.666809 0.001129
0.184448 0.670074 0.000885
0.228210 0.677032 0.002136
0.266663 0.678955 0.001648
0.311188 0.685394 0.001251
0.361542 0.689575 0.002777
0.402649 0.696411 0.000000
0.444641 0.697418 0.001129
0.492584 0.702087 0.001770
0.537506 0.706390 0.000000
0.575592 0.713104 0.000000
0.623444 0.720947 0.000000
0.666290 0.728271 0.000000
0.707672 0.729919 0.000000
0.747650 0.738647 0.000000
0.791290 0.744476 0.001129
0.822906 0.748383 0.000000
0.852112 0.756378 0.000122
0.886414 0.759277 0.000244
0.918915 0.761688 0.003937
0.949280 0.769135 0.000641
0.975464 0.770264 0.000641
0.998474 0.776611 0.000000
0.996063 0.774200 0.000000
0.999878 0.779755 0.004791
1.000000 0.776978 0.000000
0.002899 0.709686 0.002899
0.020874 0.709686 0.002777
0.047607 0.704742 0.002655
0.079224 0.707275 0.002899
0.117798 0.704742 0.000000
0.141815 0.702850 0.001007
0.186615 0.698669 0.004944
0.233795 0.704620 0.001007
0.269592 0.713593 0.001007
0.307648 0.711945 0.000000
0.347992 0.712982 0.001251
0.388214 0.716003 0.001404
0.432007 0.721436 0.002899
0.466919 0.728668 0.001282
0.513580 0.728149 0.000000
0.558350 0.734222 0.000000
0.596344 0.741180 0.000000
0.636444 0.743073 0.000000
0.680969 0.746368 0.001007
0.724243 0.750916 0.003418
0.758148 0.760284 0.002533
0.793945 0.764587 0.000244
0.823029 0.769379 0.000000
0.860596 0.776337 0.000000
0.887543 0.780518 0.000000
0.915375 0.785217 0.000000
0.943207 0.789124 0.002899
0.974945 0.795959 0.002899
0.998596 0.796600 0.003540
1.000000 0.797974 0.002899
1.000000 0.797974 0.000000
0.997101 0.803802 0.000000
0.139679 0.741577 0.000000
0.149536 0.741425 0.000000
0.164459 0.737640 0.000244
0.179260 0.737640 0.000885
0.196991 0.734589 0.005585
0.217712 0.736755 0.001526
0.244659 0.735992 0.003174
0.286652 0.738525 0.000000
0.313477 0.738647 0.001770
0.352173 0.744598 0.001892
0.384949 0.746368 0.000000
0.421356 0.749420 0.000000
0.459839 0.752686 0.001526
0.499664 0.755859 0.000000
0.541687 0.760773 0.003052
0.577332 0.760162 0.000000
0.616211 0.764069 0.000885
0.653900 0.770782 0.000000
0.692108 0.776093 0.000763
0.726379 0.780792 0.000000
0.767761 0.782532 0.002533
0.799255 0.789124 0.002655
0.832642 0.792297 0.000000
0.862640 0.796478 0.000122
0.891479 0.804321 0.000000
0.925385 0.805328 0.000763
0.945374 0.809357 0.003662
0.972687 0.816833 0.000000
0.994446 0.820496 0.000000
0.999115 0.824799 0.000000
0.999878 0.824036 0.003937
1.000000 0.825684 0.004791
0.231628 0.768768 0.000000
0.242645 0.770264 0.000763
0.246307 0.768768 0.000000
0.257050 0.769897 0.000000
0.269958 0.772186 0.000000
0.288696 0.768127 0.000000
0.313110 0.769531 0.005585
0.339417 0.769531 0.000000
0.363312 0.769531 0.000000
0.398499 0.773438 0.001129
0.432373 0.775452 0.000000
0.465271 0.776733 0.000000
0.499420 0.776459 0.000763
0.536102 0.783691 0.000763
0.568390 0.787354 0.001404
0.607208 0.789124 0.001892
0.647827 0.787231 0.002014
0.679077 0.792023 0.000000
0.711212 0.798370 0.000763
0.745361 0.803284 0.000000
0.775482 0.808868 0.000000
0.809875 0.813416 0.000000
0.838593 0.817322 0.002777
0.867065 0.822021 0.000244
0.893097 0.824280 0.000000
0.927155 0.825165 0.000000
0.950531 0.829224 0.000000
0.975464 0.836426 0.000000
0.994171 0.840485 0.000366
0.996063 0.841614 0.000763
0.999237 0.844788 0.003937
1.000000 0.845551 0.001526
0.315247 0.800751 0.000000
0.319794 0.798096 0.000000
0.324860 0.800751 0.003296
0.338776 0.800751 0.006592
0.342316 0.803558 0.000000
0.357635 0.798859 0.000000
0.375977 0.798096 0.000000
0.394318 0.804688 0.000000
0.419220 0.798096 0.000641
0.446686 0.804688 0.000000
0.472473 0.803284 0.000000
0.506378 0.809235 0.000000
0.538269 0.808594 0.000000
0.567108 0.812134 0.000641
0.600006 0.811646 0.000641
0.635803 0.817078 0.000000
0.670868 0.814423 0.000641
0.700195 0.818359 0.000000
0.730438 0.824921 0.000000
0.764587 0.826447 0.000000
0.791290 0.835297 0.000763
0.819733 0.833405 0.000000
0.850342 0.839966 0.000000
0.870850 0.847076 0.002899
0.902344 0.845795 0.000000
0.927277 0.849579 0.000000
0.951050 0.856293 0.003296
0.975067 0.857056 0.000000
0.997986 0.864136 0.006592
0.996063 0.861481 0.000000
0.999359 0.864777 0.000000
0.998749 0.869965 0.000000
0.385193 0.832764 0.003937
0.389130 0.833282 0.001007
0.396210 0.833527 0.001007
0.404419 0.833282 0.000000
0.412659 0.829865 0.000519
0.420746 0.830994 0.000000
0.430603 0.832764 0.000763
0.454529 0.830353 0.000000
0.473511 0.826447 0.000519
0.503479 0.828857 0.000000
0.527893 0.835419 0.003418
0.555969 0.837189 0.003937
0.579895 0.836182 0.004303
0.607971 0.841614 0.000519
0.634644 0.839478 0.000519
