game/public/levels/Train Scene/post/Presetpro_-_Desert_Heat.cube
#Created by: Adobe Photoshop Export Color Lookup Plugin
#Copyright: (C) Copyright 2022 Tim Martin and Presetpro.com
TITLE "Presetpro - Desert Heat.jpg"
#LUT size
LUT_3D_SIZE 8
#data domain
#LUT data points
DOMAIN_MIN 0.000000 0.000000 0.000000
DOMAIN_MAX 0.903226 0.903226 0.903226
0.003937 0.000000 0.000000
0.048584 0.000000 0.000000
0.145203 0.002899 0.000000
0.305603 0.000000 0.001526
0.490723 0.000000 0.003937
0.665039 0.000000 0.000000
0.834808 0.000000 0.000000
0.983551 0.000000 0.000000
0.013275 0.036804 0.001007
0.068176 0.044647 0.000000
0.175201 0.035797 0.001007
0.344818 0.000000 0.002411
0.512726 0.003784 0.001526
0.685150 0.000000 0.006836
0.848450 0.000000 0.000000
0.994568 0.000366 0.001007
0.001007 0.150146 0.000000
0.049469 0.158508 0.001007
0.197205 0.190369 0.000000
0.380615 0.187347 0.003937
0.558289 0.170776 0.002014
0.719055 0.142426 0.001526
0.877930 0.128876 0.000000
0.995941 0.182281 0.002533
0.000000 0.305603 0.002411
0.001007 0.312958 0.001007
0.175568 0.333069 0.000000
0.370758 0.368347 0.000000
0.577240 0.376190 0.005432
0.746490 0.380249 0.000000
0.896027 0.413635 0.000000
0.999237 0.441986 0.001526
0.000000 0.453156 0.001892
0.000000 0.457184 0.000519
0.142303 0.471863 0.000000
0.348358 0.499817 0.002014
0.559143 0.533722 0.000000
0.749786 0.563080 0.000000
0.899323 0.581818 0.000000
0.999634 0.608612 0.003937
0.003937 0.594452 0.001404
0.006439 0.591919 0.000000
0.171387 0.607208 0.001007
0.365570 0.628357 0.003784
0.557251 0.656036 0.002411
0.744598 0.687164 0.001404
0.888062 0.710327 0.000000
0.996704 0.725250 0.002533
0.139679 0.741577 0.000000
0.196991 0.734589 0.005585
0.313477 0.738647 0.001770
0.459839 0.752686 0.001526
0.616211 0.764069 0.000885
0.767761 0.782532 0.002533
0.891479 0.804321 0.000000
0.994446 0.820496 0.000000
0.452240 0.861237 0.000000
0.479828 0.861237 0.003052
0.529419 0.864136 0.000000
0.619843 0.865143 0.000000
0.723114 0.874878 0.000000
0.820007 0.882233 0.000000
0.915131 0.899567 0.004059
0.999237 0.905121 0.003937
0.007843 0.000000 0.043152
0.055420 0.003937 0.044647
0.153046 0.003418 0.036804
0.325226 0.001007 0.029480
0.500336 0.000000 0.016205
0.667572 0.002533 0.002533
0.834656 0.001404 0.000000
0.986603 0.003052 0.000519
0.023010 0.040741 0.052002
0.064758 0.049072 0.044159
0.190369 0.032898 0.044159
0.349243 0.001007 0.028961
0.516541 0.002411 0.001007
0.679840 0.001892 0.002014
0.851746 0.002533 0.005066
0.987091 0.003540 0.000000
0.000000 0.174683 0.026550
0.062744 0.176575 0.022003
0.208984 0.194305 0.000000
0.391876 0.190887 0.000519
0.564087 0.178589 0.002899
0.727264 0.142303 0.002899
0.874908 0.124969 0.000000
0.996216 0.171021 0.004425
0.002014 0.328125 0.002014
0.000519 0.325714 0.000000
0.187469 0.344818 0.001007
0.390991 0.375702 0.002411
0.588623 0.379730 0.000000
0.749023 0.392914 0.000000
0.904755 0.419098 0.006470
0.998474 0.438049 0.000000
0.002411 0.469849 0.001892
0.001526 0.470337 0.004578
0.166199 0.478180 0.000000
0.355713 0.507660 0.001007
0.563202 0.541443 0.000000
0.758270 0.565094 0.005310
0.898438 0.585724 0.001007
0.999634 0.610138 0.005432
0.003418 0.610779 0.006195
0.001404 0.605835 0.004059
0.194427 0.606842 0.001007
0.378876 0.633667 0.000000
0.561829 0.660614 0.004944
0.745850 0.693878 0.002533
0.894012 0.712097 0.000000
0.995819 0.727142 0.004059
0.165863 0.743469 0.000000
0.222778 0.744965 0.000000
0.322845 0.739532 0.004425
0.466278 0.751434 0.005432
0.617859 0.767487 0.002533
0.764862 0.783325 0.000000
0.897552 0.801270 0.000000
0.996216 0.820892 0.000000
0.456543 0.865540 0.000000
0.483368 0.864380 0.000366
0.528778 0.863647 0.000366
0.615936 0.869080 0.000519
0.720703 0.870209 0.001526
0.823547 0.884766 0.002014
0.917145 0.893982 0.000366
0.999237 0.912201 0.007477
0.000000 0.010742 0.166840
0.004425 0.009735 0.171265
0.157990 0.000000 0.182526
0.323334 0.000000 0.144836
0.500336 0.000000 0.140411
0.658081 0.000000 0.119141
0.829742 0.000000 0.085236
0.985718 0.002899 0.018463
0.005829 0.052490 0.173187
0.049957 0.057434 0.182526
0.193787 0.068176 0.193787
0.354584 0.022644 0.169647
0.513092 0.000000 0.157990
0.673889 0.002899 0.118774
0.840607 0.003937 0.083466
0.986206 0.002899 0.008453
0.000000 0.187469 0.189484
0.081451 0.197205 0.190887
0.232513 0.214905 0.201141
0.396301 0.202148 0.178619
0.561035 0.180634 0.151154
0.720581 0.144836 0.130035
0.868958 0.116119 0.076508
0.995331 0.142670 0.006073
0.005829 0.364929 0.187836
0.078033 0.369873 0.184052
0.229095 0.364929 0.165344
0.414032 0.391876 0.136993
0.598358 0.398346 0.129395
0.762695 0.411987 0.119263
0.900818 0.411621 0.028290
0.999634 0.426788 0.003052
0.002899 0.510071 0.133423
0.045898 0.505768 0.118744
0.225647 0.497406 0.092438
0.387604 0.520935 0.046234
0.588501 0.555237 0.002014
0.771820 0.577759 0.000000
0.900177 0.595581 0.001892
0.999634 0.620514 0.002533
0.004425 0.641998 0.013000
0.096008 0.633789 0.002533
0.239960 0.629730 0.007721
0.402008 0.639099 0.002899
0.581177 0.667450 0.002014
0.762054 0.697418 0.002533
0.898407 0.712585 0.001404
0.998230 0.728790 0.003052
0.215576 0.754333 0.004059
0.253632 0.760803 0.003540
0.339661 0.746490 0.000000
0.471100 0.751434 0.001007
0.620148 0.768890 0.003052
0.770172 0.786591 0.001007
0.895386 0.806061 0.002014
0.997345 0.823029 0.000000
0.451508 0.869080 0.000000
0.471466 0.866547 0.000366
0.524872 0.863770 0.005066
0.608215 0.865143 0.000000
0.714752 0.873993 0.001892
0.818970 0.883240 0.002014
0.915649 0.893982 0.000000
1.000000 0.911835 0.000366
0.002411 0.015686 0.342438
0.000519 0.018219 0.343933
0.102081 0.006836 0.366852
0.344818 0.000000 0.392517
0.512604 0.000519 0.341919
0.665649 0.002533 0.302582
0.817596 0.000000 0.286011
0.959778 0.001526 0.275635
0.000519 0.070709 0.346344
0.000000 0.073608 0.353302
0.154968 0.088806 0.373688
0.366333 0.103088 0.391510
0.531708 0.038818 0.347717
0.676910 0.000000 0.313080
0.826691 0.004791 0.300171
0.973328 0.000885 0.247772
0.000519 0.180511 0.348755
0.002533 0.194305 0.352173
0.213409 0.227051 0.378235
0.395935 0.253235 0.394409
0.552338 0.231598 0.355591
0.705261 0.184052 0.333954
0.852753 0.038910 0.287262
0.985443 0.000366 0.243256
0.000000 0.377716 0.382538
0.095245 0.378723 0.376709
0.261963 0.398834 0.390869
0.441986 0.425415 0.403381
0.603302 0.411499 0.376312
0.755219 0.394928 0.349243
0.889679 0.384918 0.309265
0.997742 0.385925 0.260834
0.082703 0.556763 0.377716
0.179626 0.558258 0.389496
0.295746 0.564087 0.381500
0.423248 0.550293 0.351135
0.611908 0.580292 0.342010
0.780396 0.595825 0.335083
0.903351 0.611145 0.333191
0.997345 0.613068 0.295868
0.156982 0.686523 0.350769
0.217316 0.686157 0.345825
0.314850 0.676910 0.319885
0.431244 0.662628 0.286865
0.593567 0.681732 0.270325
0.765472 0.712463 0.261963
0.902344 0.725250 0.242340
0.995575 0.729156 0.237793
0.267914 0.780151 0.275116
0.295227 0.781799 0.264221
0.378357 0.773834 0.236908
0.465515 0.768372 0.186676
0.617981 0.771912 0.154663
0.767120 0.790527 0.135925
0.896912 0.809113 0.085541
0.995331 0.823273 0.030304
0.437836 0.879181 0.175171
0.458313 0.876282 0.154419
0.511444 0.876404 0.111267
0.583801 0.871490 0.009094
0.694641 0.873383 0.001526
0.811646 0.882233 0.001007
0.907654 0.896912 0.000366
0.999237 0.912201 0.004425
0.000000 0.031372 0.516022
0.000000 0.034790 0.521454
0.002014 0.037323 0.534637
0.307129 0.031647 0.554871
0.555359 0.041656 0.586884
0.699829 0.001404 0.535126
0.832916 0.001770 0.480743
0.961304 0.003937 0.471375
0.003418 0.095642 0.521973
0.000000 0.101593 0.512085
0.065216 0.110931 0.532562
0.333679 0.131439 0.559662
0.567505 0.161041 0.590027
0.709198 0.110077 0.544617
0.838074 0.047729 0.486053
0.964844 0.000366 0.471375
0.001007 0.207977 0.517181
0.003937 0.218842 0.524231
0.163940 0.239319 0.534729
0.376709 0.265900 0.560669
0.582825 0.304260 0.589661
0.725250 0.277283 0.538544
0.848328 0.237457 0.499329
0.971680 0.164581 0.476318
0.000000 0.354065 0.510193
0.000519 0.362915 0.514496
0.214294 0.374817 0.525269
0.415894 0.417969 0.560150
0.611664 0.468414 0.589142
0.735748 0.436951 0.543610
0.862122 0.388611 0.508698
0.979767 0.325104 0.465454
0.027985 0.555359 0.555237
0.165863 0.555756 0.552826
0.312073 0.571930 0.560303
0.477905 0.588623 0.572052
0.641632 0.617981 0.594452
0.774200 0.596466 0.562561
0.896393 0.576874 0.522980
0.989380 0.563080 0.473389
0.321228 0.726776 0.588623
0.357025 0.723358 0.580780
0.427856 0.722839 0.584717
0.521576 0.721466 0.568665
0.614075 0.704773 0.521332
0.779266 0.725250 0.523499
0.899933 0.735107 0.523346
0.987732 0.738892 0.522339
0.388885 0.812164 0.553223
0.411652 0.810638 0.550323
0.458221 0.809113 0.533630
0.521942 0.798370 0.495026
0.611145 0.780640 0.431641
0.759644 0.794952 0.433044
0.890442 0.816071 0.436707
0.994934 0.828339 0.430908
0.437836 0.889832 0.478333
0.453522 0.891083 0.469604
0.501068 0.888672 0.450500
0.572906 0.883240 0.409515
0.658325 0.873383 0.340942
0.779907 0.885284 0.326782
0.891327 0.897919 0.320831
0.995697 0.910706 0.303009
0.006439 0.067810 0.672882
0.004181 0.070862 0.679321
0.002899 0.072754 0.688934
0.306122 0.094238 0.705750
0.543610 0.122345 0.728790
0.752686 0.189148 0.750153
0.871368 0.146271 0.714630
0.967102 0.153595 0.671875
0.003052 0.132446 0.670593
0.000000 0.139404 0.677307
0.010101 0.147614 0.678314
0.320923 0.168884 0.699310
0.554596 0.200897 0.727264
0.755859 0.258698 0.747375
0.878326 0.224548 0.717529
0.969391 0.220520 0.667053
0.000000 0.240356 0.671997
0.002014 0.240356 0.669952
0.123840 0.257172 0.686798
0.366455 0.283600 0.698425
0.570038 0.324341 0.722992
0.762207 0.381653 0.745514
0.874756 0.349915 0.714996
0.968018 0.328278 0.663666
0.003540 0.357605 0.659210
0.001404 0.371277 0.667450
0.192261 0.393921 0.680206
0.396423 0.418335 0.703217
0.592560 0.463989 0.722961
0.769409 0.524841 0.746887
0.867432 0.491058 0.712219
0.958618 0.450867 0.660614
0.001007 0.531708 0.673004
0.003052 0.532715 0.666199
0.227051 0.541809 0.676300
0.402496 0.548279 0.679077
0.612549 0.601776 0.717041
0.777618 0.658203 0.744110
0.865417 0.618866 0.695892
0.962952 0.563202 0.662506
0.268707 0.710693 0.702850
0.316650 0.709686 0.710693
0.416962 0.717529 0.709167
0.541931 0.725372 0.712585
0.674774 0.739044 0.727783
0.795837 0.757996 0.746002
0.884521 0.736115 0.712982
0.973175 0.716400 0.672638
0.557373 0.831268 0.749146
0.577118 0.832123 0.750549
0.607483 0.825165 0.741943
0.653259 0.829742 0.741058
0.709198 0.824280 0.727905
0.761566 0.810120 0.666443
0.879700 0.824280 0.675415
0.982544 0.833527 0.684906
0.589386 0.899689 0.727783
0.599884 0.903870 0.725494
0.622162 0.903870 0.716003
0.653778 0.894379 0.701721
0.679688 0.892975 0.650879
0.755859 0.884369 0.580414
0.868958 0.895905 0.583435
0.975708 0.912598 0.595856
0.000000 0.139404 0.812164
0.000000 0.139038 0.817841
0.023254 0.147369 0.816071
0.353699 0.166870 0.830872
0.566254 0.201416 0.837585
0.749908 0.272491 0.851746
0.880585 0.366364 0.863129
0.972290 0.350677 0.843903
0.000519 0.189636 0.813904
0.003937 0.191406 0.815582
0.108917 0.202789 0.823425
0.369110 0.217957 0.824280
0.571198 0.258209 0.836578
0.745361 0.323608 0.852753
0.884521 0.412262 0.863525
0.975708 0.387878 0.847961
0.000000 0.282593 0.813171
0.005585 0.284882 0.809753
0.183044 0.300049 0.816956
0.398468 0.319397 0.823914
0.582825 0.355347 0.831879
0.753326 0.421143 0.851379
0.880585 0.503479 0.858063
0.975708 0.472626 0.842499
0.000000 0.400360 0.801270
0.001007 0.406189 0.808228
0.209351 0.415405 0.814545
0.409729 0.441101 0.817841
0.597351 0.479187 0.831635
0.759644 0.538635 0.845917
0.876678 0.608215 0.855286
0.962952 0.576477 0.842133
0.001007 0.518036 0.783691
0.003662 0.520081 0.786713
0.166718 0.529938 0.790771
0.396942 0.551941 0.804321
0.596344 0.596466 0.823669
0.756622 0.649872 0.838593
0.872742 0.702362 0.853271
0.951691 0.670868 0.829224
0.087463 0.686676 0.800903
0.176239 0.685791 0.801392
0.297394 0.686676 0.796844
0.439606 0.686157 0.803680
0.584595 0.689209 0.806335
0.765991 0.735626 0.829102
0.883636 0.784058 0.860107
0.951172 0.747894 0.822784
0.475281 0.812164 0.824799
0.500305 0.816437 0.828735
0.548523 0.813904 0.817963
0.627838 0.818481 0.831116
0.712982 0.826569 0.836426
0.809235 0.833008 0.847321
0.895386 0.856171 0.860107
0.966095 0.832275 0.824432
0.704254 0.916016 0.859344
0.711578 0.915009 0.855164
0.730804 0.914490 0.859344
0.759644 0.916901 0.858185
0.789520 0.918427 0.853760
0.819733 0.913849 0.831635
0.855682 0.900330 0.780151
0.960419 0.916626 0.797607
0.085022 0.257294 0.924347
0.186737 0.261749 0.921326
0.328644 0.275146 0.929810
0.477173 0.301208 0.929779
0.628082 0.331207 0.937378
0.764069 0.394318 0.939423
0.871857 0.478699 0.937012
0.952942 0.574585 0.936890
0.125519 0.297546 0.924469
0.212524 0.305389 0.924744
0.339539 0.316254 0.927155
0.487396 0.330933 0.928650
0.628998 0.365845 0.928650
0.762054 0.428864 0.935883
0.866150 0.514496 0.939545
0.952057 0.598602 0.940033
0.178894 0.375580 0.920807
0.243652 0.378357 0.922333
0.358246 0.390137 0.917633
0.493347 0.408356 0.921326
0.638336 0.441742 0.926880
0.766602 0.497681 0.929047
0.869324 0.574707 0.933716
0.948639 0.643646 0.935486
0.182037 0.472107 0.920441
0.245667 0.475006 0.916382
0.367493 0.485260 0.921326
0.507019 0.505981 0.925110
0.646179 0.538391 0.929779
0.763062 0.590240 0.922943
0.869080 0.645660 0.932587
0.947113 0.699921 0.934479
0.057556 0.571686 0.906250
0.169128 0.572571 0.907654
0.314606 0.580017 0.910828
0.490936 0.598877 0.917877
0.640228 0.634430 0.918396
0.771545 0.666687 0.920807
0.864899 0.716003 0.923584
0.946747 0.758636 0.929047
0.083954 0.690704 0.903503
0.166016 0.686798 0.897034
0.276306 0.680725 0.901337
0.434387 0.686035 0.902222
0.612671 0.704376 0.905762
0.760529 0.737000 0.913605
0.874908 0.779755 0.923981
0.954712 0.820374 0.929291
0.439240 0.805573 0.906006
0.460114 0.804321 0.910187
0.505249 0.804321 0.907654
0.570923 0.805206 0.910065
0.644531 0.803284 0.910065
0.735107 0.798859 0.902863
0.868073 0.832642 0.916504
0.960419 0.880219 0.928894
0.634155 0.901215 0.912964
0.649963 0.904358 0.919037
0.673615 0.907288 0.914490
0.714111 0.902710 0.915375
0.769897 0.905121 0.910950
0.827576 0.912201 0.918274
0.889313 0.922974 0.920929
0.963959 0.944336 0.928650
