game/public/levels/Train Scene/post/Presetpro_-_Santorini.cube
#Website: © https://presetpro.com Tim Martin
TITLE "Presetpro - Santorini"
#LUT size
LUT_3D_SIZE 64
#LUT data points
0.003922 0.000000 0.000000
0.003922 0.000000 0.000000
0.019608 0.003922 0.000000
0.027451 0.003922 0.003922
0.039216 0.007843 0.007843
0.050980 0.011765 0.007843
0.054902 0.011765 0.003922
0.066667 0.011765 0.007843
0.074510 0.015686 0.003922
0.086275 0.015686 0.007843
0.094118 0.023529 0.007843
0.101961 0.027451 0.011765
0.113725 0.031373 0.011765
0.129412 0.039216 0.019608
0.141176 0.043137 0.023529
0.152941 0.043137 0.027451
0.156863 0.043137 0.019608
0.168627 0.050980 0.019608
0.188235 0.054902 0.019608
0.200000 0.054902 0.023529
0.207843 0.058824 0.019608
0.227451 0.058824 0.027451
0.247059 0.062745 0.031373
0.254902 0.066667 0.027451
0.274510 0.062745 0.031373
0.290196 0.066667 0.031373
0.305882 0.070588 0.031373
0.325490 0.074510 0.039216
0.341176 0.070588 0.043137
0.356863 0.070588 0.043137
0.380392 0.070588 0.043137
0.388235 0.074510 0.047059
0.411765 0.070588 0.050980
0.423529 0.074510 0.050980
0.443137 0.070588 0.047059
0.462745 0.074510 0.054902
0.482353 0.078431 0.058824
0.494118 0.070588 0.058824
0.517647 0.074510 0.058824
0.537255 0.074510 0.066667
0.552941 0.078431 0.066667
0.564706 0.078431 0.070588
0.584314 0.082353 0.070588
0.600000 0.086275 0.070588
0.619608 0.090196 0.074510
0.635294 0.090196 0.078431
0.654902 0.094118 0.078431
0.666667 0.098039 0.086275
0.686275 0.101961 0.086275
0.705882 0.105882 0.086275
0.721569 0.117647 0.094118
0.741176 0.117647 0.094118
0.752941 0.125490 0.094118
0.768627 0.133333 0.094118
0.784314 0.141176 0.098039
0.800000 0.152941 0.109804
0.815686 0.156863 0.113725
0.831373 0.168627 0.117647
0.854902 0.184314 0.117647
0.870588 0.196078 0.125490
0.882353 0.200000 0.125490
0.901961 0.211765 0.129412
0.917647 0.219608 0.133333
0.937255 0.231373 0.133333
0.007843 0.007843 0.000000
0.007843 0.007843 0.000000
0.015686 0.011765 0.003922
0.027451 0.011765 0.000000
0.035294 0.015686 0.003922
0.043137 0.023529 0.007843
0.058824 0.019608 0.011765
0.058824 0.023529 0.003922
0.070588 0.027451 0.011765
0.082353 0.031373 0.007843
0.094118 0.035294 0.007843
0.105882 0.039216 0.011765
0.113725 0.039216 0.015686
0.125490 0.047059 0.019608
0.137255 0.047059 0.023529
0.145098 0.047059 0.027451
0.160784 0.054902 0.027451
0.176471 0.058824 0.027451
0.188235 0.058824 0.023529
0.203922 0.058824 0.019608
0.215686 0.066667 0.027451
0.231373 0.062745 0.027451
0.250980 0.066667 0.035294
0.258824 0.070588 0.031373
0.274510 0.070588 0.019608
0.294118 0.074510 0.027451
0.309804 0.074510 0.031373
0.325490 0.074510 0.035294
0.345098 0.078431 0.043137
0.364706 0.078431 0.050980
0.380392 0.078431 0.047059
0.392157 0.078431 0.043137
0.407843 0.078431 0.047059
0.427451 0.078431 0.054902
0.447059 0.082353 0.054902
0.462745 0.082353 0.054902
0.486275 0.082353 0.062745
0.501961 0.082353 0.058824
0.517647 0.086275 0.058824
0.533333 0.082353 0.062745
0.552941 0.086275 0.070588
0.568627 0.086275 0.066667
0.584314 0.082353 0.070588
0.600000 0.086275 0.070588
0.619608 0.090196 0.074510
0.643137 0.098039 0.078431
0.658824 0.098039 0.082353
0.666667 0.098039 0.078431
0.690196 0.105882 0.082353
0.701961 0.113725 0.090196
0.721569 0.117647 0.094118
0.745098 0.121569 0.098039
0.756863 0.129412 0.098039
0.772549 0.137255 0.098039
0.792157 0.145098 0.101961
0.811765 0.152941 0.109804
0.819608 0.164706 0.109804
0.835294 0.172549 0.113725
0.854902 0.184314 0.117647
0.870588 0.196078 0.117647
0.882353 0.200000 0.117647
0.901961 0.211765 0.129412
0.917647 0.219608 0.133333
0.933333 0.235294 0.149020
0.007843 0.015686 0.003922
0.011765 0.019608 0.000000
0.019608 0.023529 0.003922
0.027451 0.023529 0.003922
0.043137 0.031373 0.003922
0.050980 0.031373 0.007843
0.058824 0.031373 0.007843
0.058824 0.031373 0.000000
0.070588 0.035294 0.007843
0.078431 0.035294 0.011765
0.094118 0.043137 0.011765
0.109804 0.043137 0.011765
0.117647 0.043137 0.015686
0.129412 0.050980 0.023529
0.145098 0.054902 0.023529
0.149020 0.054902 0.023529
0.160784 0.054902 0.019608
0.172549 0.058824 0.027451
0.192157 0.062745 0.027451
0.200000 0.066667 0.023529
0.215686 0.066667 0.023529
0.235294 0.066667 0.031373
0.247059 0.074510 0.031373
0.262745 0.074510 0.027451
0.278431 0.074510 0.031373
0.290196 0.078431 0.031373
0.309804 0.074510 0.031373
0.329412 0.078431 0.039216
0.341176 0.078431 0.043137
0.356863 0.082353 0.043137
0.384314 0.082353 0.050980
0.392157 0.086275 0.047059
0.411765 0.082353 0.043137
0.427451 0.086275 0.050980
0.447059 0.082353 0.050980
0.466667 0.086275 0.058824
0.482353 0.090196 0.066667
0.494118 0.086275 0.058824
0.517647 0.082353 0.066667
0.537255 0.086275 0.066667
0.560784 0.094118 0.070588
0.564706 0.094118 0.070588
0.580392 0.090196 0.066667
0.603922 0.098039 0.078431
0.623529 0.101961 0.082353
0.639216 0.105882 0.090196
0.662745 0.101961 0.086275
0.674510 0.105882 0.086275
0.682353 0.109804 0.082353
0.701961 0.117647 0.094118
0.721569 0.121569 0.098039
0.737255 0.125490 0.098039
0.752941 0.133333 0.090196
0.768627 0.145098 0.094118
0.784314 0.149020 0.098039
0.800000 0.160784 0.109804
0.819608 0.164706 0.101961
0.839216 0.176471 0.117647
0.858824 0.188235 0.121569
0.870588 0.196078 0.125490
0.882353 0.207843 0.129412
0.898039 0.215686 0.133333
0.917647 0.227451 0.137255
0.933333 0.239216 0.145098
0.007843 0.035294 0.003922
0.011765 0.031373 0.003922
0.023529 0.035294 0.007843
0.031373 0.035294 0.011765
0.035294 0.035294 0.003922
0.047059 0.035294 0.007843
0.058824 0.043137 0.007843
0.070588 0.043137 0.011765
0.074510 0.047059 0.015686
0.082353 0.050980 0.011765
0.094118 0.054902 0.015686
0.101961 0.050980 0.015686
0.117647 0.050980 0.011765
0.125490 0.054902 0.015686
0.137255 0.058824 0.023529
0.149020 0.062745 0.019608
0.168627 0.062745 0.027451
0.180392 0.070588 0.027451
0.188235 0.070588 0.023529
0.203922 0.070588 0.027451
0.219608 0.078431 0.031373
0.231373 0.074510 0.035294
0.250980 0.078431 0.035294
0.262745 0.082353 0.031373
0.274510 0.082353 0.027451
0.294118 0.082353 0.035294
0.309804 0.082353 0.035294
0.325490 0.082353 0.031373
0.345098 0.086275 0.039216
0.360784 0.086275 0.047059
0.384314 0.082353 0.043137
0.392157 0.086275 0.039216
0.407843 0.086275 0.043137
0.431373 0.090196 0.054902
0.443137 0.090196 0.058824
0.470588 0.090196 0.062745
0.482353 0.090196 0.058824
0.501961 0.094118 0.058824
0.517647 0.090196 0.062745
0.537255 0.094118 0.070588
0.552941 0.094118 0.066667
0.568627 0.098039 0.074510
0.584314 0.094118 0.070588
0.603922 0.098039 0.074510
0.619608 0.098039 0.078431
0.635294 0.101961 0.078431
0.654902 0.105882 0.078431
0.670588 0.109804 0.078431
0.686275 0.121569 0.086275
0.701961 0.121569 0.090196
0.725490 0.129412 0.094118
0.737255 0.133333 0.094118
0.760784 0.141176 0.105882
0.768627 0.141176 0.101961
0.788235 0.152941 0.105882
0.803922 0.160784 0.117647
0.827451 0.172549 0.109804
0.839216 0.176471 0.117647
0.858824 0.188235 0.121569
0.870588 0.196078 0.117647
0.882353 0.207843 0.121569
0.898039 0.215686 0.133333
0.917647 0.227451 0.137255
0.933333 0.239216 0.145098
0.011765 0.043137 0.000000
0.015686 0.047059 0.003922
0.023529 0.047059 0.007843
0.035294 0.047059 0.011765
0.043137 0.050980 0.007843
0.050980 0.050980 0.003922
0.058824 0.050980 0.003922
0.066667 0.050980 0.007843
0.074510 0.047059 0.015686
0.082353 0.054902 0.015686
0.094118 0.054902 0.019608
0.109804 0.058824 0.023529
0.117647 0.062745 0.019608
0.133333 0.066667 0.027451
0.145098 0.066667 0.023529
0.156863 0.070588 0.027451
0.164706 0.070588 0.023529
0.176471 0.074510 0.019608
0.192157 0.078431 0.023529
0.203922 0.078431 0.027451
0.219608 0.078431 0.023529
0.227451 0.078431 0.027451
0.247059 0.082353 0.035294
0.258824 0.086275 0.035294
0.274510 0.086275 0.031373
0.290196 0.086275 0.031373
0.313725 0.086275 0.039216
0.333333 0.090196 0.039216
0.341176 0.090196 0.043137
0.356863 0.090196 0.047059
0.380392 0.090196 0.047059
0.396078 0.090196 0.043137
0.411765 0.090196 0.047059
0.435294 0.098039 0.054902
0.458824 0.098039 0.054902
0.474510 0.094118 0.058824
0.486275 0.094118 0.054902
0.501961 0.094118 0.058824
0.521569 0.098039 0.058824
0.537255 0.098039 0.054902
0.556863 0.098039 0.062745
0.572549 0.101961 0.070588
0.588235 0.101961 0.070588
0.607843 0.101961 0.078431
0.619608 0.109804 0.086275
0.639216 0.113725 0.086275
0.654902 0.113725 0.082353
0.662745 0.113725 0.078431
0.686275 0.121569 0.086275
0.705882 0.125490 0.086275
0.721569 0.137255 0.090196
0.745098 0.141176 0.101961
0.752941 0.145098 0.098039
0.768627 0.149020 0.098039
0.792157 0.156863 0.105882
0.807843 0.168627 0.109804
0.819608 0.176471 0.109804
0.839216 0.184314 0.113725
0.854902 0.196078 0.121569
0.870588 0.203922 0.121569
0.886275 0.211765 0.125490
0.901961 0.219608 0.137255
0.921569 0.231373 0.141176
0.937255 0.243137 0.149020
0.007843 0.054902 0.007843
0.011765 0.050980 0.007843
0.023529 0.054902 0.011765
0.031373 0.054902 0.007843
0.035294 0.058824 0.011765
0.047059 0.062745 0.007843
0.058824 0.058824 0.011765
0.070588 0.062745 0.011765
0.078431 0.062745 0.015686
0.090196 0.066667 0.019608
0.098039 0.066667 0.015686
0.105882 0.066667 0.019608
0.117647 0.070588 0.015686
0.125490 0.070588 0.019608
0.145098 0.074510 0.027451
0.152941 0.078431 0.023529
0.168627 0.082353 0.023529
0.176471 0.086275 0.027451
0.192157 0.082353 0.027451
0.200000 0.086275 0.031373
0.215686 0.086275 0.027451
0.235294 0.086275 0.035294
0.254902 0.090196 0.035294
0.258824 0.086275 0.035294
0.282353 0.090196 0.035294
0.298039 0.094118 0.039216
0.317647 0.098039 0.039216
0.329412 0.098039 0.043137
0.345098 0.098039 0.039216
0.368627 0.101961 0.050980
0.384314 0.101961 0.047059
0.400000 0.101961 0.047059
0.419608 0.098039 0.054902
0.431373 0.101961 0.058824
0.450980 0.105882 0.058824
0.470588 0.101961 0.054902
0.486275 0.101961 0.058824
0.505882 0.105882 0.066667
0.525490 0.101961 0.062745
0.533333 0.101961 0.066667
0.552941 0.105882 0.066667
0.572549 0.109804 0.070588
0.588235 0.109804 0.074510
0.607843 0.109804 0.074510
0.619608 0.117647 0.082353
0.639216 0.121569 0.082353
0.650980 0.121569 0.078431
0.670588 0.121569 0.086275
0.690196 0.133333 0.086275
0.705882 0.137255 0.094118
0.725490 0.141176 0.094118
0.741176 0.145098 0.094118
0.756863 0.149020 0.094118
0.776471 0.160784 0.101961
0.788235 0.164706 0.109804
0.807843 0.176471 0.113725
0.819608 0.184314 0.105882
0.835294 0.192157 0.117647
0.854902 0.196078 0.121569
0.874510 0.207843 0.125490
0.886275 0.219608 0.129412
0.901961 0.231373 0.133333
0.913725 0.235294 0.137255
0.933333 0.247059 0.141176
0.011765 0.058824 0.011765
0.015686 0.062745 0.007843
0.023529 0.066667 0.011765
0.035294 0.066667 0.015686
0.039216 0.070588 0.011765
0.047059 0.070588 0.015686
0.058824 0.074510 0.015686
0.062745 0.070588 0.015686
0.078431 0.070588 0.011765
0.082353 0.070588 0.011765
0.098039 0.074510 0.019608
0.105882 0.078431 0.015686
0.113725 0.078431 0.019608
0.129412 0.082353 0.019608
0.141176 0.090196 0.027451
0.149020 0.086275 0.027451
0.164706 0.090196 0.023529
0.180392 0.090196 0.027451
0.192157 0.090196 0.031373
0.203922 0.090196 0.027451
0.219608 0.090196 0.031373
0.235294 0.094118 0.031373
0.250980 0.098039 0.039216
0.262745 0.101961 0.035294
0.286275 0.101961 0.039216
0.301961 0.098039 0.043137
0.321569 0.101961 0.043137
0.333333 0.101961 0.047059
0.345098 0.101961 0.043137
0.368627 0.105882 0.043137
0.388235 0.105882 0.050980
0.392157 0.105882 0.047059
0.419608 0.109804 0.050980
0.435294 0.109804 0.054902
0.454902 0.109804 0.062745
0.470588 0.109804 0.058824
0.486275 0.109804 0.062745
0.498039 0.109804 0.058824
0.525490 0.109804 0.058824
0.541176 0.109804 0.066667
0.556863 0.117647 0.074510
0.572549 0.117647 0.074510
0.584314 0.117647 0.070588
0.607843 0.121569 0.082353
0.623529 0.121569 0.078431
0.643137 0.125490 0.086275
0.658824 0.129412 0.086275
0.674510 0.133333 0.090196
0.694118 0.137255 0.090196
0.705882 0.141176 0.098039
0.725490 0.145098 0.098039
0.745098 0.149020 0.098039
0.756863 0.156863 0.098039
0.772549 0.168627 0.105882
0.792157 0.168627 0.105882
0.807843 0.176471 0.105882
0.819608 0.184314 0.105882
0.835294 0.192157 0.113725
0.854902 0.203922 0.117647
0.866667 0.211765 0.117647
0.882353 0.227451 0.125490
0.901961 0.239216 0.133333
0.917647 0.247059 0.137255
0.929412 0.254902 0.137255
0.011765 0.078431 0.015686
0.019608 0.074510 0.015686
0.023529 0.074510 0.007843
0.031373 0.082353 0.015686
0.035294 0.078431 0.011765
0.047059 0.082353 0.015686
0.054902 0.082353 0.011765
0.066667 0.082353 0.015686
0.074510 0.078431 0.007843
0.090196 0.086275 0.015686
0.105882 0.082353 0.019608
0.113725 0.086275 0.015686
0.117647 0.090196 0.019608
0.125490 0.094118 0.015686
0.145098 0.094118 0.023529
0.160784 0.094118 0.027451
0.168627 0.094118 0.027451
0.180392 0.098039 0.031373
0.200000 0.101961 0.031373
0.207843 0.101961 0.027451
0.223529 0.101961 0.031373
0.243137 0.105882 0.031373
0.258824 0.105882 0.039216
0.266667 0.105882 0.035294
0.282353 0.101961 0.039216
0.298039 0.105882 0.047059
0.317647 0.109804 0.047059
0.333333 0.109804 0.043137
0.349020 0.105882 0.047059
0.372549 0.113725 0.050980
0.384314 0.113725 0.050980
0.396078 0.117647 0.054902
0.423529 0.113725 0.054902
0.439216 0.121569 0.054902
0.462745 0.121569 0.062745
0.478431 0.117647 0.066667
0.494118 0.117647 0.070588
0.509804 0.121569 0.070588
0.525490 0.121569 0.066667
0.541176 0.117647 0.066667
0.560784 0.121569 0.066667
0.572549 0.129412 0.074510
0.588235 0.129412 0.070588
0.603922 0.125490 0.074510
0.623529 0.129412 0.074510
0.639216 0.133333 0.082353
0.658824 0.137255 0.086275
0.674510 0.133333 0.090196
0.698039 0.141176 0.094118
0.709804 0.149020 0.094118
0.721569 0.152941 0.094118
0.745098 0.160784 0.098039
0.760784 0.168627 0.105882
0.772549 0.172549 0.109804
0.796078 0.180392 0.113725
0.807843 0.188235 0.113725
0.831373 0.196078 0.113725
0.839216 0.203922 0.121569
0.858824 0.207843 0.121569
0.874510 0.219608 0.125490
0.886275 0.231373 0.129412
0.901961 0.239216 0.133333
0.921569 0.250980 0.141176
0.929412 0.262745 0.141176
0.007843 0.090196 0.023529
0.015686 0.086275 0.023529
0.023529 0.090196 0.019608
0.027451 0.094118 0.023529
0.035294 0.090196 0.023529
0.047059 0.090196 0.023529
0.054902 0.090196 0.015686
0.066667 0.094118 0.023529
0.082353 0.094118 0.019608
0.090196 0.098039 0.015686
0.101961 0.098039 0.019608
0.109804 0.101961 0.015686
0.125490 0.098039 0.019608
0.133333 0.101961 0.023529
0.145098 0.101961 0.023529
0.152941 0.101961 0.027451
0.176471 0.109804 0.031373
0.180392 0.109804 0.031373
0.196078 0.109804 0.027451
0.215686 0.109804 0.035294
0.223529 0.109804 0.039216
0.239216 0.109804 0.035294
0.254902 0.109804 0.039216
0.266667 0.117647 0.043137
0.286275 0.117647 0.043137
0.301961 0.117647 0.047059
0.317647 0.117647 0.043137
0.337255 0.121569 0.043137
0.349020 0.117647 0.047059
0.364706 0.117647 0.050980
0.384314 0.121569 0.054902
0.403922 0.125490 0.054902
0.423529 0.121569 0.050980
0.435294 0.125490 0.058824
0.458824 0.125490 0.054902
0.470588 0.125490 0.050980
0.494118 0.129412 0.062745
0.509804 0.129412 0.066667
0.525490 0.125490 0.070588
0.545098 0.129412 0.074510
0.568627 0.129412 0.082353
0.576471 0.133333 0.078431
0.592157 0.129412 0.082353
0.615686 0.137255 0.086275
0.631373 0.137255 0.082353
0.643137 0.141176 0.090196
0.662745 0.145098 0.094118
0.674510 0.145098 0.098039
0.690196 0.152941 0.098039
0.709804 0.152941 0.098039
0.725490 0.164706 0.094118
0.741176 0.164706 0.098039
0.756863 0.176471 0.098039
0.776471 0.180392 0.105882
0.788235 0.184314 0.105882
0.803922 0.192157 0.113725
0.827451 0.200000 0.113725
0.843137 0.211765 0.109804
0.854902 0.215686 0.109804
0.874510 0.227451 0.121569
0.882353 0.235294 0.129412
0.898039 0.247059 0.129412
0.917647 0.254902 0.141176
0.929412 0.266667 0.152941
0.007843 0.098039 0.019608
0.015686 0.098039 0.023529
0.023529 0.098039 0.019608
0.031373 0.098039 0.027451
0.031373 0.098039 0.023529
0.043137 0.101961 0.027451
0.050980 0.105882 0.015686
0.058824 0.105882 0.019608
0.086275 0.105882 0.027451
0.094118 0.105882 0.023529
0.098039 0.105882 0.015686
0.113725 0.105882 0.019608
0.129412 0.109804 0.023529
0.133333 0.109804 0.023529
0.149020 0.105882 0.019608
0.160784 0.113725 0.019608
0.172549 0.113725 0.031373
0.184314 0.121569 0.031373
0.196078 0.117647 0.023529
0.215686 0.117647 0.031373
0.223529 0.117647 0.035294
0.243137 0.121569 0.039216
0.258824 0.121569 0.043137
0.274510 0.125490 0.043137
0.290196 0.129412 0.050980
0.305882 0.129412 0.047059
0.317647 0.129412 0.050980
0.333333 0.129412 0.047059
0.352941 0.133333 0.050980
0.368627 0.129412 0.054902
0.392157 0.129412 0.054902
0.400000 0.133333 0.050980
0.431373 0.129412 0.058824
0.450980 0.133333 0.066667
0.458824 0.133333 0.062745
0.474510 0.133333 0.066667
0.498039 0.133333 0.066667
0.517647 0.137255 0.074510
0.525490 0.137255 0.078431
0.549020 0.133333 0.078431
0.564706 0.137255 0.070588
0.580392 0.145098 0.078431
0.596078 0.145098 0.074510
0.615686 0.149020 0.086275
0.631373 0.149020 0.090196
0.647059 0.152941 0.094118
0.658824 0.152941 0.098039
0.674510 0.152941 0.094118
0.698039 0.160784 0.090196
0.709804 0.168627 0.098039
0.729412 0.168627 0.098039
0.741176 0.176471 0.105882
0.760784 0.180392 0.109804
0.776471 0.184314 0.109804
0.788235 0.192157 0.109804
0.811765 0.200000 0.113725
0.827451 0.211765 0.113725
0.843137 0.215686 0.121569
0.858824 0.227451 0.125490
0.870588 0.231373 0.133333
0.886275 0.239216 0.133333
0.901961 0.250980 0.133333
0.921569 0.262745 0.129412
0.937255 0.270588 0.133333
0.011765 0.109804 0.027451
0.011765 0.109804 0.027451
0.015686 0.109804 0.023529
0.023529 0.109804 0.027451
0.035294 0.109804 0.023529
0.039216 0.109804 0.023529
0.054902 0.113725 0.031373
0.062745 0.117647 0.027451
0.078431 0.117647 0.023529
0.086275 0.117647 0.019608
0.105882 0.121569 0.023529
0.113725 0.121569 0.027451
0.121569 0.121569 0.019608
0.137255 0.121569 0.015686
0.145098 0.121569 0.019608
0.152941 0.125490 0.015686
0.172549 0.125490 0.031373
0.184314 0.125490 0.035294
0.196078 0.125490 0.031373
0.215686 0.129412 0.039216
0.235294 0.133333 0.043137
0.243137 0.133333 0.047059
0.266667 0.129412 0.043137
0.278431 0.137255 0.050980
0.294118 0.137255 0.047059
0.305882 0.141176 0.047059
0.325490 0.137255 0.047059
0.345098 0.141176 0.054902
0.356863 0.141176 0.058824
0.372549 0.145098 0.066667
0.396078 0.141176 0.062745
0.407843 0.141176 0.058824
0.427451 0.145098 0.058824
0.443137 0.145098 0.054902
0.458824 0.141176 0.058824
0.478431 0.145098 0.066667
0.494118 0.149020 0.074510
0.509804 0.145098 0.074510
0.533333 0.149020 0.074510
0.545098 0.149020 0.078431
0.568627 0.152941 0.070588
0.576471 0.152941 0.074510
0.596078 0.156863 0.078431
0.615686 0.160784 0.078431
0.631373 0.156863 0.082353
0.643137 0.164706 0.082353
0.662745 0.164706 0.090196
0.682353 0.168627 0.090196
0.694118 0.168627 0.094118
0.717647 0.176471 0.098039
0.733333 0.176471 0.098039
0.745098 0.180392 0.098039
0.760784 0.188235 0.098039
0.776471 0.200000 0.101961
0.796078 0.203922 0.105882
0.807843 0.207843 0.113725
0.827451 0.219608 0.109804
0.843137 0.227451 0.121569
0.858824 0.235294 0.121569
0.874510 0.243137 0.129412
0.882353 0.247059 0.125490
0.901961 0.258824 0.129412
0.917647 0.266667 0.133333
0.937255 0.278431 0.145098
0.007843 0.125490 0.031373
0.011765 0.121569 0.031373
0.019608 0.117647 0.031373
0.027451 0.121569 0.035294
0.035294 0.121569 0.031373
0.043137 0.117647 0.031373
0.050980 0.121569 0.027451
0.062745 0.121569 0.031373
0.078431 0.125490 0.031373
0.090196 0.129412 0.027451
0.098039 0.133333 0.027451
0.113725 0.129412 0.023529
0.121569 0.133333 0.027451
0.133333 0.129412 0.019608
0.149020 0.133333 0.019608
0.156863 0.137255 0.023529
0.172549 0.133333 0.027451
0.192157 0.137255 0.031373
0.203922 0.137255 0.035294
0.215686 0.137255 0.031373
0.235294 0.141176 0.039216
0.247059 0.137255 0.043137
0.266667 0.141176 0.043137
0.278431 0.145098 0.039216
0.298039 0.149020 0.058824
0.309804 0.145098 0.050980
0.329412 0.149020 0.054902
0.349020 0.152941 0.054902
0.364706 0.152941 0.058824
0.376471 0.152941 0.054902
0.396078 0.152941 0.054902
0.411765 0.152941 0.058824
0.431373 0.149020 0.054902
0.447059 0.156863 0.062745
0.466667 0.149020 0.066667
0.486275 0.152941 0.074510
0.494118 0.156863 0.074510
0.517647 0.156863 0.074510
0.533333 0.152941 0.078431
0.552941 0.156863 0.078431
0.572549 0.160784 0.078431
0.580392 0.164706 0.082353
0.600000 0.164706 0.086275
0.619608 0.168627 0.086275
0.631373 0.168627 0.090196
0.650980 0.172549 0.090196
0.666667 0.168627 0.094118
0.678431 0.176471 0.094118
0.701961 0.184314 0.098039
0.709804 0.188235 0.098039
0.729412 0.192157 0.098039
0.749020 0.192157 0.098039
0.760784 0.200000 0.098039
0.776471 0.203922 0.105882
0.800000 0.215686 0.105882
0.811765 0.219608 0.113725
0.827451 0.231373 0.117647
0.843137 0.235294 0.117647
0.854902 0.243137 0.121569
0.874510 0.250980 0.125490
0.886275 0.258824 0.125490
0.901961 0.266667 0.137255
0.925490 0.282353 0.145098
0.937255 0.290196 0.145098
0.003922 0.129412 0.035294
0.003922 0.129412 0.035294
0.015686 0.133333 0.039216
0.019608 0.129412 0.031373
0.031373 0.133333 0.035294
0.039216 0.133333 0.031373
0.047059 0.133333 0.035294
0.058824 0.137255 0.039216
0.074510 0.133333 0.019608
0.086275 0.137255 0.027451
0.098039 0.141176 0.023529
0.109804 0.145098 0.031373
0.125490 0.145098 0.027451
0.133333 0.145098 0.023529
0.152941 0.149020 0.027451
0.160784 0.149020 0.027451
0.180392 0.141176 0.035294
0.192157 0.149020 0.039216
0.207843 0.149020 0.035294
0.215686 0.149020 0.031373
0.235294 0.152941 0.039216
0.254902 0.156863 0.039216
0.270588 0.152941 0.043137
0.278431 0.156863 0.043137
0.301961 0.160784 0.058824
0.317647 0.160784 0.058824
0.329412 0.156863 0.050980
0.352941 0.156863 0.058824
0.360784 0.160784 0.054902
0.380392 0.160784 0.062745
0.403922 0.160784 0.062745
0.419608 0.160784 0.058824
0.435294 0.160784 0.062745
0.447059 0.164706 0.070588
0.470588 0.164706 0.074510
0.486275 0.164706 0.078431
0.498039 0.164706 0.082353
0.513725 0.168627 0.082353
0.537255 0.164706 0.078431
0.549020 0.172549 0.086275
0.568627 0.176471 0.086275
0.584314 0.176471 0.086275
0.600000 0.180392 0.086275
0.619608 0.180392 0.086275
0.631373 0.184314 0.082353
0.647059 0.188235 0.090196
0.662745 0.184314 0.094118
0.678431 0.192157 0.101961
0.701961 0.192157 0.098039
0.713725 0.196078 0.105882
0.733333 0.200000 0.105882
0.745098 0.207843 0.105882
0.760784 0.215686 0.105882
0.780392 0.219608 0.113725
0.800000 0.223529 0.113725
0.815686 0.231373 0.113725
0.827451 0.239216 0.113725
0.839216 0.243137 0.121569
0.858824 0.254902 0.129412
0.870588 0.258824 0.129412
0.890196 0.270588 0.133333
0.905882 0.278431 0.137255
0.921569 0.290196 0.141176
0.929412 0.298039 0.145098
0.007843 0.149020 0.039216
0.007843 0.141176 0.035294
0.015686 0.145098 0.039216
0.023529 0.141176 0.039216
0.031373 0.149020 0.039216
0.031373 0.145098 0.035294
0.047059 0.145098 0.031373
0.054902 0.145098 0.035294
0.070588 0.145098 0.031373
0.086275 0.149020 0.035294
0.098039 0.149020 0.031373
0.109804 0.152941 0.027451
0.117647 0.156863 0.023529
0.133333 0.156863 0.023529
0.149020 0.152941 0.019608
0.160784 0.160784 0.027451
0.180392 0.156863 0.031373
0.196078 0.160784 0.031373
0.211765 0.160784 0.035294
0.219608 0.152941 0.035294
0.235294 0.160784 0.035294
0.250980 0.160784 0.039216
0.266667 0.164706 0.043137
0.282353 0.160784 0.047059
0.309804 0.172549 0.062745
0.317647 0.172549 0.058824
0.333333 0.172549 0.054902
0.349020 0.172549 0.058824
0.364706 0.168627 0.062745
0.388235 0.172549 0.062745
0.407843 0.172549 0.070588
0.419608 0.180392 0.070588
0.439216 0.176471 0.070588
0.450980 0.176471 0.074510
0.470588 0.176471 0.070588
0.490196 0.176471 0.070588
0.498039 0.180392 0.074510
0.521569 0.180392 0.074510
0.541176 0.184314 0.078431
0.552941 0.184314 0.074510
0.568627 0.188235 0.082353
0.588235 0.192157 0.090196
0.603922 0.188235 0.094118
0.623529 0.192157 0.094118
0.639216 0.192157 0.098039
0.650980 0.196078 0.098039
0.666667 0.196078 0.094118
0.686275 0.200000 0.101961
0.705882 0.207843 0.101961
0.717647 0.207843 0.105882
0.733333 0.211765 0.105882
0.752941 0.215686 0.113725
