game/public/levels/Train Scene/post/Presetpro_-_Desert_Heat.cube
#Created by: Adobe Photoshop Export Color Lookup Plugin
#Copyright: (C) Copyright 2022 Tim Martin and Presetpro.com
TITLE "Presetpro - Desert Heat.jpg"
#LUT size
LUT_3D_SIZE 5
#data domain
#LUT data points
DOMAIN_MIN 0.000000 0.000000 0.000000
DOMAIN_MAX 0.903226 0.903226 0.903226
0.003937 0.000000 0.000000
0.121185 0.000000 0.000000
0.401001 0.000000 0.000000
0.703491 0.001251 0.000000
0.983551 0.000000 0.000000
0.006073 0.114227 0.001770
0.161285 0.146484 0.003052
0.458557 0.126862 0.003052
0.753204 0.016296 0.003418
0.997864 0.079285 0.000885
0.001770 0.383148 0.001770
0.091949 0.399719 0.000000
0.463745 0.453735 0.000000
0.792419 0.479919 0.000000
0.996063 0.541412 0.000366
0.003937 0.632904 0.001251
0.144226 0.638092 0.000000
0.472992 0.673889 0.001251
0.788513 0.720428 0.002655
0.995331 0.747375 0.000000
0.452240 0.861237 0.000000
0.508026 0.862122 0.004791
0.673615 0.871216 0.000366
0.844910 0.888672 0.000000
0.999237 0.905121 0.003937
0.001770 0.007843 0.127747
0.123322 0.000885 0.138641
0.414917 0.000885 0.110291
0.708282 0.000000 0.070587
0.983185 0.000366 0.003937
0.000000 0.141663 0.141663
0.185699 0.166077 0.151276
0.470703 0.133820 0.121185
0.750549 0.019318 0.060577
0.993927 0.015900 0.006592
0.000885 0.428436 0.098938
0.170013 0.420593 0.060211
0.492950 0.467285 0.000885
0.804565 0.497772 0.000000
0.999634 0.536987 0.003418
0.006073 0.661621 0.001770
0.207214 0.652893 0.001770
0.493866 0.683380 0.003021
0.798859 0.721710 0.000000
0.994812 0.751312 0.000000
0.454529 0.866425 0.000000
0.509796 0.866913 0.002655
0.667023 0.865509 0.003540
0.845551 0.888672 0.001770
0.999237 0.908661 0.007477
0.004303 0.025299 0.428070
0.002167 0.020477 0.445404
0.445892 0.001770 0.486877
0.715637 0.000000 0.396179
0.961029 0.003937 0.368591
0.000885 0.165192 0.431091
0.124207 0.185699 0.452850
0.482086 0.242371 0.498657
0.738770 0.179596 0.417542
0.971924 0.000885 0.372284
0.005676 0.465515 0.465881
0.244507 0.479034 0.480316
0.546082 0.526489 0.502960
0.799744 0.493835 0.445007
0.992798 0.479828 0.369629
0.246033 0.735229 0.464630
0.348358 0.731323 0.453613
0.520416 0.702087 0.383911
0.803680 0.741302 0.376556
0.997864 0.757355 0.371246
0.429108 0.886536 0.336456
0.484009 0.879059 0.306854
0.624146 0.871216 0.216675
0.824158 0.886017 0.157318
0.997467 0.910065 0.032959
0.000000 0.081085 0.707397
0.001770 0.096405 0.717926
0.427673 0.125610 0.746643
0.794952 0.228973 0.784454
0.974579 0.206482 0.723602
0.001770 0.215302 0.707794
0.008850 0.234528 0.714874
0.462982 0.276764 0.745239
0.798859 0.377106 0.781403
0.971405 0.335754 0.722351
0.001770 0.431488 0.680206
0.101196 0.448059 0.693481
0.501678 0.509521 0.734863
0.803558 0.610626 0.779266
0.953949 0.540039 0.700470
0.323242 0.738647 0.734741
0.420746 0.739532 0.740540
0.621490 0.753082 0.750031
0.823669 0.783173 0.775330
0.966980 0.750549 0.716156
0.627319 0.907776 0.775848
0.643768 0.905640 0.763580
0.700439 0.901703 0.742706
0.776611 0.882111 0.634186
0.972534 0.918793 0.653778
0.085022 0.257294 0.924347
0.291718 0.272614 0.922455
0.550659 0.308289 0.928650
0.794586 0.413544 0.939667
0.952942 0.574585 0.936890
0.166229 0.353699 0.927887
0.322205 0.365479 0.927887
0.566711 0.405548 0.930939
0.797211 0.493988 0.933075
0.952179 0.627716 0.939148
0.118561 0.521423 0.920441
0.319031 0.530548 0.912598
0.576324 0.570648 0.919434
0.793182 0.643402 0.920807
0.950409 0.726135 0.930817
0.210175 0.722717 0.899414
0.311340 0.718292 0.900452
0.512695 0.709564 0.900818
0.787994 0.763580 0.915253
0.957367 0.836304 0.933075
0.634155 0.901215 0.912964
0.666931 0.902588 0.910828
0.740021 0.907288 0.920807
0.841125 0.913483 0.914368
0.963959 0.944336 0.928650
