game/public/levels/Train Scene/post/Presetpro_-_Santorini.cube
#Website: © https://presetpro.com Tim Martin
TITLE "Presetpro - Santorini"
#LUT size
LUT_3D_SIZE 8
#LUT data points
0.003922 0.000000 0.000000
0.086275 0.015686 0.007843
0.188235 0.054902 0.019608
0.325490 0.074510 0.039216
0.482353 0.078431 0.058824
0.635294 0.090196 0.078431
0.784314 0.141176 0.098039
0.937255 0.231373 0.133333
0.007843 0.098039 0.019608
0.094118 0.105882 0.023529
0.196078 0.117647 0.023529
0.333333 0.129412 0.047059
0.498039 0.133333 0.066667
0.647059 0.152941 0.094118
0.788235 0.192157 0.109804
0.937255 0.270588 0.133333
0.003922 0.200000 0.054902
0.078431 0.203922 0.050980
0.207843 0.215686 0.023529
0.360784 0.227451 0.050980
0.517647 0.247059 0.086275
0.658824 0.254902 0.098039
0.803922 0.294118 0.121569
0.941176 0.356863 0.160784
0.015686 0.309804 0.086275
0.090196 0.305882 0.082353
0.203922 0.317647 0.066667
0.360784 0.329412 0.035294
0.513725 0.341176 0.054902
0.686275 0.384314 0.117647
0.823529 0.423529 0.141176
0.952941 0.474510 0.188235
0.070588 0.419608 0.105882
0.117647 0.407843 0.098039
0.207843 0.411765 0.090196
0.345098 0.427451 0.070588
0.490196 0.443137 0.003922
0.654902 0.462745 0.007843
0.819608 0.517647 0.109804
0.964706 0.600000 0.227451
0.145098 0.533333 0.105882
0.176471 0.525490 0.101961
0.239216 0.509804 0.094118
0.356863 0.525490 0.070588
0.494118 0.541176 0.000000
0.639216 0.568627 0.003922
0.788235 0.596078 0.000000
0.956863 0.674510 0.149020
0.254902 0.678431 0.090196
0.278431 0.682353 0.090196
0.337255 0.666667 0.078431
0.419608 0.670588 0.050980
0.545098 0.690196 0.000000
0.678431 0.709804 0.000000
0.823529 0.729412 0.000000
0.956863 0.760784 0.000000
0.486275 0.898039 0.250980
0.501961 0.898039 0.247059
0.541176 0.898039 0.250980
0.603922 0.898039 0.250980
0.698039 0.909804 0.231373
0.815686 0.925490 0.207843
0.941176 0.945098 0.160784
1.000000 0.964706 0.011765
0.000000 0.043137 0.090196
0.070588 0.047059 0.094118
0.188235 0.070588 0.109804
0.337255 0.098039 0.125490
0.486275 0.105882 0.133333
0.639216 0.125490 0.149020
0.792157 0.164706 0.164706
0.933333 0.247059 0.188235
0.000000 0.121569 0.109804
0.082353 0.121569 0.117647
0.207843 0.137255 0.121569
0.345098 0.145098 0.133333
0.505882 0.156863 0.141176
0.654902 0.172549 0.152941
0.796078 0.207843 0.172549
0.937255 0.286275 0.200000
0.000000 0.231373 0.121569
0.090196 0.223529 0.129412
0.223529 0.235294 0.121569
0.376471 0.243137 0.137255
0.521569 0.258824 0.152941
0.666667 0.278431 0.164706
0.807843 0.301961 0.180392
0.941176 0.360784 0.211765
0.035294 0.333333 0.145098
0.105882 0.333333 0.145098
0.223529 0.333333 0.141176
0.368627 0.345098 0.109804
0.521569 0.356863 0.137255
0.690196 0.396078 0.172549
0.823529 0.431373 0.196078
0.945098 0.474510 0.235294
0.098039 0.443137 0.152941
0.141176 0.427451 0.141176
0.219608 0.423529 0.141176
0.352941 0.435294 0.125490
0.505882 0.454902 0.094118
0.658824 0.466667 0.105882
0.823529 0.529412 0.180392
0.960784 0.607843 0.278431
0.168627 0.552941 0.149020
0.188235 0.545098 0.141176
0.254902 0.529412 0.145098
0.356863 0.533333 0.121569
0.498039 0.549020 0.086275
0.643137 0.572549 0.000000
0.792157 0.596078 0.011765
0.949020 0.674510 0.200000
0.262745 0.686275 0.137255
0.282353 0.686275 0.133333
0.337255 0.678431 0.129412
0.423529 0.670588 0.109804
0.549020 0.690196 0.062745
0.674510 0.709804 0.000000
0.815686 0.733333 0.000000
0.956863 0.760784 0.000000
0.478431 0.898039 0.270588
0.494118 0.901961 0.278431
0.529412 0.898039 0.274510
0.600000 0.898039 0.270588
0.690196 0.913725 0.266667
0.819608 0.933333 0.243137
0.941176 0.945098 0.200000
1.000000 0.968627 0.105882
0.000000 0.113725 0.196078
0.000000 0.090196 0.211765
0.184314 0.121569 0.223529
0.337255 0.149020 0.235294
0.509804 0.141176 0.247059
0.658824 0.141176 0.243137
0.796078 0.192157 0.254902
0.937255 0.262745 0.286275
0.000000 0.172549 0.207843
0.031373 0.172549 0.227451
0.207843 0.184314 0.239216
0.352941 0.192157 0.247059
0.517647 0.176471 0.243137
0.658824 0.203922 0.254902
0.803922 0.235294 0.270588
0.929412 0.298039 0.290196
0.000000 0.266667 0.243137
0.043137 0.266667 0.243137
0.235294 0.270588 0.258824
0.388235 0.270588 0.262745
0.537255 0.282353 0.266667
0.674510 0.294118 0.266667
0.807843 0.321569 0.274510
0.937255 0.372549 0.298039
0.003922 0.384314 0.247059
0.109804 0.388235 0.254902
0.250980 0.372549 0.250980
0.396078 0.380392 0.243137
0.549020 0.392157 0.262745
0.698039 0.423529 0.290196
0.827451 0.443137 0.298039
0.949020 0.486275 0.305882
0.149020 0.494118 0.266667
0.188235 0.482353 0.258824
0.266667 0.462745 0.247059
0.372549 0.466667 0.239216
0.537255 0.486275 0.227451
0.674510 0.498039 0.235294
0.827451 0.556863 0.301961
0.956863 0.607843 0.356863
0.200000 0.584314 0.250980
0.227451 0.580392 0.239216
0.298039 0.568627 0.243137
0.380392 0.552941 0.219608
0.509804 0.568627 0.196078
0.654902 0.588235 0.172549
0.811765 0.611765 0.192157
0.960784 0.686275 0.309804
0.270588 0.717647 0.239216
0.286275 0.709804 0.231373
0.345098 0.701961 0.219608
0.415686 0.682353 0.200000
0.533333 0.694118 0.176471
0.678431 0.717647 0.137255
0.815686 0.737255 0.050980
0.972549 0.768627 0.145098
0.462745 0.909804 0.333333
0.482353 0.905882 0.329412
0.521569 0.905882 0.337255
0.592157 0.905882 0.329412
0.690196 0.909804 0.317647
0.803922 0.929412 0.305882
0.933333 0.949020 0.274510
1.000000 0.968627 0.227451
0.000000 0.184314 0.333333
0.000000 0.176471 0.341176
0.125490 0.172549 0.368627
0.376471 0.207843 0.388235
0.525490 0.231373 0.392157
0.686275 0.250980 0.415686
0.823529 0.250980 0.403922
0.941176 0.262745 0.400000
0.003922 0.239216 0.341176
0.000000 0.235294 0.349020
0.152941 0.223529 0.372549
0.392157 0.250980 0.400000
0.529412 0.274510 0.407843
0.686275 0.282353 0.407843
0.823529 0.278431 0.407843
0.945098 0.301961 0.400000
0.000000 0.317647 0.360784
0.003922 0.317647 0.360784
0.219608 0.321569 0.380392
0.415686 0.341176 0.419608
0.556863 0.356863 0.423529
0.698039 0.341176 0.411765
0.815686 0.345098 0.400000
0.941176 0.388235 0.419608
0.000000 0.431373 0.396078
0.019608 0.431373 0.403922
0.258824 0.435294 0.415686
0.439216 0.439216 0.431373
0.580392 0.443137 0.427451
0.701961 0.447059 0.423529
0.827451 0.458824 0.419608
0.952941 0.494118 0.427451
0.082353 0.560784 0.400000
0.184314 0.560784 0.411765
0.313725 0.556863 0.411765
0.431373 0.525490 0.400000
0.568627 0.529412 0.388235
0.705882 0.549020 0.411765
0.839216 0.588235 0.450980
0.949020 0.615686 0.462745
0.200000 0.654902 0.392157
0.266667 0.650980 0.403922
0.345098 0.635294 0.388235
0.419608 0.607843 0.372549
0.533333 0.607843 0.349020
0.674510 0.623529 0.325490
0.823529 0.643137 0.356863
0.968627 0.701961 0.462745
0.282353 0.752941 0.372549
0.301961 0.749020 0.372549
0.360784 0.741176 0.360784
0.427451 0.717647 0.329412
0.529412 0.705882 0.301961
0.670588 0.725490 0.274510
0.819608 0.752941 0.247059
0.968627 0.780392 0.301961
0.443137 0.917647 0.435294
0.462745 0.917647 0.435294
0.501961 0.917647 0.423529
0.568627 0.917647 0.415686
0.654902 0.909804 0.400000
0.788235 0.929412 0.396078
0.925490 0.945098 0.372549
1.000000 0.972549 0.341176
0.000000 0.270588 0.486275
0.000000 0.258824 0.494118
0.000000 0.239216 0.521569
0.352941 0.278431 0.545098
0.576471 0.325490 0.572549
0.694118 0.345098 0.564706
0.823529 0.419608 0.596078
0.945098 0.443137 0.596078
0.000000 0.317647 0.486275
0.000000 0.313725 0.498039
0.003922 0.286275 0.513725
0.368627 0.313725 0.552941
0.584314 0.360784 0.576471
0.701961 0.380392 0.576471
0.827451 0.443137 0.596078
0.937255 0.462745 0.600000
0.007843 0.384314 0.482353
0.000000 0.392157 0.494118
0.172549 0.388235 0.509804
0.392157 0.388235 0.560784
0.592157 0.435294 0.580392
0.701961 0.450980 0.584314
0.819608 0.490196 0.592157
0.941176 0.490196 0.588235
0.000000 0.478431 0.505882
0.007843 0.478431 0.509804
0.207843 0.482353 0.521569
0.431373 0.494118 0.560784
0.611765 0.529412 0.596078
0.717647 0.552941 0.607843
0.831373 0.525490 0.580392
0.949020 0.509804 0.564706
0.011765 0.596078 0.549020
0.117647 0.600000 0.556863
0.301961 0.600000 0.560784
0.466667 0.603922 0.580392
0.611765 0.611765 0.603922
0.725490 0.603922 0.592157
0.835294 0.603922 0.572549
0.949020 0.619608 0.576471
0.239216 0.717647 0.572549
0.294118 0.717647 0.564706
0.372549 0.717647 0.568627
0.486275 0.705882 0.568627
0.572549 0.666667 0.541176
0.705882 0.666667 0.525490
0.843137 0.690196 0.560784
0.960784 0.745098 0.623529
0.274510 0.811765 0.541176
0.298039 0.803922 0.533333
0.368627 0.796078 0.529412
0.474510 0.784314 0.529412
0.541176 0.749020 0.474510
0.666667 0.749020 0.447059
0.827451 0.764706 0.419608
0.976471 0.800000 0.490196
0.419608 0.941176 0.576471
0.439216 0.937255 0.564706
0.478431 0.937255 0.560784
0.549020 0.929412 0.541176
0.631373 0.925490 0.521569
0.756863 0.937255 0.509804
0.913725 0.952941 0.501961
1.000000 0.968627 0.478431
0.000000 0.384314 0.639216
0.003922 0.372549 0.647059
0.000000 0.352941 0.658824
0.278431 0.349020 0.678431
0.572549 0.411765 0.709804
0.741176 0.482353 0.733333
0.827451 0.494118 0.717647
0.929412 0.592157 0.752941
0.000000 0.415686 0.639216
0.000000 0.407843 0.647059
0.007843 0.388235 0.658824
0.298039 0.380392 0.690196
0.568627 0.439216 0.709804
0.741176 0.509804 0.729412
0.827451 0.521569 0.725490
0.933333 0.603922 0.752941
0.000000 0.478431 0.639216
0.000000 0.482353 0.643137
0.125490 0.470588 0.658824
0.333333 0.447059 0.674510
0.580392 0.509804 0.713725
0.745098 0.568627 0.737255
0.835294 0.576471 0.725490
0.929412 0.643137 0.756863
0.003922 0.545098 0.623529
0.003922 0.545098 0.627451
0.176471 0.552941 0.650980
0.419608 0.560784 0.686275
0.600000 0.576471 0.717647
0.749020 0.635294 0.745098
0.835294 0.647059 0.749020
0.925490 0.678431 0.760784
0.000000 0.639216 0.658824
0.000000 0.643137 0.658824
0.211765 0.643137 0.670588
0.400000 0.635294 0.666667
0.600000 0.654902 0.705882
0.756863 0.701961 0.752941
0.843137 0.713725 0.756863
0.952941 0.694118 0.749020
0.180392 0.752941 0.701961
0.243137 0.741176 0.698039
0.352941 0.745098 0.701961
0.482353 0.745098 0.709804
0.623529 0.752941 0.725490
0.752941 0.760784 0.749020
0.847059 0.749020 0.729412
0.960784 0.745098 0.725490
0.380392 0.866667 0.725490
0.403922 0.854902 0.721569
0.462745 0.858824 0.725490
0.541176 0.854902 0.717647
0.623529 0.831373 0.709804
0.694118 0.792157 0.666667
0.835294 0.800000 0.639216
0.972549 0.839216 0.701961
0.427451 0.964706 0.721569
0.439216 0.964706 0.725490
0.474510 0.960784 0.709804
0.525490 0.964706 0.698039
0.631373 0.949020 0.686275
0.725490 0.945098 0.658824
0.874510 0.960784 0.635294
1.000000 0.976471 0.619608
0.003922 0.513725 0.788235
0.000000 0.509804 0.792157
0.000000 0.498039 0.800000
0.262745 0.474510 0.819608
0.552941 0.517647 0.827451
0.745098 0.592157 0.847059
0.858824 0.654902 0.854902
0.925490 0.650980 0.847059
0.003922 0.541176 0.792157
0.000000 0.537255 0.788235
0.000000 0.521569 0.792157
0.309804 0.501961 0.811765
0.556863 0.541176 0.839216
0.749020 0.615686 0.850980
0.858824 0.666667 0.854902
0.933333 0.666667 0.858824
0.007843 0.592157 0.788235
0.003922 0.588235 0.784314
0.192157 0.580392 0.796078
0.376471 0.564706 0.807843
0.568627 0.584314 0.831373
0.756863 0.654902 0.843137
0.862745 0.698039 0.854902
0.933333 0.694118 0.854902
0.000000 0.643137 0.772549
0.007843 0.639216 0.780392
0.243137 0.643137 0.784314
0.435294 0.643137 0.800000
0.576471 0.639216 0.831373
0.752941 0.694118 0.854902
0.870588 0.741176 0.862745
0.933333 0.741176 0.858824
0.000000 0.709804 0.776471
0.000000 0.709804 0.776471
0.003922 0.701961 0.772549
0.372549 0.705882 0.788235
0.596078 0.713725 0.823529
0.752941 0.741176 0.854902
0.878431 0.792157 0.874510
0.933333 0.796078 0.874510
0.000000 0.792157 0.800000
0.062745 0.792157 0.807843
0.262745 0.784314 0.803922
0.403922 0.788235 0.800000
0.552941 0.776471 0.811765
0.737255 0.792157 0.835294
0.886275 0.839216 0.878431
0.949020 0.847059 0.882353
0.317647 0.878431 0.831373
0.349020 0.882353 0.835294
0.419608 0.882353 0.827451
0.521569 0.882353 0.839216
0.631373 0.878431 0.843137
0.756863 0.878431 0.858824
0.882353 0.886275 0.866667
0.968627 0.870588 0.854902
0.517647 0.984314 0.866667
0.533333 0.984314 0.862745
0.576471 0.988235 0.866667
0.627451 0.984314 0.862745
0.690196 0.984314 0.862745
0.752941 0.976471 0.847059
0.843137 0.968627 0.815686
1.000000 0.988235 0.788235
0.266667 0.690196 0.933333
0.305882 0.690196 0.937255
0.392157 0.686275 0.941176
0.482353 0.666667 0.933333
0.607843 0.674510 0.949020
0.764706 0.721569 0.949020
0.886275 0.772549 0.960784
0.952941 0.803922 0.956863
0.305882 0.705882 0.933333
0.337255 0.709804 0.937255
0.407843 0.698039 0.937255
0.498039 0.686275 0.937255
0.619608 0.690196 0.949020
0.764706 0.729412 0.952941
0.882353 0.776471 0.952941
0.956863 0.807843 0.960784
0.364706 0.741176 0.929412
0.388235 0.741176 0.929412
0.447059 0.733333 0.933333
0.537255 0.721569 0.941176
0.627451 0.713725 0.945098
0.776471 0.749020 0.960784
0.882353 0.792157 0.956863
0.956863 0.823529 0.960784
0.309804 0.776471 0.933333
0.364706 0.776471 0.929412
0.474510 0.780392 0.937255
0.560784 0.772549 0.945098
0.650980 0.760784 0.945098
0.776471 0.780392 0.960784
0.886275 0.819608 0.960784
0.960784 0.847059 0.964706
0.019608 0.823529 0.921569
0.172549 0.819608 0.929412
0.325490 0.823529 0.937255
0.517647 0.815686 0.941176
0.662745 0.811765 0.952941
0.756863 0.803922 0.952941
0.886275 0.847059 0.952941
0.968627 0.874510 0.968627
0.176471 0.886275 0.945098
0.227451 0.882353 0.945098
0.317647 0.886275 0.945098
0.419608 0.878431 0.945098
0.580392 0.862745 0.949020
0.764706 0.866667 0.964706
0.890196 0.882353 0.972549
0.964706 0.913725 0.980392
0.349020 0.956863 0.964706
0.368627 0.952941 0.960784
0.423529 0.952941 0.964706
0.509804 0.945098 0.960784
0.603922 0.945098 0.972549
0.701961 0.933333 0.964706
0.878431 0.925490 0.980392
0.988235 0.949020 0.984314
0.498039 1.000000 0.980392
0.513725 1.000000 0.980392
0.556863 0.996078 0.980392
0.607843 1.000000 0.988235
0.682353 0.996078 0.984314
0.780392 1.000000 0.988235
0.882353 1.000000 0.992157
0.996078 1.000000 1.000000
