game/public/levels/Train Scene/post/Presetpro_-_Travel_Film.cube
#Copyright Tim Martin Presetpro.com StockPresets.com
TITLE "Presetpro - Travel Film"
#LUT size
LUT_3D_SIZE 4
#LUT data points
0.000000 0.000000 0.000000
0.262745 0.003922 0.003922
0.650980 0.003922 0.000000
0.988235 0.239216 0.003922
0.000000 0.282353 0.000000
0.313725 0.333333 0.003922
0.721569 0.356863 0.000000
0.996078 0.454902 0.000000
0.000000 0.647059 0.145098
0.235294 0.650980 0.117647
0.690196 0.733333 0.000000
1.000000 0.780392 0.000000
0.388235 0.992157 0.513725
0.478431 0.992157 0.525490
0.701961 0.996078 0.490196
0.992157 1.000000 0.317647
0.000000 0.000000 0.325490
0.349020 0.000000 0.321569
0.631373 0.003922 0.254902
0.960784 0.223529 0.247059
0.003922 0.329412 0.352941
0.352941 0.352941 0.352941
0.682353 0.368627 0.325490
0.992157 0.443137 0.266667
0.168627 0.674510 0.403922
0.329412 0.670588 0.400000
0.694118 0.729412 0.364706
0.996078 0.776471 0.341176
0.411765 0.988235 0.603922
0.486275 0.996078 0.611765
0.701961 1.000000 0.603922
0.988235 0.996078 0.505882
0.113725 0.000000 0.737255
0.415686 0.000000 0.737255
0.745098 0.003922 0.717647
0.917647 0.219608 0.666667
0.086275 0.301961 0.756863
0.419608 0.317647 0.745098
0.733333 0.352941 0.725490
0.929412 0.392157 0.674510
0.215686 0.733333 0.772549
0.403922 0.733333 0.764706
0.709804 0.760784 0.784314
0.988235 0.741176 0.721569
0.619608 0.992157 0.858824
0.658824 0.992157 0.858824
0.725490 0.996078 0.811765
0.976471 1.000000 0.803922
0.533333 0.003922 0.996078
0.639216 0.000000 1.000000
0.866667 0.027451 1.000000
0.996078 0.313725 1.000000
0.498039 0.305882 1.000000
0.611765 0.321569 1.000000
0.831373 0.380392 0.996078
1.000000 0.466667 1.000000
0.239216 0.686275 1.000000
0.415686 0.682353 1.000000
0.752941 0.725490 1.000000
1.000000 0.756863 1.000000
0.682353 0.988235 0.996078
0.737255 0.992157 1.000000
0.854902 0.992157 1.000000
1.000000 0.996078 1.000000
