game/public/levels/Train Scene/post/Videofullness_FREE_Underwater_LUT_05.cube
TITLE "25x25x25 Adobe/IRIDAS cube 3D LUT"
LUT_3D_SIZE 9
0.005933932 0.02228963 0.057530914
0.027639734 0.018513588 0.044387605
0.06097642 0.018657174 0.049328271
0.275238842 0.050855879 0.071043074
0.450959623 0.072831146 0.09007664
0.594774663 0.085842058 0.096870385
0.706186712 0.102067254 0.102580644
0.787499785 0.136495993 0.110248826
0.862549961 0.169564351 0.118071251
0 0.039078094 0.065268137
0.014476007 0.053489897 0.053719725
0.10322471 0.08026012 0.063013695
0.334971875 0.115762249 0.082510278
0.49166435 0.133661821 0.096767001
0.620421469 0.147804931 0.105412781
0.713069201 0.175092608 0.113576427
0.791380584 0.210018143 0.121220455
0.867625356 0.243209109 0.129772291
0 0.068378597 0.074664749
0.005145488 0.055760223 0.065686494
0.149476245 0.1014838 0.075153001
0.363872439 0.160515592 0.089824349
0.510926843 0.198166758 0.099333577
0.627382278 0.227821618 0.11030674
0.717564285 0.263854831 0.121359825
0.800890028 0.299642414 0.132393241
0.880779982 0.335167378 0.144090146
0 0.141320646 0.085183576
0.010151654 0.153256938 0.082443602
0.179099634 0.186178952 0.094034024
0.386275291 0.180728674 0.103226945
0.534588933 0.201491728 0.115149297
0.644421279 0.291045785 0.122637674
0.735987127 0.3731004 0.1314473
0.822376013 0.418944597 0.144090787
0.899646461 0.450351804 0.157219961
0 0.220771849 0.097337551
0.035614375 0.277275115 0.109994501
0.225041196 0.335154474 0.136979893
0.435657561 0.347632736 0.133866593
0.576892614 0.340792239 0.139062837
0.679303885 0.346121609 0.150244698
0.770471513 0.404194444 0.161169916
0.85239011 0.488180757 0.17046985
0.923817217 0.569443166 0.185349628
0 0.284474373 0.11065416
0.092799194 0.379376054 0.157271728
0.298923254 0.452186078 0.197582528
0.479744434 0.470833212 0.198929697
0.609935224 0.475358099 0.170326769
0.710317254 0.496800125 0.177776933
0.804643929 0.516565084 0.196094781
0.885332167 0.536423802 0.213036999
0.94868964 0.603339791 0.246516466
0 0.374481231 0.149099454
0.171821088 0.473410934 0.212770283
0.369496554 0.542967439 0.257837057
0.51885879 0.569903255 0.273134053
0.636796713 0.586725175 0.259357572
0.737498581 0.608989656 0.242838189
0.817047477 0.628852308 0.236514106
0.884784639 0.644029558 0.264927506
0.951477885 0.646376371 0.295783669
0.056014467 0.484574407 0.216424137
0.263618231 0.5747298 0.291525751
0.446249366 0.640694976 0.338153958
0.568664432 0.668454647 0.358891338
0.666416109 0.686031461 0.353314191
0.751825809 0.697696209 0.337096602
0.821430564 0.710595489 0.320556432
0.879072368 0.728514075 0.331991851
0.938307643 0.744143844 0.359680295
0.175089613 0.600752652 0.308613122
0.359131724 0.679056704 0.378446162
0.514999926 0.736862183 0.420360982
0.616538167 0.759488583 0.433333188
0.691450179 0.768953323 0.428920925
0.76162672 0.774187863 0.412297875
0.824441969 0.782125115 0.395594418
0.877360344 0.795052767 0.389499277
0.928773046 0.814555407 0.408653498
0.010895533 0.049730875 0.12563464
0.03318565 0.049639083 0.113965303
0.077282123 0.046842705 0.113940924
0.284238458 0.067615166 0.142958611
0.473843396 0.098135091 0.167548493
0.626458883 0.119213909 0.173471734
0.731708527 0.145978972 0.179611683
0.810097754 0.186329097 0.187981382
0.883786082 0.221387178 0.197297186
0 0.09424898 0.13465561
0.037562896 0.091957703 0.131273046
0.114664242 0.106771156 0.132541835
0.340407372 0.143780112 0.164751768
0.52840519 0.16802758 0.176276177
0.654225647 0.193780437 0.185305268
0.740848005 0.233077645 0.194158211
0.818725944 0.270793617 0.203541949
0.892818928 0.305577159 0.214645401
0 0.132285118 0.155305296
0.021740098 0.117502309 0.144965932
0.152098581 0.170443267 0.155187383
0.369114459 0.239237517 0.192948982
0.547317743 0.269694835 0.203219458
0.667965233 0.292979658 0.202019811
0.755425513 0.327801883 0.210063145
0.837077558 0.366242111 0.222998276
0.911349952 0.40142256 0.237784386
0 0.217121914 0.187518105
0.018571187 0.210762158 0.17571944
0.184148431 0.257982314 0.196407899
0.402575999 0.298271894 0.227647722
0.576032579 0.356433332 0.230927035
0.692438602 0.416684777 0.22369878
0.786001325 0.456603974 0.236000329
0.867860675 0.489858419 0.252326846
0.940676689 0.523820579 0.275734335
0 0.278862119 0.214732915
0.033841837 0.300626755 0.214332148
0.237252384 0.379638106 0.25159964
0.457055032 0.427667171 0.281608433
0.61168474 0.436657012 0.281444013
0.724963605 0.466675162 0.287833065
0.820414901 0.54863447 0.300069362
0.893619299 0.626145959 0.321844041
0.954098344 0.668764532 0.366042376
0 0.328911036 0.235100821
0.075454235 0.394670397 0.262330621
0.306750774 0.489654273 0.317560822
0.505847454 0.539998531 0.350708723
0.644132555 0.562944949 0.355496258
0.747931778 0.579386711 0.357437998
0.831971109 0.584302008 0.361587346
0.905061364 0.630964339 0.377053797
0.959189951 0.709369361 0.413758844
0 0.414387017 0.280493379
0.161715567 0.503945291 0.336572409
0.390621454 0.596202493 0.401162297
0.561343372 0.648177266 0.43672657
0.673799396 0.668840945 0.4397614
0.762063384 0.676872015 0.427359819
0.835258901 0.681959569 0.418021917
0.897760093 0.680892646 0.41941908
0.956018269 0.69982177 0.436222941
0.072440743 0.543649912 0.370700091
0.280737549 0.614801586 0.425156504
0.471919805 0.696428239 0.485415339
0.614397347 0.740102053 0.510663867
0.696564138 0.752756417 0.511095166
0.769693315 0.756638169 0.495362669
0.835865498 0.757301092 0.475943893
0.888508976 0.762786806 0.468989223
0.941087067 0.766325891 0.472676069
0.177858233 0.65223819 0.449853659
0.381640762 0.71062696 0.497805685
0.537513196 0.785004675 0.556760073
0.651826918 0.819200814 0.572758615
0.718742311 0.824263752 0.568977952
0.776079059 0.825386107 0.555800915
0.834636807 0.82419771 0.535144925
0.883593082 0.827118397 0.519281924
0.929966569 0.835676432 0.51459527
0.015269252 0.074011832 0.210383043
0.050760355 0.089005657 0.210003898
0.104255877 0.092926063 0.208696306
0.271192253 0.104559712 0.245608494
0.496865541 0.123954453 0.271036088
0.655373931 0.1522232 0.263047904
0.756281912 0.188734263 0.265590638
0.833788216 0.236932412 0.273920685
0.90414995 0.274514347 0.285316169
0.00508025 0.124632739 0.237848788
0.054360639 0.1429791 0.240978166
0.127440557 0.156286463 0.233409196
0.343535542 0.195470959 0.277292192
0.553464293 0.229579523 0.296083778
0.691547632 0.265769601 0.285406113
0.779120028 0.306458265 0.289357543
0.854441524 0.345556527 0.300840378
0.92600745 0.383825332 0.319100112
0 0.210671097 0.279321223
0.034511112 0.208680004 0.269558728
0.148750857 0.230016962 0.26871413
0.383772045 0.300039709 0.316206127
0.574683011 0.358435988 0.348198622
0.700161755 0.401203543 0.360436708
0.793430746 0.438512504 0.373330623
0.870972633 0.474854439 0.394657433
0.940439463 0.509949148 0.423288673
0 0.294914722 0.322250396
0.026631907 0.29331404 0.312232882
0.164753944 0.314089119 0.317678005
0.411458582 0.395526141 0.359810263
0.604264915 0.472306222 0.401066929
0.73359555 0.526674926 0.428973854
0.827255666 0.571006358 0.458057791
0.899917841 0.604897082 0.484647989
0.963315964 0.630776405 0.506642163
0 0.343640745 0.344847471
0.039212584 0.365327418 0.347795427
0.210221872 0.41803202 0.373219162
0.459181398 0.496519506 0.419894397
0.643863082 0.543852389 0.46210748
0.760565102 0.605079293 0.4872455
0.845413268 0.671175599 0.510113955
0.915102661 0.708974063 0.536884069
0.97681886 0.738295138 0.561109602
0 0.392377198 0.369903982
0.079058804 0.446080685 0.396424592
0.296423554 0.526326478 0.447066724
0.524925828 0.61547935 0.500993788
0.675695419 0.655443192 0.530756831
0.769197404 0.659485757 0.53484267
0.8437953 0.673796773 0.544503152
0.911004901 0.738240123 0.562978208
0.966782093 0.80804044 0.585323989
0 0.47193259 0.422573268
0.1587255 0.557403505 0.475058496
0.392392755 0.631264865 0.526979446
0.584245682 0.711292744 0.574658096
0.698776007 0.741002977 0.591836989
0.774828553 0.747672856 0.587727189
0.839198411 0.74050045 0.579199553
0.89779681 0.734070003 0.580788195
0.956672668 0.775448322 0.595142066
0.048139252 0.583482742 0.497844219
0.277915865 0.656537473 0.543405831
0.47649017 0.724030256 0.595372438
0.624926507 0.790082335 0.640693009
0.717746496 0.810089469 0.646924496
0.779351413 0.815475166 0.638700306
0.836038709 0.813914418 0.625668108
0.890844822 0.804762065 0.610466123
0.943289578 0.792310178 0.606431842
0.12346787 0.689125478 0.565987229
0.386154294 0.748020291 0.606002688
0.547083735 0.807105184 0.655454397
0.655660152 0.858670771 0.696831644
0.730140746 0.872489214 0.697582424
0.785070002 0.873362958 0.685919881
0.834295869 0.872427225 0.669456482
0.884424746 0.866998613 0.649218023
0.930226207 0.861359715 0.632893384
0.017942606 0.090847991 0.31018424
0.042846188 0.103265949 0.314506829
0.103808358 0.115790822 0.310288161
0.235887796 0.143439412 0.351403654
0.476010263 0.173060447 0.398879975
0.671653628 0.19129622 0.393696219
0.787835062 0.245857492 0.381373376
0.866768241 0.311560035 0.400742739
0.939248264 0.361839116 0.423378557
0.010387592 0.159234226 0.355361193
0.036387656 0.176138356 0.366799057
0.119776711 0.20297794 0.368884176
0.299297601 0.245947853 0.394785225
0.551218867 0.29988718 0.434682965
0.714837134 0.360049248 0.448102087
0.817351282 0.42258653 0.476641119
0.894338429 0.469982594 0.506571233
0.96093297 0.50747627 0.533735394
0.005806834 0.255044699 0.408406287
0.030326661 0.267935008 0.419813752
0.137796611 0.311275512 0.43561694
0.362116367 0.366131723 0.45340398
0.609484315 0.440212399 0.496441245
0.758490503 0.516994417 0.543106616
0.845578611 0.56526649 0.57803005
0.913167298 0.600088239 0.605164587
0.974954724 0.626748621 0.62585175
0 0.344720244 0.439899355
0.02453596 0.36335218 0.45645836
0.151273549 0.403499573 0.473588467
0.409971893 0.461095035 0.501781523
0.651709497 0.55354023 0.564622819
0.779241323 0.614531338 0.607246637
0.854897797 0.656648695 0.638571024
0.919303179 0.693206429 0.666439712
0.981320858 0.726068437 0.691399336
0 0.392156005 0.450759977
0.028985558 0.432685524 0.478612721
0.196948737 0.492329985 0.513241351
0.463769287 0.554054797 0.556162953
0.682590663 0.642108798 0.618749917
0.785692334 0.701697111 0.655730605
0.853755355 0.730007291 0.676876068
0.917724133 0.760420442 0.699099183
0.981975138 0.793324232 0.721517205
0 0.445581585 0.472771734
0.063029818 0.508805513 0.520773053
0.305395156 0.583217025 0.571196496
0.526049197 0.657276213 0.61674875
0.699425101 0.717833519 0.659743071
0.786235094 0.733619809 0.681254864
0.851275682 0.773450792 0.700475216
0.912570894 0.824015915 0.715779722
0.975370884 0.854390144 0.734408081
0 0.519622684 0.519986331
0.130416304 0.604093134 0.586126029
0.40559867 0.669145703 0.62815994
0.580866098 0.74033916 0.674176276
0.715900302 0.79085815 0.702410579
0.788463414 0.802129924 0.712987244
0.842324197 0.796742678 0.717146099
0.895930529 0.807573736 0.723269165
0.956371963 0.86061573 0.734056234
0.024775833 0.614192367 0.582890928
0.219157115 0.695377767 0.647814512
0.483908951 0.751693368 0.683685064
0.626212001 0.81192112 0.727346599
0.7255283 0.848688662 0.744330287
0.79017961 0.85898155 0.747888327
0.839039028 0.859062314 0.744927406
0.885039866 0.846176326 0.736684799
0.93584913 0.84031409 0.732177258
0.094430313 0.711688697 0.645825863
0.340763479 0.780376911 0.70115906
0.550099969 0.829469025 0.734456062
0.661677301 0.874659956 0.771108925
0.730845034 0.899628699 0.783970535
0.788212836 0.908047676 0.77984035
0.836051524 0.907621801 0.774371684
0.880103171 0.903638005 0.76263386
0.92529273 0.889725447 0.745330513
0.020984525 0.113853671 0.395110548
0.045533564 0.12575452 0.404100358
0.100299723 0.139942303 0.411434799
0.213512555 0.1744311 0.442674458
0.461150199 0.239228219 0.506802976
0.688693941 0.302935243 0.542789698
0.81567806 0.384593576 0.582087636
0.894446373 0.440012246 0.621504009
0.960849404 0.481908351 0.65397644
0.015797418 0.200720191 0.453024864
0.041379981 0.21681124 0.466960669
0.119298555 0.246993706 0.481999427
0.263640046 0.299910247 0.51360476
0.544838727 0.388279945 0.577783644
0.749117911 0.47670415 0.626862109
0.854265571 0.539314628 0.671382666
0.924279988 0.578986704 0.704954922
0.987181425 0.611092031 0.731104374
0.010606032 0.295108855 0.503440022
0.034998029 0.307085007 0.517729104
0.13452211 0.354290783 0.545251489
0.345604151 0.426454902 0.582005918
0.62168622 0.522684336 0.642744839
0.794270277 0.605885148 0.697377384
0.884001911 0.657280505 0.737701356
0.947829843 0.694694161 0.768915534
1 0.722978473 0.79637444
0.00222745 0.372870535 0.538025558
0.030394712 0.392548621 0.555417597
0.144574612 0.448282778 0.587277412
0.42007637 0.524530232 0.633074403
0.667129576 0.616826832 0.690175712
0.810933769 0.683297753 0.736652255
0.886854887 0.717381299 0.762775719
0.945832491 0.750547707 0.790587306
1 0.782853425 0.820045292
0 0.440345287 0.5509395
0.038146362 0.48658219 0.589151144
0.178550303 0.556672931 0.635355592
0.476244658 0.618805945 0.676848888
0.690871835 0.687233269 0.722892821
0.813947737 0.742393553 0.760254979
0.880934954 0.769454718 0.782368541
0.936633348 0.794616759 0.803070009
0.991770744 0.825615585 0.83062923
0 0.504009664 0.575170636
0.06664256 0.567676485 0.627004981
0.2806485 0.652744174 0.688497424
0.540993273 0.710013032 0.723487973
0.70643723 0.75929004 0.756048858
0.813242555 0.793287516 0.777866364
0.873792529 0.829082191 0.798822045
0.925494552 0.847581625 0.815580845
0.979083121 0.870785773 0.838415265
0 0.574029386 0.613588154
0.117597938 0.653001904 0.674077392
0.388330847 0.728318274 0.733518243
0.597605228 0.784145653 0.768646002
0.724455237 0.826927245 0.790524006
0.806328595 0.837995827 0.792726755
0.85827589 0.841767609 0.798632503
0.90817517 0.874357402 0.815909982
0.962062657 0.921514869 0.835976601
0.019527856 0.653496921 0.662846804
0.18247509 0.733491719 0.724919617
0.47218886 0.795557141 0.773407161
0.640986562 0.845121086 0.806038141
0.733435631 0.876363754 0.821460187
0.80067873 0.886337876 0.812606096
0.848020673 0.883198082 0.808193266
0.889972925 0.879720747 0.813080311
0.938647211 0.896594763 0.829222739
0.076061137 0.739416897 0.715905011
0.282062173 0.808047414 0.77257973
0.533932149 0.859943569 0.810481131
0.669997811 0.897309482 0.838351071
0.738761663 0.919184923 0.848300219
0.792709231 0.926740408 0.838320255
0.842018843 0.927563548 0.829588652
0.882989705 0.923507392 0.82732147
0.923327804 0.917480171 0.829781294
0.024855392 0.146113023 0.480554998
0.049314626 0.157416567 0.490982145
0.110995576 0.179572359 0.512207687
0.21418494 0.223772556 0.556831062
0.453620374 0.31720376 0.642150164
0.712984383 0.417417824 0.69525528
0.847373247 0.49184674 0.738551974
0.929332256 0.540336251 0.77770108
0.994992018 0.574603736 0.808025241
0.019964209 0.236809626 0.537181735
0.053535104 0.256542176 0.55503571
0.13217327 0.292077482 0.58137995
0.276853323 0.359980077 0.631848752
0.538972259 0.462043434 0.714394927
0.765549004 0.562596023 0.768058598
0.882762134 0.630405605 0.819313586
0.95723927 0.668843985 0.848669291
1 0.694509864 0.872159064
0.013856655 0.326678485 0.584346592
0.051169772 0.347605884 0.605135739
0.148150012 0.396349221 0.636782289
0.360998213 0.478871495 0.684921682
0.612680614 0.577899516 0.758449495
0.801365077 0.665552914 0.812539935
0.902093828 0.718388975 0.853230536
0.971486151 0.753991187 0.878412604
1 0.784858942 0.902819455
0.004953532 0.399874121 0.618382394
0.046663985 0.436548203 0.645638227
0.157496721 0.490307122 0.678900957
0.432607859 0.577939153 0.726471722
0.666031241 0.666140497 0.784403443
0.82001847 0.740226805 0.836680949
0.906923354 0.772723436 0.858798921
0.970578134 0.798785627 0.876123309
1 0.827253342 0.89941889
0 0.479714125 0.644597828
0.056767873 0.520752609 0.682095408
0.187282532 0.587184846 0.724927366
0.486408383 0.662263513 0.764116585
0.694044471 0.729782879 0.807803929
0.821223199 0.784800649 0.845421731
0.895945013 0.807638228 0.858848751
0.955126226 0.825233757 0.870379329
1 0.85041374 0.891784251
0 0.552033246 0.663921177
0.08380989 0.616041183 0.718997538
0.257555097 0.693441033 0.76955384
0.547136664 0.756517112 0.810242474
0.70864594 0.798828125 0.837490261
0.814539254 0.823489487 0.854767561
0.886132658 0.848002255 0.863607705
0.940986872 0.864663959 0.876244247
0.99260354 0.883968294 0.894452631
0 0.623566926 0.695262671
0.121758237 0.69372654 0.755360663
0.363116086 0.767135322 0.806704402
0.605272889 0.831019998 0.847667158
0.730218947 0.863173842 0.865049362
0.808744252 0.866084456 0.86727792
0.872840822 0.878246248 0.863859892
0.924015164 0.907760978 0.877402008
0.973748624 0.924460471 0.893897831
0.026248783 0.689409256 0.729482532
0.173511311 0.767894149 0.795075655
0.440587044 0.827384055 0.8422001
0.645335257 0.88639766 0.876187801
0.745173216 0.910948932 0.886984766
0.806073546 0.915546477 0.886484742
0.862249434 0.90840894 0.865553796
0.906197309 0.911822915 0.86702162
0.95277226 0.942207694 0.884589434
0.069749668 0.762657702 0.7738626
0.245738417 0.830734313 0.830002606
0.497260839 0.885538936 0.874735594
0.671636224 0.93159169 0.899343848
0.752854943 0.949456632 0.907116652
0.801201105 0.955294788 0.906062424
0.850228071 0.948433757 0.879944205
0.895363152 0.943963706 0.869931698
0.937942088 0.947550535 0.878124177
0.028392049 0.177771762 0.564866781
0.054015916 0.194236293 0.582688391
0.126212195 0.224255636 0.617809296
0.242630571 0.297054738 0.69414717
0.480763108 0.402257085 0.775614202
0.728407562 0.507921457 0.837303281
0.869526982 0.581908405 0.884533226
0.954259336 0.627903759 0.919953823
1 0.652376056 0.946486115
0.02340189 0.270287812 0.619273305
0.064471424 0.29633835 0.645091951
0.149391651 0.337403685 0.680958986
0.313699394 0.41643405 0.747282267
0.557836592 0.525884092 0.819368064
0.777292609 0.620079935 0.880385697
0.898628712 0.686363459 0.923428357
0.974682093 0.72853595 0.961079657
1 0.754009068 0.988755584
0.017174354 0.358325005 0.664542735
0.066048987 0.389356822 0.694135606
0.168705419 0.441290081 0.730707645
0.389790893 0.527042031 0.784826875
0.626351476 0.630752265 0.848244071
0.808475673 0.709388077 0.90405345
0.911447048 0.757341683 0.931806207
0.97830379 0.79095757 0.960626602
1 0.818573296 0.987263083
0.009726351 0.438733846 0.699370146
0.064319573 0.477814019 0.73135668
0.181173116 0.53047955 0.764497638
0.445148706 0.618564129 0.811378479
0.684325039 0.711432159 0.864236414
0.826429248 0.776289284 0.911294281
0.911312461 0.809283078 0.928780615
0.974036038 0.830747485 0.945862472
1 0.856429935 0.963454962
0.000450832 0.506139457 0.719580352
0.075650737 0.552457452 0.758936763
0.207480818 0.621881664 0.800260007
0.485256463 0.697958767 0.837912321
0.714113295 0.772341371 0.8815642
0.828465998 0.818739533 0.908949435
0.900728822 0.844014764 0.922091126
0.961555541 0.85761404 0.930400789
1 0.875494778 0.940579653
0 0.585293114 0.741005599
0.097817749 0.635468543 0.789876521
0.264160603 0.70149076 0.834368885
0.529993773 0.763098776 0.865231693
0.722886801 0.825780749 0.902976036
0.818105936 0.847604752 0.909476697
0.887311995 0.873886883 0.920546591
0.946658432 0.888364255 0.928293169
1 0.90117842 0.936101973
0.013699508 0.654468238 0.765454829
0.132537112 0.71779412 0.82183516
0.347630084 0.792902291 0.86994952
0.584733605 0.845546782 0.898017883
0.732549608 0.887343884 0.923652947
0.810834646 0.893829703 0.925248027
0.873500645 0.901078463 0.927734256
0.931917489 0.922373533 0.928429306
0.98566246 0.936552823 0.937945068
0.039893765 0.719671011 0.792861223
0.175860792 0.793217897 0.858456075
0.426727772 0.85204792 0.896623194
0.624132991 0.903865457 0.927629948
0.749475002 0.940595269 0.942790627
0.808995008 0.93682605 0.936939001
0.861310542 0.9294734 0.932680905
0.91776669 0.939826369 0.922474623
0.964814723 0.966746211 0.930494666
0.07507585 0.784510732 0.827763677
0.221499294 0.85631901 0.89130497
0.485516191 0.903043687 0.922227383
0.646006942 0.951868474 0.949748576
0.758727551 0.979898334 0.954077303
0.809707582 0.979575336 0.949172318
0.851621389 0.969408512 0.939271629
0.902753174 0.958153367 0.917763174
0.948172808 0.964956045 0.916621566
0.031675648 0.209573045 0.65068686
0.064276159 0.230751485 0.674503446
0.146967843 0.267043412 0.722517729
0.282702744 0.349950314 0.808217883
0.516517699 0.462537676 0.891403556
0.739868879 0.570541322 0.963472247
0.895136595 0.646340013 1
0.983665526 0.689136267 1
1 0.71155417 1
0.026574962 0.302112371 0.701495886
0.075869635 0.333114833 0.731979191
0.171493068 0.3778117 0.775878251
0.353751332 0.457980037 0.844191432
0.582762837 0.573617637 0.920577645
0.792567909 0.669173419 0.976474345
0.915064752 0.726210833 1
0.992622435 0.763105392 1
1 0.789171457 1
0.020663314 0.390521705 0.743329108
0.080306292 0.425498545 0.77702862
0.194600612 0.476570874 0.815311313
0.422109991 0.55936712 0.869090438
0.633751214 0.664543271 0.932323694
0.827394426 0.747321844 0.979218602
0.922034979 0.78693229 1
0.988129556 0.813649893 1
1 0.840404272 1
0.013474689 0.47050336 0.769101381
0.080547221 0.507439852 0.803811789
0.214658305 0.56190151 0.841702461
0.474819988 0.649082601 0.890680432
0.680205107 0.739409208 0.938374102
0.847546399 0.810839236 0.974834085
0.919969261 0.836976349 1
0.979194283 0.852047563 1
1 0.875665426 1
0.002378905 0.526157677 0.782403409
0.091808937 0.580888391 0.825189173
0.241930142 0.64658308 0.866997123
0.507908404 0.728504539 0.911551058
0.714000225 0.802141428 0.948557436
0.849006295 0.85482049 0.971713006
0.910779536 0.875304818 0.992024183
0.965573967 0.884985387 0.987630308
1 0.899625301 0.999589026
0.002432764 0.602326691 0.80460614
0.111790173 0.646631896 0.84776777
0.285652906 0.711446166 0.889954805
0.528828681 0.787208557 0.923888445
0.725615799 0.8490538 0.955526173
0.836444914 0.879984498 0.972003043
0.888557434 0.898419976 0.978322268
0.947768748 0.912303984 0.974246681
1 0.92226845 0.978882015
0.026284121 0.67577374 0.827450395
0.141404808 0.726608515 0.877445221
0.349645168 0.792035997 0.923452556
0.562887311 0.841044962 0.944391727
0.723951817 0.880765975 0.959846377
0.818705738 0.91116792 0.977689326
0.875840187 0.917069852 0.976567388
0.929026842 0.939156651 0.97491473
0.986388803 0.95216614 0.975779474
0.053958558 0.738679171 0.849871635
0.183327571 0.804283142 0.911112607
0.417430222 0.872083902 0.953099489
0.602671981 0.908091903 0.964746416
0.730409503 0.94234103 0.980593741
0.807394505 0.955943048 0.986173213
0.861924827 0.949179173 0.97978729
0.916100502 0.955933988 0.974471688
0.971246839 0.977311313 0.974040985
0.085032247 0.801819563 0.878659129
0.221966267 0.873625457 0.94453752
0.470659673 0.922346652 0.969985783
0.630071402 0.958026469 0.978320241
0.741342485 0.991828561 0.9824664
0.809973061 0.99668014 0.981283784
0.852774858 0.984336376 0.972149789
0.902319491 0.978699446 0.962264836
0.956955731 0.989569247 0.960579872
0.03436242 0.239141241 0.734755695
0.075765945 0.26334703 0.764319003
0.169982091 0.305371791 0.822896361
0.32143876 0.386062831 0.903069735
0.554063439 0.502015889 1
0.754975319 0.605201244 1
0.912014306 0.692813277 1
1 0.7338714 1
1 0.756027818 1
0.029257443 0.330056757 0.780626357
0.087965772 0.363297671 0.814832389
0.198250905 0.41000092 0.864023328
0.388360023 0.484121054 0.927855611
0.61597389 0.600871205 1
0.79585588 0.691773474 1
0.933072507 0.761927247 1
1 0.793700397 1
1 0.814060926 1
0.023233833 0.41609624 0.813133955
0.094701901 0.450633138 0.849131227
0.232846215 0.502730429 0.893361449
0.453379512 0.580098867 0.947841167
0.66223222 0.685418248 1
0.820510626 0.764960706 1
0.942989588 0.816565514 1
0.999735653 0.835797131 1
1 0.85500735 1
0.014944266 0.488168627 0.828030109
0.097267412 0.529222369 0.869835556
0.256337106 0.582897782 0.911918521
0.506242335 0.667818666 0.966280997
0.70133692 0.758859098 1
0.840497553 0.828912914 1
0.943987429 0.863688588 1
0.987520278 0.872985125 1
1 0.888824224 1
0.004334195 0.545983076 0.84059155
0.105653957 0.600060463 0.883163333
0.277608722 0.660988331 0.925904393
0.538132131 0.747571588 0.982391596
0.726850331 0.821478903 1
0.852742136 0.876767695 1
0.93495363 0.901132762 1
0.975207508 0.909439445 1
1 0.91702646 1
0.015679581 0.61037159 0.858256042
0.124996834 0.657021642 0.899740875
0.311129034 0.725580454 0.940303624
0.550588191 0.807689309 0.984764338
0.726695776 0.867256582 1
0.849728286 0.904614568 1
0.914581537 0.924090087 1
0.956386089 0.936188221 1
1 0.94249171 1
0.034564741 0.684985399 0.879859924
0.149546564 0.728002667 0.924493372
0.358565956 0.791370988 0.967021704
0.5710271 0.850825489 0.997539043
0.713407457 0.889493465 1
0.827504218 0.926747739 1
0.891756773 0.939530432 1
0.933658779 0.956972241 1
0.987687349 0.970858634 1
0.064774171 0.752031147 0.90253216
0.18708916 0.805415213 0.956066251
0.416758984 0.869509995 1
0.589037418 0.902696133 1
0.709897816 0.923954427 1
0.808028102 0.950836003 1
0.86761868 0.959440827 1
0.918307781 0.966775894 1
0.96873337 0.986744344 1
0.095324881 0.814928889 0.928090334
0.231753916 0.881806016 0.988520503
0.474358261 0.938069463 0.999922812
0.618444383 0.962971568 1
0.723621666 0.987971663 1
0.804686069 1 1
0.85459739 1 1
0.904322088 0.995848119 0.997362256
0.954902232 0.996299267 0.989492834
