game/public/levels/Train Scene/post/Videofullness_FREE_Underwater_LUT_01.cube
TITLE "25x25x25 Adobe/IRIDAS cube 3D LUT"
LUT_3D_SIZE 9
0 0.00517843 0.037023287
0.013574872 0.005051382 0.035560552
0.030327035 0.007670137 0.03990382
0.05045284 0.020830756 0.057391882
0.076091222 0.036556419 0.07785216
0.184113398 0.04596857 0.100338727
0.373137385 0.042567652 0.117006041
0.5327788 0.046798658 0.124365017
0.681605995 0.052359242 0.108068153
0.000062887 0.037850909 0.051931463
0.0137148 0.040243175 0.051276341
0.030564213 0.04602322 0.053837243
0.048960947 0.068265833 0.07358668
0.082017593 0.095135137 0.102325007
0.19845812 0.11398726 0.133633316
0.384529799 0.110484369 0.150441661
0.596872985 0.09051434 0.119324893
0.730851471 0.095223591 0.094742253
0.00025375 0.077051595 0.079409361
0.013960314 0.070405461 0.078688279
0.029721409 0.091231368 0.082635991
0.051929362 0.143023893 0.109034508
0.113655709 0.188163564 0.14967306
0.216763496 0.220246047 0.18282482
0.387747347 0.241285697 0.212836549
0.57402426 0.255603552 0.208013237
0.709366262 0.275640815 0.168948263
0.000321118 0.174830019 0.133370161
0.013978782 0.17773588 0.13395068
0.028267397 0.204530627 0.144168392
0.065903634 0.218237102 0.167294264
0.159112111 0.256967425 0.211012647
0.277769864 0.326515675 0.245021328
0.453136325 0.362873614 0.270346344
0.619077444 0.382781267 0.253625035
0.745731354 0.399370134 0.205904663
0.000419308 0.297769278 0.212009102
0.01401215 0.324590415 0.221613273
0.033293683 0.366950423 0.248152465
0.094558276 0.387706399 0.275032133
0.234667033 0.392810881 0.303390265
0.37178123 0.40528053 0.318155855
0.534794092 0.441360354 0.341188341
0.672142625 0.497104436 0.330230623
0.786742568 0.534294009 0.29943794
0.000583135 0.403057218 0.291966468
0.014125877 0.443905711 0.315138519
0.048733208 0.48832947 0.354393452
0.176954463 0.50986135 0.382639289
0.330452055 0.523081779 0.404157162
0.464559257 0.54376322 0.413295746
0.609720409 0.552047074 0.432941526
0.730171204 0.568012536 0.417904705
0.832108676 0.611038804 0.402182609
0.000762294 0.493620455 0.368574977
0.015350049 0.543023229 0.412723005
0.111274444 0.586868823 0.461763471
0.275502771 0.607512772 0.487318784
0.420480013 0.621584952 0.503810227
0.538265228 0.650780916 0.511914253
0.668365061 0.670627832 0.531594276
0.778879404 0.679268837 0.515875459
0.871928334 0.680881739 0.485015005
0.00089099 0.586478889 0.460285276
0.049018577 0.638087451 0.520801485
0.211413428 0.683216512 0.569698811
0.374400139 0.702357829 0.590626776
0.497501016 0.715185821 0.601639628
0.597387075 0.738898635 0.608630002
0.721453547 0.757431388 0.610684991
0.811345041 0.778495371 0.617182136
0.900978506 0.79068476 0.601966798
0.033619907 0.687113047 0.572363913
0.151797444 0.729349256 0.621895909
0.323138207 0.768243432 0.662871838
0.472177029 0.787940025 0.679504275
0.572814941 0.802229166 0.687869072
0.649744511 0.820961833 0.698193848
0.759733617 0.836995721 0.681431353
0.84909761 0.85857141 0.691441417
0.918895721 0.877916157 0.693469286
0 0.017194593 0.081779167
0.013464998 0.0181194 0.08054097
0.027093828 0.023478093 0.086563058
0.042220339 0.033580918 0.103776366
0.071648426 0.055583566 0.138924986
0.169543102 0.078279227 0.177835822
0.364338398 0.078132108 0.216084585
0.578728557 0.057593655 0.213518858
0.721493721 0.064482786 0.163389683
0 0.064024657 0.106688946
0.013607129 0.059378922 0.106256023
0.027208146 0.069559634 0.114446312
0.053410023 0.093195632 0.135625035
0.103023484 0.135726824 0.183762819
0.220768556 0.17243129 0.237842977
0.397656262 0.189371929 0.261172712
0.602908015 0.173752949 0.246385098
0.755649865 0.161937967 0.163777903
0.00001961 0.138420179 0.163278654
0.013738549 0.123325117 0.15239121
0.032818306 0.14453581 0.16595231
0.069358662 0.189375639 0.198197067
0.156171933 0.244822532 0.247480914
0.257956207 0.292994231 0.293866783
0.435210705 0.315715015 0.323978871
0.597220838 0.34020409 0.324031293
0.719062269 0.371484816 0.308255047
0.000073475 0.267156422 0.256583035
0.013785389 0.250801057 0.240886614
0.037210226 0.257032573 0.24407728
0.09229923 0.289786667 0.273677349
0.217052177 0.356714517 0.324658602
0.322076589 0.411513716 0.369722933
0.465736687 0.448199809 0.400025904
0.607376635 0.485037565 0.427524298
0.725906968 0.513643265 0.425546438
0.000222416 0.377002597 0.338695079
0.013890265 0.376062393 0.330206454
0.039254569 0.401986271 0.346938103
0.120778926 0.433538318 0.37471813
0.281245261 0.451381952 0.401639491
0.404916704 0.494582832 0.440016925
0.561119318 0.563221753 0.48330906
0.681515574 0.607844293 0.508778512
0.785238385 0.632300854 0.506030381
0.000425953 0.462389678 0.406553656
0.014730958 0.477172881 0.410457611
0.044939894 0.513882339 0.440487474
0.175757989 0.548459351 0.476785898
0.363996238 0.570324183 0.500712812
0.495012432 0.596582711 0.51838845
0.62653631 0.615269125 0.540041745
0.73408103 0.66178304 0.566356003
0.831581056 0.721532702 0.586178839
0.000639461 0.534479797 0.467457741
0.023302302 0.567686081 0.492877126
0.063617654 0.611389637 0.539795876
0.264250427 0.649262607 0.580012739
0.445996433 0.669094384 0.596478641
0.566946626 0.691941082 0.60552448
0.687539876 0.711161435 0.613031864
0.778883815 0.724399328 0.621283352
0.863900185 0.751161873 0.629836738
0.00447752 0.617007196 0.544111371
0.039240021 0.662277877 0.589371502
0.14841944 0.703906596 0.637703776
0.366624177 0.738233507 0.671161771
0.524583757 0.75677824 0.680706263
0.62412101 0.775836945 0.691005349
0.73213619 0.794691741 0.681357086
0.821378708 0.815039277 0.695389807
0.894086063 0.826669574 0.696022272
0.021994945 0.711368263 0.639336824
0.096490651 0.749220312 0.680873752
0.274717391 0.78573519 0.72159785
0.465383738 0.81829083 0.749002993
0.597212911 0.839102209 0.759024739
0.678912938 0.85606122 0.76787281
0.757139981 0.875414312 0.7699036
0.858188808 0.890363932 0.758798659
0.921057343 0.907108307 0.764257491
0 0.027954245 0.138704374
0.013388219 0.033382494 0.143556595
0.027026102 0.037877388 0.14522472
0.045944676 0.051181789 0.164469466
0.078456171 0.081376411 0.216276243
0.152160674 0.122179195 0.280160427
0.332284987 0.158921838 0.321956128
0.561110377 0.147564247 0.343931526
0.757029057 0.093632117 0.271397412
0 0.082353838 0.182394579
0.01349772 0.089510284 0.188980922
0.034210987 0.098518416 0.190876439
0.06166897 0.128224581 0.220103964
0.113816127 0.18044126 0.277881831
0.232550383 0.235405907 0.342319578
0.408169508 0.275193512 0.378853142
0.612716317 0.286518484 0.378088862
0.758000374 0.306398749 0.328280717
0 0.2118828 0.27717483
0.016079161 0.198725477 0.27040872
0.04358951 0.200686559 0.269134074
0.08506529 0.235681936 0.290064901
0.19207193 0.300614834 0.349195421
0.309628308 0.361468047 0.41165328
0.480098903 0.397158295 0.440750271
0.636084497 0.436193585 0.450100154
0.748227119 0.474384218 0.443443924
0 0.344441414 0.373592257
0.01356351 0.340689152 0.370473206
0.044710692 0.33850041 0.364621699
0.095760413 0.360375851 0.381902397
0.260235816 0.417297781 0.427045822
0.388769507 0.475217521 0.477987945
0.541366398 0.523783743 0.511571169
0.665185928 0.563963413 0.53902787
0.760059774 0.596879601 0.54968375
0.000076938 0.437804699 0.444034457
0.013720911 0.442865282 0.440182239
0.045387715 0.452830642 0.443873763
0.126590878 0.475919634 0.465963215
0.319463909 0.50439018 0.495365798
0.46727255 0.570112288 0.542969346
0.58520329 0.63140291 0.584961295
0.707111061 0.670376003 0.622546554
0.793360472 0.705244422 0.645374537
0.000292052 0.510377705 0.50237155
0.019176748 0.525297761 0.502382278
0.050305739 0.544947445 0.514025331
0.161600113 0.578593194 0.54736352
0.38966608 0.612881362 0.580414116
0.533003509 0.640282214 0.603293955
0.643010974 0.679951251 0.629625499
0.754884064 0.742074132 0.673107922
0.84009403 0.790243804 0.704867423
0.000510067 0.576407671 0.557363331
0.028406849 0.599886715 0.565751791
0.063513495 0.633728921 0.597315252
0.234581754 0.668399334 0.632856607
0.459722936 0.704010129 0.663081467
0.594667435 0.733552694 0.683817923
0.695684612 0.752597928 0.686023355
0.787872314 0.769622743 0.706879914
0.866409183 0.817468345 0.734889746
0.000705165 0.647713482 0.621491909
0.042040799 0.683010757 0.64495188
0.112532154 0.720248878 0.682895124
0.330718219 0.752325952 0.715387821
0.533444345 0.784598053 0.738225579
0.64991349 0.813334167 0.755477071
0.73167485 0.836239159 0.767391741
0.826906025 0.847466052 0.764917672
0.890623629 0.857006907 0.771447659
0.014041064 0.730069518 0.696479559
0.060502943 0.769228518 0.729911387
0.243563145 0.799296677 0.759657919
0.435706198 0.830950439 0.788636029
0.605534792 0.862005353 0.80710274
0.701012492 0.887240887 0.823224783
0.771319509 0.910702586 0.837657213
0.841876626 0.926396906 0.834027767
0.918763101 0.933691859 0.829117835
0 0.042456392 0.196086019
0.013347059 0.051998921 0.206348956
0.026955679 0.062103752 0.215984985
0.050081059 0.078704387 0.23335363
0.088391088 0.116670467 0.29018411
0.16512154 0.170791745 0.358368367
0.328244418 0.224221215 0.424901903
0.539889038 0.265695721 0.455709159
0.730963409 0.269491762 0.43386513
0 0.109688938 0.25528878
0.013445172 0.121668749 0.267679155
0.032957565 0.144372538 0.285335243
0.060441844 0.166101038 0.298378706
0.116195172 0.218266249 0.356010109
0.249247581 0.287728548 0.428789467
0.429189116 0.345681965 0.491643131
0.621326149 0.386689246 0.494432122
0.759256482 0.418794811 0.473514766
0 0.232640162 0.348671496
0.013968231 0.234677881 0.355472296
0.042642124 0.259514362 0.376260638
0.077641495 0.281087488 0.381881535
0.192238212 0.341413885 0.427337646
0.348198503 0.415872008 0.499025226
0.521218479 0.471158057 0.549490452
0.672600806 0.517232418 0.555514336
0.771467149 0.553385973 0.560873508
0 0.385488987 0.45574367
0.013456563 0.393918902 0.466183156
0.049004138 0.397165418 0.469139814
0.101316318 0.403662294 0.471523464
0.270535827 0.447848558 0.495592952
0.429221898 0.517935395 0.5570153
0.587363541 0.579082489 0.595596731
0.712783992 0.625033677 0.629201055
0.794268548 0.660814166 0.653143287
0 0.476966113 0.518255889
0.014832701 0.494827092 0.535223842
0.051297866 0.509043753 0.541310668
0.117065728 0.51645571 0.545241356
0.3288517 0.544121146 0.563281953
0.505175173 0.605319321 0.607679605
0.639914751 0.662221968 0.643147409
0.749511003 0.7063182 0.688115776
0.823014975 0.748133838 0.724774361
0.00021064 0.542506218 0.565888643
0.017602947 0.566390991 0.585699499
0.055160154 0.588871956 0.594839215
0.161894977 0.607066214 0.610319555
0.404511005 0.633484483 0.630511284
0.565265059 0.677217305 0.664927363
0.681945264 0.737892151 0.699856877
0.782362223 0.785957813 0.74301219
0.852352619 0.823886633 0.780042171
0.0004518 0.601054847 0.613733649
0.025037134 0.634174824 0.640099823
0.063804805 0.66185981 0.657027423
0.224624515 0.689899206 0.68148154
0.460121393 0.721983552 0.704260588
0.617805839 0.761768341 0.731177449
0.720689952 0.786098123 0.741910279
0.809195042 0.819045186 0.772672951
0.880787432 0.879160106 0.815778971
0.000660271 0.668208659 0.671622097
0.037127219 0.708545983 0.707633972
0.087374642 0.74030751 0.730118215
0.318103999 0.767804444 0.752703607
0.523482919 0.801863611 0.776033401
0.667893171 0.83665514 0.797518611
0.752179682 0.8647843 0.813361645
0.83057642 0.877041578 0.813584089
0.892849624 0.892303526 0.832960367
0.005205477 0.74591136 0.746487856
0.053590883 0.788844883 0.78031528
0.202064127 0.81492877 0.80048275
0.422853351 0.842173815 0.820255458
0.598755062 0.877426922 0.842713892
0.71518445 0.908882618 0.859155834
0.787721574 0.931475878 0.872362375
0.842164397 0.951387286 0.885564506
0.908226371 0.957260609 0.880010486
0 0.066554599 0.261066794
0.013318785 0.075272538 0.269766659
0.02690243 0.091858722 0.283789128
0.050394759 0.11210499 0.304713368
0.092101939 0.157788679 0.359829456
0.188227609 0.218825057 0.430666625
0.360183954 0.284905642 0.511899471
0.557810068 0.349132538 0.542991638
0.732108712 0.376098931 0.529191971
0 0.14902848 0.328907192
0.013397311 0.158772945 0.338185489
0.033643328 0.185110226 0.35694465
0.059169989 0.213367581 0.385226846
0.107264936 0.25893721 0.428491801
0.266519129 0.335462958 0.503048539
0.453424424 0.407797188 0.577369869
0.640931368 0.464768797 0.583164334
0.760222793 0.503409803 0.583775222
0 0.263051212 0.418280661
0.01345975 0.268817991 0.424391836
0.042770866 0.296248049 0.447294712
0.069917656 0.334888428 0.480320573
0.170064971 0.374616534 0.500638306
0.361853361 0.454732835 0.567539215
0.545332193 0.52737236 0.632988393
0.700442314 0.579875231 0.640062451
0.789346099 0.617390037 0.656433105
0 0.398311853 0.515488803
0.013495627 0.398967862 0.518602252
0.049883336 0.418724656 0.535891652
0.090743221 0.448266834 0.558889151
0.2487275 0.475145847 0.565402687
0.44562608 0.544159055 0.612309873
0.620302498 0.615383744 0.656934738
0.744212687 0.667590022 0.693361998
0.821104825 0.709594727 0.724923551
0 0.503889799 0.585812688
0.01407341 0.521284759 0.597809076
0.051320761 0.541443408 0.611739874
0.108204529 0.546767831 0.61702776
0.316754133 0.557014108 0.618081033
0.509236097 0.617027342 0.653985441
0.670286179 0.680452466 0.689212263
0.776049018 0.728477538 0.732973576
0.843816876 0.771123111 0.772272289
0.000127172 0.575232446 0.63206476
0.018446924 0.59905529 0.649836004
0.055041913 0.625378668 0.668617547
0.139538422 0.640866101 0.677403331
0.385432273 0.651985407 0.682159781
0.570765913 0.69669807 0.709726393
0.707123697 0.754843175 0.73890686
0.804712832 0.793330312 0.776660621
0.867340028 0.833410263 0.818099856
0.000361574 0.634459138 0.675579965
0.023283307 0.662848115 0.699333608
0.062488917 0.695242584 0.72549969
0.220962167 0.716042519 0.734882355
0.466374785 0.740489841 0.745755076
0.635189414 0.774656534 0.76646775
0.744560361 0.811356843 0.783103704
0.828485966 0.861124277 0.819518864
0.890586853 0.899737775 0.855766177
0.000587213 0.696784556 0.72729826
0.032057978 0.730973005 0.75843215
0.074100427 0.765525103 0.788806617
0.30702579 0.788470209 0.797632277
0.524028182 0.817003191 0.812482774
0.680195808 0.854968548 0.833848655
0.7723822 0.88328737 0.845726669
0.843928635 0.899457335 0.850692153
0.904864311 0.927581131 0.875719905
0.001607138 0.766451359 0.791994035
0.044210065 0.807007253 0.827222407
0.108173087 0.841679573 0.856526792
0.40621236 0.859603763 0.859052479
0.592243731 0.889644504 0.87246418
0.722435713 0.926138282 0.892949283
0.800934672 0.948024452 0.901597261
0.855863333 0.966291547 0.913874149
0.910337687 0.97492528 0.912164867
0 0.097750381 0.324569404
0.013281678 0.108979702 0.33689636
0.026911901 0.12793529 0.351604432
0.056506164 0.153766736 0.375332624
0.093380414 0.2048513 0.43913129
0.192621008 0.278342575 0.511701822
0.39806965 0.352728635 0.582648039
0.588226736 0.413581133 0.618825912
0.732340276 0.458921313 0.616315365
0 0.185361922 0.396174759
0.013349731 0.196759701 0.4068923
0.036680426 0.22502929 0.427098811
0.065329969 0.262957692 0.460939586
0.110342987 0.315873533 0.5175547
0.276888907 0.394992411 0.584458232
0.477996439 0.467099428 0.640696585
0.664638519 0.522304595 0.657696724
0.765446544 0.566815495 0.670311868
0 0.296090335 0.481392533
0.013412628 0.308470637 0.493276954
0.044337463 0.333240837 0.512106121
0.075497344 0.378656566 0.547403932
0.173926741 0.420881569 0.583292663
0.35899657 0.487891257 0.631839216
0.550870776 0.564981341 0.687364817
0.720994115 0.623072565 0.704776764
0.804574907 0.665191352 0.728848875
0 0.418236256 0.572282553
0.013479375 0.424165279 0.578351259
0.04989852 0.442800134 0.591483772
0.096281253 0.474959552 0.612709641
0.241373733 0.509122491 0.635578036
0.435739577 0.566001058 0.668712199
0.614385426 0.6433447 0.718397319
0.76243937 0.695160806 0.7417503
0.83844012 0.738354683 0.771518052
0 0.517395914 0.641649485
0.013716488 0.529540598 0.648345649
0.051671788 0.546228051 0.656399131
0.12269184 0.563545465 0.667309582
0.317495435 0.585890532 0.678181171
0.505523741 0.636050105 0.705772936
0.673013926 0.707027853 0.741491497
0.793171585 0.750561059 0.771229446
0.86007601 0.791350782 0.805641055
0.000088046 0.596635222 0.689831853
0.018081648 0.623163581 0.708189487
0.05530652 0.649275959 0.722815394
0.124860547 0.666040719 0.733220756
0.383939892 0.671957374 0.730339766
0.565557241 0.707182527 0.751467824
0.7133919 0.767138302 0.778123796
0.818128288 0.804982424 0.806203544
0.882207572 0.842492998 0.839209318
0.000286117 0.665226519 0.734472513
0.024225136 0.696016014 0.759527326
0.062598795 0.727762282 0.783999264
0.164206356 0.747559786 0.797128797
0.453548282 0.762531698 0.793554187
0.629942 0.789613724 0.807317495
0.750145614 0.830630064 0.825325429
0.838576198 0.869172156 0.84886986
0.899375916 0.898896873 0.87395817
0.000509337 0.726685166 0.780640364
0.030880965 0.761359751 0.813372672
0.071020752 0.796779096 0.843503475
0.275768936 0.820009053 0.854598284
0.533223271 0.840456128 0.85346055
0.68649888 0.870479047 0.868092716
0.785512209 0.894814014 0.878222942
0.854425251 0.915333688 0.88418901
0.914031506 0.954831004 0.909569919
0.000711235 0.792197704 0.839472115
0.040903099 0.830010831 0.873093784
0.084250942 0.867367268 0.904701531
0.372213989 0.889042497 0.910421252
0.596615374 0.913603544 0.913417399
0.727874696 0.941322446 0.925346792
0.814723372 0.966850042 0.936792552
0.871740699 0.976955175 0.939622283
0.921728432 0.987730443 0.93777889
0 0.133702159 0.391411752
0.013241402 0.146885887 0.407213986
0.029263068 0.171570972 0.426498741
0.060310103 0.209592074 0.463106871
0.104112506 0.27099818 0.530300081
0.215196103 0.346414536 0.605442166
0.415140957 0.416964442 0.656683266
0.596047461 0.474500299 0.704309225
0.734653115 0.518416762 0.693228364
0 0.223182738 0.461584002
0.013308597 0.236324862 0.474684358
0.03916733 0.264680028 0.496924818
0.069901772 0.313477844 0.539874196
0.144301146 0.376381338 0.598881781
0.294868767 0.44421953 0.658151627
0.489536792 0.515747547 0.705345213
0.664937615 0.574458897 0.738676429
0.780655622 0.611852288 0.724418342
0 0.331842035 0.544454575
0.014236099 0.344583482 0.557809889
0.047036815 0.368833303 0.574365079
0.084537268 0.414613515 0.608898759
0.224808767 0.464831799 0.641899467
0.371114671 0.520888269 0.692049325
0.551227748 0.595541775 0.740452051
0.722728252 0.650702 0.755588531
0.818631113 0.692556441 0.763353944
0 0.441213101 0.623484969
0.01401846 0.447099268 0.628227413
0.052119635 0.467343599 0.641040623
0.105552487 0.499110311 0.659685671
0.285768479 0.54223299 0.684242964
0.44592151 0.593366683 0.721891046
0.607737958 0.665289462 0.772105217
0.763211429 0.71594274 0.784211338
0.846577227 0.755506873 0.800203323
0 0.52830565 0.681209803
0.01427558 0.544406414 0.691099346
0.052829441 0.558436334 0.699330091
0.134952396 0.581718206 0.711887836
0.346322924 0.611688972 0.724039853
0.513096631 0.661637664 0.755674243
0.65919888 0.729383767 0.803983033
0.793975711 0.771890581 0.810977221
0.870851994 0.80900383 0.833296657
0.000093178 0.606542051 0.729609847
0.01759528 0.628689051 0.746856391
0.056083355 0.651531041 0.760945499
0.136970282 0.672767758 0.77191776
0.400086075 0.688378274 0.771842718
0.577129602 0.728617847 0.793992281
0.70707494 0.784992993 0.831600428
0.822418809 0.823578954 0.838696718
0.891919017 0.854424953 0.86278832
0.000277147 0.676977575 0.775351644
0.025607815 0.708946109 0.802636743
0.064361617 0.745557189 0.830263674
0.135805547 0.772752821 0.847912371
0.448819786 0.785045087 0.841041982
0.638212323 0.807080984 0.845679641
0.74942857 0.843130767 0.870236993
0.842051923 0.879593194 0.878999472
0.908508718 0.907483995 0.893288314
0.000460312 0.749219477 0.82564199
0.03374118 0.787465394 0.862134099
0.073913179 0.826981544 0.896405876
0.212699413 0.853244245 0.910639524
0.527266085 0.86651659 0.899893343
0.696321189 0.887558639 0.900019348
0.792757213 0.911777139 0.916492999
0.864214599 0.936020255 0.924584866
0.923733354 0.962073565 0.928056896
0.001690793 0.815911114 0.881963074
0.042110551 0.85749948 0.920623481
0.126319379 0.896135449 0.94769752
0.315207243 0.920275271 0.953114808
0.593219817 0.939639926 0.950582564
0.737443149 0.957414389 0.953586817
0.822006822 0.978057325 0.965532243
0.882710516 0.98712939 0.965633929
0.931186736 0.995986342 0.955958664
0 0.171515465 0.460789174
0.013211027 0.184866548 0.475628227
0.031092681 0.211160064 0.497152835
0.064463027 0.261424989 0.544872582
0.115606502 0.332363397 0.619766653
0.27622205 0.411779493 0.685833931
0.441871464 0.470290273 0.72328943
0.605023146 0.52165848 0.749492347
0.748222589 0.557193458 0.728815854
0 0.260784149 0.527436435
0.0132795 0.274272621 0.541187584
0.040684741 0.29958868 0.560577035
0.074477091 0.35189572 0.606949747
0.171082959 0.4217574 0.668916643
0.35501197 0.48999089 0.719289422
0.508208454 0.545397282 0.748258889
0.666714072 0.603235304 0.776704073
0.789452732 0.642542422 0.758534849
0 0.362634182 0.601340652
0.014627359 0.373931676 0.613494039
0.048834994 0.397379488 0.628369451
0.091463171 0.438895792 0.657310069
0.259778738 0.497799993 0.699348032
0.425049871 0.559238374 0.742553234
0.563408315 0.61619401 0.777885854
0.717006564 0.67183733 0.788348436
0.82218945 0.713410795 0.79235214
0 0.458091825 0.666573107
0.015248702 0.468143523 0.674233019
0.054175861 0.487075984 0.685713768
0.125498772 0.516813755 0.701786876
0.32422927 0.569393992 0.730622828
0.491230905 0.625123441 0.767949939
0.616248667 0.684098542 0.809631407
0.751830935 0.736544847 0.813579559
0.849829435 0.772018552 0.827396274
0 0.541038513 0.718618512
0.015209096 0.556997716 0.728502452
0.055245679 0.572307944 0.737425923
0.162253335 0.599471629 0.750169814
0.377113074 0.635934293 0.766794622
0.549680829 0.690246642 0.798805714
0.666092396 0.747020602 0.842401624
0.78012532 0.792059839 0.848826945
0.872227192 0.822820544 0.856786311
0.000120288 0.612406075 0.760982394
0.018109499 0.635746121 0.779303491
0.057872877 0.661293209 0.796236694
0.173896581 0.684652627 0.808972776
0.418960333 0.710392416 0.816305041
0.599151671 0.753489494 0.837398708
0.712694585 0.802611947 0.873718321
0.805033803 0.844419062 0.882000446
0.893056512 0.868146539 0.885096967
0.000270951 0.688299 0.809953332
0.024399154 0.715866446 0.834510922
0.065386981 0.745823562 0.859693229
0.18251735 0.775727034 0.879324317
0.449963123 0.796279907 0.879219413
0.651656866 0.822118461 0.881603777
0.754419208 0.858015954 0.904634297
0.836661875 0.893742442 0.91684413
0.911884487 0.919821978 0.91580677
0.00044696 0.762273252 0.862420619
0.036355037 0.79807651 0.898735464
0.077710479 0.837273359 0.932467937
0.20008871 0.86812073 0.952319443
0.491133869 0.884511173 0.945731103
0.700293362 0.900939226 0.935343087
0.79612112 0.922715962 0.947373033
0.866322517 0.946693003 0.950381517
0.928720593 0.964490235 0.945640445
0.004696599 0.836927831 0.922981799
0.045794506 0.876690745 0.962057889
0.203650504 0.916203499 0.976690888
0.383696526 0.942836642 0.978895605
0.567549646 0.959342957 0.978774726
0.740297675 0.971460819 0.977289796
0.827731192 0.985188842 0.983452559
0.888477504 0.995131969 0.986454546
0.938049972 0.997842193 0.974244833
0 0.207073316 0.525874078
0.013195589 0.221067473 0.540817499
0.032777615 0.247986913 0.564802706
0.06947688 0.304037452 0.619507074
0.129637614 0.377584308 0.688999057
0.315084279 0.447054803 0.730373561
0.49464947 0.507800221 0.755067587
0.626014352 0.556246936 0.778230608
0.760548651 0.590514302 0.761474788
0 0.293565005 0.586923301
0.013267974 0.305476397 0.600204587
0.04228412 0.329991013 0.618883252
0.081472829 0.381649047 0.664612174
0.203518435 0.454727024 0.722267866
0.393021971 0.51903671 0.755618334
0.551381767 0.57758069 0.78060025
0.678680539 0.625967324 0.799570084
0.794558167 0.66586256 0.78837508
0 0.38616702 0.649690688
0.014988485 0.397897094 0.662018657
0.050786171 0.419620931 0.676898539
0.105471231 0.457878917 0.703467786
0.291177899 0.523530006 0.750475228
0.457327068 0.584189177 0.782099009
0.600298941 0.643229008 0.807501018
0.71053654 0.692914248 0.821640968
0.823773801 0.728421748 0.819095194
0 0.471736282 0.705137849
0.016629523 0.485751748 0.715567768
0.056691524 0.504923463 0.728268445
0.149068579 0.532979488 0.741837978
0.36250034 0.588998556 0.774724245
0.519187629 0.648224354 0.810151517
0.646912873 0.705863237 0.836548626
0.750203729 0.749903321 0.845828295
0.849042177 0.784477532 0.851497471
0 0.552761555 0.750832319
0.016351469 0.568439066 0.765257537
0.058298621 0.586708963 0.777473748
0.193989083 0.612057149 0.78819108
0.413296372 0.655276537 0.808105528
0.576552272 0.712787569 0.842209458
0.691255808 0.767028868 0.8701033
0.77566117 0.805053473 0.881359518
0.869251788 0.835299909 0.881385982
0.000142547 0.618125618 0.792323589
0.018644234 0.645656943 0.81354785
0.060612414 0.670271158 0.830916226
0.220806688 0.695248902 0.843321145
0.453248799 0.729748785 0.857331097
0.621120632 0.774904907 0.876408875
0.732683063 0.822555065 0.900617123
0.804800808 0.856098831 0.913425565
0.880305529 0.883910537 0.911999166
0.000294733 0.694395959 0.840637028
0.024644634 0.720743537 0.864542603
0.067104518 0.749681711 0.888446808
0.231718123 0.783316493 0.908064008
0.477524996 0.810481191 0.917648017
0.659301281 0.841297567 0.921856284
0.76638329 0.873084903 0.931963623
0.837364495 0.906639516 0.943512499
0.90148294 0.93449825 0.947922289
0.000430271 0.775770605 0.898617268
0.035622124 0.804695368 0.928536177
0.078020453 0.834819078 0.95486778
0.246117204 0.863910556 0.973876238
0.49656716 0.885730565 0.975952089
0.686876178 0.906699479 0.968309224
0.798885882 0.927891374 0.967616677
0.865243673 0.955274463 0.97651881
0.920394719 0.968371272 0.971592724
0.006888134 0.852048039 0.958231807
0.049327299 0.88515079 0.992504776
0.221515179 0.917033851 1
0.416734368 0.946939886 1
0.551724553 0.96608001 1
0.727905214 0.980603516 1
0.83340615 0.993501484 0.99971962
0.892883062 0.997794271 0.999891341
0.941182911 1 0.990519881
