game/public/levels/Train Scene/post/Videofullness_FREE_Underwater_LUT_05.cube
TITLE "25x25x25 Adobe/IRIDAS cube 3D LUT"
LUT_3D_SIZE 5
0.005933932 0.02228963 0.057530914
0.06097642 0.018657174 0.049328271
0.450959623 0.072831146 0.09007664
0.706186712 0.102067254 0.102580644
0.862549961 0.169564351 0.118071251
0 0.068378597 0.074664749
0.149476245 0.1014838 0.075153001
0.510926843 0.198166758 0.099333577
0.717564285 0.263854831 0.121359825
0.880779982 0.335167378 0.144090146
0 0.220771849 0.097337551
0.225041196 0.335154474 0.136979893
0.576892614 0.340792239 0.139062837
0.770471513 0.404194444 0.161169916
0.923817217 0.569443166 0.185349628
0 0.374481231 0.149099454
0.369496554 0.542967439 0.257837057
0.636796713 0.586725175 0.259357572
0.817047477 0.628852308 0.236514106
0.951477885 0.646376371 0.295783669
0.175089613 0.600752652 0.308613122
0.514999926 0.736862183 0.420360982
0.691450179 0.768953323 0.428920925
0.824441969 0.782125115 0.395594418
0.928773046 0.814555407 0.408653498
0.015269252 0.074011832 0.210383043
0.104255877 0.092926063 0.208696306
0.496865541 0.123954453 0.271036088
0.756281912 0.188734263 0.265590638
0.90414995 0.274514347 0.285316169
0 0.210671097 0.279321223
0.148750857 0.230016962 0.26871413
0.574683011 0.358435988 0.348198622
0.793430746 0.438512504 0.373330623
0.940439463 0.509949148 0.423288673
0 0.343640745 0.344847471
0.210221872 0.41803202 0.373219162
0.643863082 0.543852389 0.46210748
0.845413268 0.671175599 0.510113955
0.97681886 0.738295138 0.561109602
0 0.47193259 0.422573268
0.392392755 0.631264865 0.526979446
0.698776007 0.741002977 0.591836989
0.839198411 0.74050045 0.579199553
0.956672668 0.775448322 0.595142066
0.12346787 0.689125478 0.565987229
0.547083735 0.807105184 0.655454397
0.730140746 0.872489214 0.697582424
0.834295869 0.872427225 0.669456482
0.930226207 0.861359715 0.632893384
0.020984525 0.113853671 0.395110548
0.100299723 0.139942303 0.411434799
0.461150199 0.239228219 0.506802976
0.81567806 0.384593576 0.582087636
0.960849404 0.481908351 0.65397644
0.010606032 0.295108855 0.503440022
0.13452211 0.354290783 0.545251489
0.62168622 0.522684336 0.642744839
0.884001911 0.657280505 0.737701356
1 0.722978473 0.79637444
0 0.440345287 0.5509395
0.178550303 0.556672931 0.635355592
0.690871835 0.687233269 0.722892821
0.880934954 0.769454718 0.782368541
0.991770744 0.825615585 0.83062923
0 0.574029386 0.613588154
0.388330847 0.728318274 0.733518243
0.724455237 0.826927245 0.790524006
0.85827589 0.841767609 0.798632503
0.962062657 0.921514869 0.835976601
0.076061137 0.739416897 0.715905011
0.533932149 0.859943569 0.810481131
0.738761663 0.919184923 0.848300219
0.842018843 0.927563548 0.829588652
0.923327804 0.917480171 0.829781294
0.028392049 0.177771762 0.564866781
0.126212195 0.224255636 0.617809296
0.480763108 0.402257085 0.775614202
0.869526982 0.581908405 0.884533226
1 0.652376056 0.946486115
0.017174354 0.358325005 0.664542735
0.168705419 0.441290081 0.730707645
0.626351476 0.630752265 0.848244071
0.911447048 0.757341683 0.931806207
1 0.818573296 0.987263083
0.000450832 0.506139457 0.719580352
0.207480818 0.621881664 0.800260007
0.714113295 0.772341371 0.8815642
0.900728822 0.844014764 0.922091126
1 0.875494778 0.940579653
0.013699508 0.654468238 0.765454829
0.347630084 0.792902291 0.86994952
0.732549608 0.887343884 0.923652947
0.873500645 0.901078463 0.927734256
0.98566246 0.936552823 0.937945068
0.07507585 0.784510732 0.827763677
0.485516191 0.903043687 0.922227383
0.758727551 0.979898334 0.954077303
0.851621389 0.969408512 0.939271629
0.948172808 0.964956045 0.916621566
0.03436242 0.239141241 0.734755695
0.169982091 0.305371791 0.822896361
0.554063439 0.502015889 1
0.912014306 0.692813277 1
1 0.756027818 1
0.023233833 0.41609624 0.813133955
0.232846215 0.502730429 0.893361449
0.66223222 0.685418248 1
0.942989588 0.816565514 1
1 0.85500735 1
0.004334195 0.545983076 0.84059155
0.277608722 0.660988331 0.925904393
0.726850331 0.821478903 1
0.93495363 0.901132762 1
1 0.91702646 1
0.034564741 0.684985399 0.879859924
0.358565956 0.791370988 0.967021704
0.713407457 0.889493465 1
0.891756773 0.939530432 1
0.987687349 0.970858634 1
0.095324881 0.814928889 0.928090334
0.474358261 0.938069463 0.999922812
0.723621666 0.987971663 1
0.85459739 1 1
0.954902232 0.996299267 0.989492834
