game/public/levels/Train Scene/post/Videofullness_FREE_Underwater_LUT_02.cube
TITLE "25x25x25 Adobe/IRIDAS cube 3D LUT"
LUT_3D_SIZE 25
0 0 0.083828516
0.004227401 0.000060731 0.085248657
0.008628278 0.001041428 0.091191642
0.012969151 0.00398274 0.10199514
0.017243562 0.009679449 0.11239402
0.021440051 0.018614827 0.122235455
0.031276733 0.027780257 0.130940437
0.052133847 0.035012409 0.137815207
0.073802397 0.040499546 0.144436657
0.097977139 0.045063052 0.15155524
0.126232758 0.048390932 0.158790976
0.156191543 0.051183235 0.16626668
0.186215103 0.053942021 0.174049288
0.216750085 0.05656914 0.18188104
0.248215333 0.058983281 0.18954289
0.280874729 0.061202239 0.196861923
0.314674765 0.063481241 0.203698397
0.349727452 0.065941542 0.209851012
0.386372864 0.068654083 0.215027422
0.42508477 0.071747504 0.21884352
0.464487374 0.07536573 0.22123614
0.501724958 0.079083361 0.223376974
0.537147403 0.082781054 0.225357533
0.571149945 0.086404532 0.227158189
0.604048967 0.089960814 0.228825152
0.000199584 0.023874659 0.095490642
0.004599804 0.025395429 0.096352354
0.008956449 0.028395047 0.100194745
0.013273917 0.03242619 0.109671347
0.017530028 0.038946707 0.119312428
0.021714306 0.048454415 0.128431171
0.03908382 0.0565239 0.137125075
0.05930458 0.062769845 0.14426595
0.08103013 0.067596041 0.15121752
0.105546847 0.071782321 0.15873605
0.134055525 0.074753635 0.16629073
0.163831681 0.077326231 0.174076647
0.193844438 0.079895191 0.182088763
0.224457383 0.082300678 0.190052375
0.255919367 0.084422618 0.197749332
0.288582265 0.086327843 0.205039889
0.322386622 0.088325039 0.211809263
0.357489645 0.090526469 0.217847586
0.394242972 0.093013771 0.22285381
0.432912827 0.095949695 0.226431012
0.471160352 0.099437423 0.228772402
0.507381082 0.102987498 0.230933592
0.541989028 0.106534287 0.232923284
0.575331807 0.110031113 0.234725446
0.607694983 0.113535441 0.236432999
0.000381719 0.057364367 0.102797747
0.004909143 0.053478584 0.105748117
0.009310082 0.054729037 0.108996607
0.013591241 0.060443118 0.116491072
0.01781927 0.068200782 0.125239044
0.024552438 0.077606276 0.133680165
0.043647882 0.084475085 0.142175645
0.063568689 0.089595586 0.149811193
0.085817233 0.093841888 0.157276392
0.110995419 0.097525023 0.16521889
0.139928624 0.100078136 0.173147127
0.169723243 0.102430075 0.181304634
0.199867845 0.10480351 0.189605877
0.230660617 0.107010201 0.197778583
0.262283564 0.108938247 0.205613986
0.29502514 0.110634625 0.212953955
0.328908443 0.112480506 0.219715983
0.364126921 0.114568487 0.225677744
0.401050925 0.116982944 0.230536446
0.439251482 0.119969472 0.233896747
0.476461768 0.123466924 0.236233041
0.511834741 0.127008751 0.238398284
0.54576987 0.130533278 0.240374804
0.578573167 0.13401401 0.242169917
0.610501468 0.137528032 0.243896469
0.000735417 0.083624862 0.112297624
0.005168289 0.083860472 0.11268124
0.009614918 0.083237223 0.116001412
0.013952591 0.08666791 0.123248756
0.018125601 0.096813239 0.130610228
0.025364459 0.106102057 0.138085961
0.043930255 0.112257674 0.146041334
0.06390214 0.116548948 0.154196769
0.08711192 0.120321572 0.162414744
0.113513455 0.123446204 0.170816272
0.143164992 0.125626534 0.179181293
0.173314378 0.127866939 0.187766284
0.203849971 0.130136088 0.196387619
0.235040396 0.132239074 0.204794466
0.267049342 0.134062439 0.212796777
0.300054789 0.135617271 0.22021243
0.334161669 0.137328207 0.226984605
0.369623542 0.139305145 0.232894585
0.406751633 0.141641498 0.23762393
0.444205254 0.144678742 0.240804195
0.480498374 0.148109451 0.243182614
0.515151858 0.151579991 0.245372325
0.548510611 0.155024856 0.24735494
0.580858886 0.158451781 0.249173269
0.61243248 0.161926806 0.250930995
0.001690298 0.084142655 0.133561015
0.005835593 0.096800357 0.127245381
0.010008693 0.107995927 0.124164902
0.014265418 0.115066275 0.128113776
0.018499307 0.122618482 0.136525899
0.025784172 0.131881937 0.143047169
0.043252364 0.138782993 0.149813861
0.062727794 0.143543601 0.158058465
0.085884377 0.14756617 0.166639
0.113209575 0.150477678 0.175093114
0.143321395 0.152572542 0.183726266
0.173914462 0.15472959 0.192702413
0.205128059 0.156778246 0.201720566
0.236988559 0.158640862 0.210457832
0.269624382 0.160233766 0.218709871
0.30315733 0.16157265 0.226289868
0.337664425 0.163037121 0.233121872
0.373530209 0.164799809 0.239021763
0.410587937 0.167019144 0.243666917
0.447428256 0.170001388 0.24678202
0.482994109 0.173277155 0.249262184
0.517077208 0.176593319 0.25151521
0.549986839 0.179887891 0.253538638
0.582000196 0.18320933 0.255431622
0.613316655 0.186588854 0.257256418
0.002613977 0.085996985 0.154209763
0.006838337 0.095346875 0.148667514
0.010937743 0.109767742 0.143457592
0.014909431 0.129234627 0.139931411
0.018944532 0.145496726 0.142498612
0.026482806 0.153844625 0.14870134
0.043918088 0.161021739 0.155083373
0.062463716 0.168257326 0.162535608
0.085176244 0.173503965 0.170933589
0.112748682 0.176879257 0.179222286
0.142537564 0.179518878 0.187800527
0.172929421 0.182013586 0.196749449
0.204095423 0.184239924 0.205728099
0.236149609 0.186112255 0.214494362
0.269224584 0.187573835 0.222839206
0.303355157 0.18869485 0.23055546
0.338541359 0.189802468 0.237519488
0.37507987 0.191204593 0.243484631
0.41189903 0.193228409 0.248119503
0.448363096 0.196003467 0.251289189
0.483445168 0.199002922 0.253965974
0.517157316 0.202050596 0.256363302
0.549812078 0.205108225 0.258512139
0.581648588 0.208244547 0.260542512
0.61283052 0.211466089 0.262487143
0.003323086 0.096974179 0.17130217
0.00764782 0.102109425 0.166900784
0.011829227 0.113095447 0.162532076
0.015864313 0.13001661 0.158577412
0.019892424 0.146873116 0.158083737
0.031039558 0.162719786 0.159585208
0.046471983 0.17679888 0.162698224
0.06501992 0.185992166 0.169645429
0.086358055 0.194776952 0.176568538
0.112934925 0.200630099 0.184013039
0.141891882 0.204889566 0.192032695
0.171842247 0.20830676 0.200646669
0.202800304 0.21105513 0.209404096
0.234774247 0.213215366 0.217988998
0.267854929 0.214829266 0.226150721
0.302011669 0.216041192 0.233646676
0.337288439 0.217173398 0.240338653
0.37376982 0.218515411 0.246040285
0.410102606 0.220500976 0.250501633
0.446236789 0.223070055 0.253764451
0.481100619 0.22572428 0.256771863
0.514787138 0.228416771 0.259522527
0.547477841 0.231190816 0.262013197
0.579390883 0.234110504 0.26437524
0.61066103 0.237157106 0.266623974
0.003779419 0.11862886 0.184899449
0.008221313 0.118831202 0.181961983
0.012496978 0.125877202 0.178484723
0.016669504 0.137139887 0.174970239
0.020948336 0.149529964 0.173310429
0.038390927 0.161440268 0.175222456
0.055769302 0.174793914 0.178417519
0.072920553 0.189849555 0.182644218
0.092333846 0.205113739 0.18695493
0.116379127 0.216801271 0.191960797
0.142879486 0.2255968 0.198054969
0.171588793 0.231677875 0.205393299
0.201853096 0.236131117 0.213393569
0.233480334 0.239295423 0.221519351
0.266424775 0.241512477 0.229366735
0.300561458 0.2431238 0.236612618
0.335948378 0.244519293 0.243054524
0.371857762 0.246112674 0.248450458
0.407491714 0.248314098 0.252578348
0.442842662 0.25095427 0.255726427
0.477004468 0.25361219 0.258696407
0.510215878 0.256238222 0.261468709
0.54271096 0.258892 0.264141738
0.574656427 0.261631221 0.266790926
0.606142044 0.264434665 0.269411713
0.003985114 0.150834158 0.19539845
0.008506089 0.147691935 0.193591774
0.012921743 0.148884162 0.191463158
0.017260291 0.153267771 0.188923165
0.024509639 0.15934062 0.18702881
0.042393818 0.166913748 0.188864037
0.062594421 0.176798269 0.193324134
0.083157919 0.188220635 0.198866367
0.104781881 0.200538784 0.204701811
0.127764165 0.215459824 0.20885247
0.150094062 0.233602926 0.211096108
0.174942672 0.247975305 0.21437633
0.203052029 0.257033765 0.219929263
0.233482301 0.262865722 0.22659947
0.265766382 0.266762137 0.233535901
0.299563289 0.269525319 0.240165204
0.334784031 0.271637738 0.246129751
0.369819969 0.273806274 0.251106501
0.404789567 0.276350528 0.254828244
0.439310849 0.279105246 0.257876366
0.472792983 0.281805933 0.260774046
0.505463481 0.284445643 0.263497829
0.537528217 0.28713724 0.266176343
0.569118857 0.289907873 0.268837094
0.600316107 0.29275015 0.271475464
0.004157633 0.184447169 0.205375046
0.008606985 0.184274942 0.203121558
0.013078958 0.183102459 0.201630786
0.017589837 0.180308133 0.200465307
0.025273889 0.179503679 0.199375287
0.04361207 0.181228399 0.201069459
0.066332288 0.185984105 0.206508368
0.08997874 0.193507329 0.21310398
0.115005225 0.201997653 0.220289439
0.13981916 0.212601081 0.226825044
0.164288521 0.226018846 0.231864244
0.188238561 0.242944539 0.234479949
0.211216822 0.263839215 0.234221324
0.237670392 0.278669566 0.236308157
0.26771155 0.28757754 0.240502968
0.300295532 0.293101847 0.245436013
0.334431708 0.296946973 0.250264615
0.368380904 0.300388724 0.254435062
0.402538091 0.303767562 0.257566124
0.43613714 0.306912392 0.260377795
0.468904793 0.309821784 0.263111532
0.501017988 0.312596738 0.265750587
0.532643378 0.315391153 0.268400043
0.563876152 0.318237007 0.271050245
0.59477669 0.321147263 0.27369082
0.00430581 0.219122678 0.214672729
0.008723035 0.220248461 0.212565899
0.01318419 0.219519332 0.211064354
0.01770018 0.216541409 0.209642604
0.022731096 0.211605728 0.209395498
0.04258737 0.20655793 0.212015212
0.067342266 0.204838216 0.218115687
0.09392757 0.206432909 0.225479066
0.122080274 0.210378855 0.23381044
0.149255335 0.217071384 0.241962761
0.175321877 0.226450115 0.249097481
0.201515093 0.238205805 0.254571617
0.227651656 0.252781093 0.257684112
0.252668411 0.271531075 0.2578215
0.277371705 0.292759806 0.255867422
0.305711627 0.308151633 0.255754054
0.336647362 0.317725658 0.257445097
0.368619621 0.324303955 0.259635329
0.401464939 0.32936278 0.261552602
0.433860123 0.333421052 0.263686925
0.465721756 0.337001473 0.265981972
0.497164071 0.340268195 0.26838553
0.528283834 0.343373865 0.270905614
0.559123218 0.346420407 0.273483843
0.589710653 0.349470824 0.276088089
0.004457146 0.253782779 0.22285068
0.008867219 0.255159646 0.221149698
0.013321787 0.254689753 0.219737783
0.017832339 0.251947135 0.218191803
0.022371337 0.247910172 0.217955917
0.038671315 0.242527977 0.220516935
0.065009266 0.235259563 0.227291912
0.094738975 0.229643896 0.235674754
0.125644475 0.227238894 0.244746268
0.155317783 0.228639022 0.254547
0.183773443 0.233738318 0.263391465
0.211532518 0.241555452 0.270865321
0.239663213 0.251570642 0.276493609
0.268034816 0.263990402 0.279821098
0.295570254 0.279987574 0.280447066
0.321739912 0.300180376 0.277824402
0.347005904 0.321294606 0.273716271
0.373809576 0.338711172 0.270353854
0.403365701 0.350009561 0.268956929
0.433517158 0.357450485 0.269127786
0.463907301 0.362702131 0.270221174
0.494380116 0.366858304 0.271921664
0.524807513 0.370544493 0.274008393
0.555113554 0.374102265 0.27631855
0.585299611 0.377530932 0.278770983
0.004627213 0.287768006 0.230123818
0.009032711 0.289290547 0.228834257
0.013484463 0.288922191 0.22756137
0.017988101 0.286435246 0.226276308
0.022511154 0.28301996 0.226332128
0.034460664 0.27881071 0.228736907
0.060485676 0.272867948 0.2345476
0.092147022 0.264457256 0.243267283
0.125506192 0.255129844 0.253275961
0.157481909 0.249630019 0.264066756
0.188581333 0.248612314 0.274527133
0.218665838 0.251600593 0.283810794
0.248353586 0.257575333 0.291375428
0.278686255 0.265771657 0.296865344
0.309194922 0.276430428 0.30011794
0.338236809 0.290455699 0.300679117
0.364224315 0.309286118 0.297607064
0.389247745 0.33028692 0.29232356
0.413976401 0.351711571 0.285996884
0.438720405 0.370569944 0.280611306
0.465593696 0.382692993 0.278229654
0.493869305 0.390788287 0.277840137
0.52290988 0.396584958 0.278646827
0.552339733 0.401132315 0.2801736
0.581937432 0.405084938 0.282148898
0.00480932 0.321354687 0.236484393
0.009212866 0.322915465 0.235603452
0.013664797 0.322522074 0.23450236
0.018158808 0.320367187 0.233828291
0.022668764 0.317436606 0.234380528
0.030459195 0.314032495 0.23691842
0.05656822 0.309050947 0.242135033
0.088872284 0.301643938 0.250350773
0.122374728 0.292732358 0.259880155
0.155969068 0.282610923 0.27110067
0.189543575 0.274218321 0.282598794
0.222355947 0.270313591 0.293437123
0.254362553 0.270689428 0.30298385
0.286330819 0.274525821 0.310412496
0.318740547 0.281097859 0.315462768
0.349498481 0.290501118 0.318213135
0.378318518 0.30318889 0.318238169
0.405170679 0.320351243 0.314805031
0.429861546 0.340925157 0.308861852
0.453497589 0.361623138 0.30258444
0.476325631 0.382404417 0.296069443
0.49926573 0.402161866 0.290105999
0.524731815 0.415700555 0.287201256
0.551985025 0.424840927 0.286493301
0.580258846 0.431424052 0.287120014
0.004998505 0.354746103 0.241909027
0.009401351 0.356295109 0.241438061
0.013852596 0.355892897 0.240699649
0.018337697 0.354024917 0.240784988
0.022835195 0.351536751 0.241996139
0.027338803 0.348630846 0.244873434
0.053266987 0.344256222 0.249819398
0.085828304 0.337655306 0.257688671
0.11929965 0.329718173 0.266957432
0.152872354 0.320928127 0.277335018
0.1871714 0.311465979 0.28838402
0.222273856 0.301148683 0.300035179
0.257124484 0.293999314 0.311075568
0.29146257 0.291311175 0.320669025
0.325144529 0.29305923 0.327636123
0.357182384 0.298313379 0.331965029
0.387785405 0.306641191 0.333904684
0.417290419 0.318262398 0.333195299
0.444396496 0.33353585 0.330066264
0.468426049 0.35284397 0.324471772
0.491394907 0.372921735 0.318351507
0.513864815 0.393213481 0.312143117
0.536135018 0.41373089 0.305936992
0.558385134 0.434164464 0.299888313
0.582804024 0.449493557 0.296390057
0.005188584 0.388195902 0.246403843
0.009593099 0.389638364 0.246303916
0.014038622 0.389399171 0.246263698
0.018516541 0.387745351 0.24714379
0.023002744 0.385640383 0.24912487
0.027498901 0.382994056 0.252453744
0.050573424 0.378961354 0.257382482
0.083002448 0.373039603 0.265049577
0.116583034 0.365799695 0.274362892
0.150285184 0.357882082 0.28433767
0.184714794 0.349635363 0.294523388
0.219999656 0.340692967 0.305148751
0.25633496 0.33053875 0.31619814
0.29346323 0.320212364 0.327190131
0.328682035 0.314540148 0.336439312
0.362131834 0.314153016 0.342675328
0.394351155 0.31794554 0.346179575
0.425623357 0.325217277 0.347293645
0.454936087 0.335377514 0.34670803
0.481855869 0.348750561 0.34426713
0.505945086 0.366403699 0.339484215
0.528592408 0.385998547 0.333660811
0.550993562 0.405884892 0.327798635
0.573300004 0.426029742 0.321955681
0.595542192 0.446402341 0.316158116
0.005371749 0.422012031 0.250056535
0.009779304 0.42329675 0.250282466
0.014215231 0.423350513 0.25124228
0.01868391 0.421980381 0.253033757
0.023161352 0.420152783 0.255827963
0.027653158 0.417629808 0.259678513
0.048533857 0.413716495 0.264798313
0.080551863 0.408400059 0.272399992
0.114380985 0.401708722 0.28200078
0.148370206 0.394350946 0.291799515
0.183086783 0.386905104 0.301503897
0.218651175 0.3791098 0.311313957
0.255239815 0.37062344 0.321317494
0.292558193 0.361139834 0.331401289
0.328922153 0.350499451 0.341319799
0.364161581 0.341706723 0.349958062
0.398496211 0.338651091 0.355489582
0.431561112 0.340686023 0.358366221
0.462569356 0.346235216 0.35969761
0.491624475 0.354775697 0.359602749
0.518685579 0.366533935 0.357967436
0.543337226 0.382252723 0.35427916
0.566003203 0.401358545 0.348844588
0.588550985 0.420945257 0.34337002
0.611081958 0.440879285 0.337936282
0.005602658 0.453875214 0.253735214
0.00997448 0.456611991 0.254053742
0.01438123 0.457783133 0.255732059
0.018830508 0.457108498 0.258479297
0.023300469 0.455499589 0.26213491
0.027790397 0.452995121 0.266569138
0.047441334 0.449173123 0.272077262
0.0788396 0.444298238 0.279775351
0.112990528 0.438042372 0.289738417
0.147430211 0.431130677 0.299539655
0.182564199 0.424227089 0.309074253
0.218563884 0.417192608 0.318350911
0.255613327 0.40984413 0.327591956
0.292496383 0.402138591 0.336625755
0.328244388 0.393892884 0.34529686
0.363610506 0.384579957 0.353550106
0.399699867 0.373962283 0.361049235
0.43534714 0.367529869 0.366384268
0.468380511 0.366830081 0.369773656
0.499336988 0.370349526 0.371682078
0.528548658 0.37730962 0.372289658
0.556008101 0.387554616 0.371462226
0.581420064 0.401527703 0.368829757
0.604706943 0.419766694 0.364143044
0.627669275 0.439240515 0.359124184
0.005938381 0.481387079 0.258119285
0.010260612 0.48609826 0.258937865
0.014617264 0.48926729 0.261091232
0.019012123 0.490766287 0.264340162
0.023438156 0.490906835 0.268434733
0.027904332 0.489336312 0.273225397
0.048043281 0.485965222 0.279196918
0.07842499 0.481335819 0.287199825
0.112907916 0.475484043 0.29748112
0.147950709 0.469031155 0.30745402
0.183619037 0.462482393 0.31695655
0.220196933 0.456016451 0.326041341
0.257650435 0.449490011 0.33472386
0.294071347 0.44305712 0.342946351
0.329494983 0.436486453 0.350652784
0.364611566 0.429426908 0.357792795
0.400171518 0.421495527 0.364228696
0.436395824 0.411913991 0.370365471
0.472414881 0.401588321 0.376485974
0.505888402 0.397579789 0.380819023
0.537298918 0.398820639 0.383577228
0.567039967 0.404073715 0.384969532
0.595201552 0.412886798 0.384982497
0.621673107 0.425433546 0.383408695
0.64618504 0.442478567 0.379844189
0.006347746 0.50584662 0.262946248
0.010616958 0.512627959 0.264701217
0.014923394 0.517777741 0.267557263
0.019268185 0.521267235 0.271342307
0.023648262 0.523245513 0.275817454
0.028067738 0.523556113 0.280870974
0.052139193 0.52233845 0.286950827
0.080916315 0.519470811 0.294953406
0.114938945 0.514814198 0.305270195
0.150689751 0.508963406 0.315517008
0.187025949 0.502715349 0.325108409
0.224330053 0.496704519 0.334189624
0.261828423 0.490850925 0.3425363
0.297958255 0.48529467 0.350156218
0.333270192 0.479895532 0.357142717
0.368384808 0.474406153 0.36341688
0.403926373 0.468546391 0.368834257
0.439270198 0.461725026 0.374101132
0.47455883 0.453099251 0.379703879
0.510347843 0.442100435 0.385983109
0.544650078 0.433877081 0.391558021
0.576706231 0.432135642 0.395288825
0.607005537 0.435184419 0.397518694
0.63572371 0.442205846 0.398356616
0.662971973 0.453052253 0.397760391
0.006801486 0.528440893 0.268280745
0.011018604 0.537241876 0.271115303
0.015274435 0.544369936 0.274837047
0.019571722 0.549736917 0.279255629
0.023910999 0.553339958 0.284143418
0.036399394 0.555552125 0.289584696
0.060888916 0.556415975 0.296029389
0.088681906 0.555711091 0.304167569
0.121586531 0.553520083 0.314248919
0.157274544 0.550187588 0.324252188
0.193758428 0.545535445 0.333650976
0.231363118 0.540024161 0.342630893
0.268189788 0.534389853 0.350770146
0.303700507 0.529052258 0.357883841
0.338524401 0.524026096 0.364228964
0.373262882 0.519171596 0.369731218
0.408455223 0.514316857 0.374291629
0.443222225 0.508946478 0.37874496
0.477446407 0.502677917 0.383495927
0.511830568 0.494932026 0.388805062
0.547040462 0.484950125 0.394795746
0.581837475 0.474052638 0.401191145
0.614801824 0.468511969 0.406089157
0.645820379 0.468858838 0.409280896
0.675239086 0.473739326 0.4109492
0.007280141 0.549978018 0.274004877
0.011445284 0.560782909 0.278014362
0.015649438 0.569923282 0.282729149
0.019900501 0.57710588 0.287859678
0.027573884 0.582316756 0.293285608
0.049562156 0.586337447 0.299213767
0.073406368 0.588970065 0.30608505
0.100287884 0.589885354 0.314416349
0.131818265 0.589352846 0.324307412
0.166575283 0.587781012 0.334078252
0.202574968 0.585103631 0.343081623
0.239005566 0.581503153 0.351350307
0.27437833 0.577445567 0.358809471
0.309013247 0.572801709 0.36542964
0.343379289 0.567852139 0.371254265
0.377838969 0.563287795 0.376136988
0.412707388 0.558956146 0.380070984
0.447037846 0.554410338 0.383904576
0.480853319 0.549498141 0.387976825
0.514257967 0.543969274 0.392470539
0.547981918 0.537135899 0.397542775
0.582738698 0.528255999 0.403263479
0.617420852 0.517737329 0.409653604
0.65130657 0.508489251 0.415643483
0.683264971 0.505196869 0.419747978
0.007766187 0.571177602 0.280105233
0.011878282 0.584025323 0.285336852
0.016030401 0.595182657 0.291119039
0.022683084 0.603852987 0.296944499
0.04328537 0.610225499 0.302886069
0.064582616 0.615275562 0.309283316
0.087436557 0.618969619 0.316529989
0.11318475 0.621109664 0.325029254
0.143563479 0.621911526 0.334856629
0.177100331 0.621740878 0.344519913
0.212659359 0.620689332 0.353257596
0.247581244 0.618686855 0.360926479
0.281453788 0.616391122 0.36765945
0.314795583 0.613817811 0.373478293
0.348146737 0.61076194 0.378322154
0.382105291 0.607213199 0.382378548
0.416606486 0.603136539 0.385867178
0.450594664 0.599014461 0.389259458
0.484122068 0.594887078 0.392826349
0.517272472 0.590582132 0.396675706
0.549999177 0.585786045 0.400957882
0.583163261 0.579773009 0.405750364
0.617416203 0.571865976 0.411127806
0.651967645 0.562059343 0.417242587
0.686086953 0.551893413 0.423313558
0.008244127 0.592669427 0.286568284
0.012312084 0.607204676 0.292950571
0.018692791 0.619482994 0.299621135
0.039578259 0.628975511 0.30600661
0.05975914 0.636379719 0.312593341
0.080424786 0.642306924 0.319519103
0.102505952 0.646824598 0.327193856
0.127295583 0.650032997 0.335887015
0.15652281 0.651986837 0.345722198
0.188921511 0.652989984 0.35535863
0.223369241 0.653257251 0.363900453
0.256838948 0.652680755 0.371130556
0.289346665 0.651726246 0.377252847
0.321539164 0.650765479 0.382412016
0.353910148 0.64958775 0.386472285
0.386991024 0.648108125 0.389393866
0.420467079 0.646105647 0.391869307
0.453841388 0.643272698 0.394550502
0.487084359 0.639612079 0.397681832
0.519974172 0.635867834 0.401017547
0.552492738 0.632018209 0.404590666
0.584589601 0.62784642 0.408612072
0.617260337 0.622651637 0.41310209
0.651102602 0.615686834 0.418079436
0.685737848 0.606550276 0.423609018
0.008735985 0.613591671 0.293052137
0.014338434 0.629118979 0.300457478
0.036293 0.642170668 0.30785507
0.057111919 0.65276885 0.315059006
0.076914996 0.66115576 0.322328836
0.096987188 0.667862654 0.329841495
0.118400842 0.673099875 0.337999463
0.142503619 0.677177787 0.346889973
0.17070666 0.680146813 0.356829882
0.201907396 0.682190895 0.366452366
0.234408289 0.683556199 0.374819934
0.266575009 0.684246719 0.381745279
0.297865123 0.684398532 0.387392163
0.329007417 0.684667826 0.391990721
0.360510468 0.684984446 0.395428002
0.392752767 0.685154498 0.397555053
0.425191581 0.684871554 0.399093807
0.457577109 0.684060812 0.400708258
0.489912331 0.682608247 0.40268296
0.522241473 0.680322289 0.405146897
0.554551482 0.677134633 0.408175826
0.586526394 0.673855782 0.411521375
0.618127227 0.670439124 0.415287137
0.650501192 0.665896237 0.419352472
0.684144676 0.659575403 0.423767596
0 0.002447457 0.107236505
0.004160312 0.004704324 0.108060591
0.008547653 0.006406598 0.11233522
0.012912326 0.008392124 0.122974604
0.017215353 0.012777114 0.134787187
0.021464577 0.019380625 0.146393597
0.042230375 0.029378649 0.156039476
0.062592924 0.038487125 0.16392456
0.083676755 0.045772657 0.17084682
0.106286913 0.051496193 0.177934363
0.132351607 0.056168117 0.185313284
0.162005857 0.059637323 0.192682907
0.191886991 0.063006595 0.200390965
0.222029448 0.066225372 0.208241373
0.253074706 0.069303095 0.216014057
0.285206437 0.072199494 0.223507687
0.318518937 0.075040691 0.230549157
0.353242397 0.077863649 0.236907706
0.389518917 0.080865368 0.242351145
0.427734852 0.08420068 0.246534884
0.466970563 0.088092849 0.249161035
0.504332304 0.09215799 0.251345694
0.539872527 0.096199512 0.253373802
0.573992789 0.100160964 0.255228966
0.606991768 0.104010157 0.256913483
0.000106771 0.029402381 0.119954675
0.004493318 0.031600673 0.119636133
0.008876134 0.033668328 0.12212269
0.013217814 0.036792148 0.130788773
0.017509419 0.041712273 0.141924068
0.032445483 0.049045175 0.152799785
0.05175636 0.05875618 0.162434131
0.071226791 0.067004293 0.170456082
0.092021547 0.073529169 0.177614495
0.11476364 0.078929149 0.185089856
0.141044155 0.083317697 0.192794442
0.170583874 0.086601131 0.200463399
0.200251773 0.089788094 0.208413124
0.230321333 0.092796609 0.216396645
0.261302829 0.095636442 0.224231169
0.293414474 0.098280832 0.231731817
0.326756239 0.100860313 0.238718525
0.361544728 0.10344363 0.244967684
0.397921741 0.106241368 0.25025031
0.436141968 0.109417967 0.254200369
0.474354625 0.113201328 0.256692648
0.51072073 0.117074519 0.258882046
