game/public/levels/Train Scene/post/Videofullness_FREE_Underwater_LUT_04.cube
TITLE "25x25x25 Adobe/IRIDAS cube 3D LUT"
LUT_3D_SIZE 9
0.00053443 0.004586093 0.01468124
0.012250245 0.010499901 0.001329804
0.024544762 0.021394812 0
0.116501339 0.060620911 0.019980676
0.232263669 0.086179465 0.04453636
0.340957999 0.095133401 0.068315141
0.461003989 0.106550477 0.08537779
0.578112125 0.122315593 0.09640453
0.669188738 0.142120689 0.108811237
0 0.035445973 0.039611291
0.006269858 0.056381166 0.02757708
0.050708514 0.082647428 0.02176852
0.148048878 0.12674664 0.045878008
0.264305532 0.145907715 0.071411438
0.373310417 0.152217209 0.092476733
0.493555248 0.163986206 0.104956806
0.594459593 0.180856675 0.115633704
0.679008782 0.204290733 0.12788175
0 0.07509546 0.065983437
0.008569785 0.068285085 0.058159072
0.073229074 0.107346192 0.050650559
0.162490994 0.173341349 0.064931072
0.274768591 0.202925116 0.085541353
0.393910527 0.212410718 0.105213329
0.509059608 0.22605069 0.117368177
0.603085279 0.247526199 0.130141392
0.688979626 0.275490284 0.143994018
0 0.163396046 0.085119165
0.004436104 0.180053592 0.079339154
0.082238086 0.199993178 0.084264435
0.189534187 0.197114706 0.099856131
0.308808386 0.204750896 0.12357752
0.421999753 0.261501282 0.126008704
0.520974696 0.313314527 0.129382968
0.616383195 0.349654168 0.143259898
0.709472299 0.383296818 0.160796344
0 0.261553019 0.105071545
0.001855125 0.298071235 0.108249046
0.099063039 0.333225995 0.124199815
0.218324021 0.341875076 0.137604356
0.357559294 0.334084988 0.15828608
0.486421704 0.314998031 0.175390482
0.586592853 0.344959795 0.18436639
0.666675627 0.42440173 0.184707105
0.745887816 0.502741992 0.190872625
0 0.329570353 0.129517198
0.03482575 0.381711364 0.14976044
0.156962246 0.432548761 0.176619291
0.280436873 0.453155875 0.193108603
0.412233114 0.457785279 0.208473593
0.525017858 0.464290589 0.208617255
0.627055407 0.471722841 0.22264947
0.72901237 0.481128663 0.247987196
0.812046409 0.544375539 0.264068365
0 0.401331127 0.165110618
0.095499389 0.457279027 0.196797192
0.225959972 0.513304889 0.228098005
0.343537837 0.538090348 0.248161405
0.457761347 0.55019021 0.262130052
0.561504602 0.569079101 0.264065504
0.658039212 0.597175419 0.27445364
0.750314295 0.618763506 0.293833107
0.840312481 0.619131148 0.317690074
0.063579828 0.479912758 0.208907068
0.171973959 0.534073472 0.249501497
0.301360965 0.591909111 0.286934346
0.406485379 0.619905889 0.310438752
0.503956079 0.636615634 0.322912067
0.599956632 0.661751986 0.331935018
0.689018369 0.688859463 0.340190321
0.765762746 0.713034868 0.350106299
0.835965991 0.729980528 0.365262836
0.158903375 0.5732795 0.274048328
0.267683357 0.628179014 0.323406279
0.3888008 0.683722317 0.367038369
0.476870269 0.707943141 0.388372511
0.558110356 0.724146962 0.396322489
0.637100339 0.745428443 0.400372714
0.712985575 0.764906228 0.401450932
0.782830119 0.784222603 0.404405892
0.842548251 0.80473429 0.411938876
0.002625396 0.034276348 0.071237609
0.014290316 0.04141143 0.059256095
0.0312902 0.045231171 0.053814132
0.140169263 0.074353755 0.081140108
0.253500521 0.113002382 0.114073046
0.373641729 0.136913598 0.145223871
0.491621286 0.154057652 0.1649905
0.602172911 0.173610419 0.176362008
0.689472973 0.199134141 0.189819083
0 0.087793306 0.094216675
0.025086269 0.085331686 0.089404598
0.080024347 0.104538269 0.083107218
0.176892206 0.150484934 0.11162784
0.28923279 0.186872512 0.147619143
0.407142609 0.203667402 0.17436862
0.524513245 0.218312904 0.188158005
0.620195746 0.242160097 0.200484574
0.703663051 0.271905661 0.214692831
0 0.144699454 0.124598183
0.024326241 0.124910012 0.115300491
0.106306516 0.158686832 0.111685328
0.198994651 0.219437525 0.138358861
0.316266596 0.25612098 0.1781203
0.434167176 0.271526068 0.201775298
0.545650005 0.288766623 0.211847484
0.637665689 0.315719604 0.224533126
0.723589003 0.3495408 0.241638362
0 0.250417411 0.164795101
0.019289866 0.22955671 0.149381042
0.109941818 0.248980135 0.15711613
0.218678847 0.272408783 0.179129899
0.339507848 0.319134802 0.208850726
0.457190424 0.35897398 0.225289524
0.567297935 0.385133654 0.234884441
0.666121304 0.418989182 0.254395872
0.757002234 0.457269639 0.280625105
0 0.320380747 0.205944508
0.028698262 0.318978518 0.195447162
0.125701785 0.360300541 0.213725269
0.261036545 0.391726613 0.234061927
0.399499118 0.396784276 0.261717796
0.519105494 0.402330816 0.284030914
0.61598289 0.472786546 0.288861126
0.709142268 0.554469645 0.308934212
0.795274496 0.601682305 0.33904013
0 0.372843802 0.238700137
0.057965122 0.399569124 0.245567277
0.169071361 0.453123331 0.274446696
0.316885352 0.492313981 0.294984341
0.450610667 0.509119034 0.317462385
0.564514816 0.521279335 0.332320869
0.670407414 0.532146394 0.362856567
0.761087656 0.574455917 0.387825489
0.832266748 0.657513499 0.402810842
0.030683199 0.444772869 0.277151585
0.119090207 0.484534979 0.302558213
0.240484297 0.539286137 0.33800596
0.380143255 0.587199271 0.365323931
0.498447806 0.608894765 0.387251258
0.605744243 0.629653454 0.398442775
0.696655333 0.649670482 0.410759449
0.777770698 0.656420112 0.431708872
0.858063817 0.662956655 0.460392505
0.106220521 0.539778233 0.341215402
0.217370287 0.582096457 0.379555613
0.330713302 0.635901093 0.420805961
0.454809278 0.681235254 0.450162321
0.550849319 0.701809585 0.463457942
0.640927792 0.720952094 0.468186438
0.718941331 0.733888805 0.466771543
0.786664724 0.746820867 0.471374214
0.852944493 0.754146457 0.488963574
0.209646404 0.642548323 0.42343086
0.318569541 0.676877975 0.456752956
0.417966366 0.72165966 0.494356245
0.522839069 0.763314545 0.524942517
0.602708459 0.782627761 0.535115004
0.672778308 0.797510743 0.533362329
0.737294316 0.805498719 0.524747431
0.799239397 0.814878047 0.52020669
0.854896545 0.828269541 0.524605513
0.004778255 0.064169176 0.137212008
0.033913143 0.079438746 0.125426963
0.065631032 0.083371408 0.124502026
0.158240095 0.099038221 0.150114805
0.270871192 0.136938304 0.190615937
0.397949278 0.169063419 0.226536453
0.521315038 0.194446057 0.247862533
0.623865604 0.220014587 0.259705871
0.708849728 0.253057063 0.274876714
0 0.117572531 0.171457097
0.056614421 0.135505572 0.171297386
0.101829574 0.144418284 0.161805391
0.194196716 0.17854844 0.1856381
0.309813589 0.226757899 0.230569378
0.437882513 0.260038972 0.266034216
0.553642988 0.285946935 0.282740921
0.647741377 0.314497977 0.294563711
0.732732892 0.349022567 0.312570572
0 0.227881268 0.209998459
0.054034185 0.219346642 0.211772308
0.124775574 0.212602407 0.205251008
0.218231574 0.26020357 0.227024704
0.345154434 0.31500721 0.27820605
0.473984361 0.347931921 0.313526481
0.580229998 0.375312239 0.330498487
0.674880385 0.410136998 0.350117594
0.764636159 0.453334361 0.380770475
0 0.328163832 0.262741685
0.053426925 0.322346598 0.263860494
0.127480373 0.307661921 0.261919737
0.244461015 0.340800196 0.279850006
0.382244706 0.398214042 0.321867794
0.510525942 0.438375503 0.36000216
0.62517786 0.48409766 0.38977024
0.723917067 0.533131242 0.425735563
0.804773152 0.571997881 0.457832217
0 0.387041837 0.305833161
0.065302022 0.392231405 0.312189728
0.140226275 0.402454257 0.322282314
0.274576873 0.436868221 0.34526962
0.435733616 0.462103724 0.3813425
0.562524736 0.514499068 0.415869176
0.668535829 0.589624405 0.448097467
0.758434951 0.639175534 0.483274043
0.83241111 0.67907995 0.516721845
0.013370427 0.434227675 0.344157308
0.095313065 0.454669237 0.359200865
0.182402089 0.48938328 0.385626376
0.327952683 0.538193166 0.413868636
0.484924316 0.583121061 0.448738396
0.611783147 0.5995906 0.480578601
0.710619271 0.612615347 0.508821726
0.781509101 0.680375516 0.526881456
0.841498971 0.756829262 0.547465384
0.051959619 0.506637275 0.398967654
0.162143558 0.548665226 0.432994425
0.273167372 0.591508865 0.470051289
0.4012537 0.638354421 0.498733759
0.534949958 0.680577576 0.522004783
0.643308461 0.703321397 0.539933443
0.727009237 0.708730042 0.550719738
0.800824821 0.696901798 0.56940937
0.862688601 0.732711554 0.593050122
0.12471921 0.61401087 0.478712201
0.260626078 0.646409333 0.511474252
0.367564231 0.683517277 0.548679292
0.471041709 0.72281462 0.576497853
0.584418416 0.76017803 0.593191385
0.671591997 0.782472312 0.601117015
0.741642892 0.791452527 0.601244211
0.803068161 0.788569808 0.600193739
0.861898184 0.777245462 0.617049217
0.210821956 0.707281411 0.547854245
0.355450898 0.732668519 0.580651581
0.454801261 0.764925063 0.617512524
0.539297819 0.801223576 0.647368193
0.62987572 0.830127418 0.661237001
0.700110018 0.847256064 0.661878884
0.756541848 0.856437981 0.654778421
0.808995843 0.857181609 0.644744456
0.859727144 0.85594815 0.641988218
0.007798829 0.103005208 0.216401979
0.051491056 0.127386779 0.222029865
0.099122971 0.131919995 0.218307927
0.179005772 0.147398129 0.244542152
0.296988279 0.179688111 0.295032859
0.426324308 0.224080265 0.341183543
0.556191862 0.257952332 0.368183017
0.660287023 0.291168958 0.376690835
0.743808389 0.334136188 0.399517328
0.003481774 0.166828245 0.265200049
0.069388382 0.197301492 0.282469839
0.133394629 0.211980015 0.277410835
0.201817915 0.230376497 0.283623189
0.332346767 0.277769804 0.338255227
0.476726472 0.330077857 0.387653947
0.601769805 0.375724047 0.42026177
0.701241255 0.421092719 0.448530048
0.782799363 0.467318535 0.483348966
0.002736947 0.278192401 0.323776484
0.064766042 0.290930033 0.343052477
0.155796081 0.308161825 0.350367278
0.237451613 0.330141187 0.348823607
0.366461039 0.381995529 0.396236897
0.528549671 0.445109546 0.457306445
0.65321058 0.49903959 0.496736854
0.746247292 0.547080338 0.532399952
0.817806482 0.588775933 0.568511128
0.00117484 0.383937925 0.369751692
0.068268202 0.401000023 0.391232312
0.165041 0.400434494 0.400462568
0.277373135 0.413673252 0.416944087
0.409079343 0.467415571 0.458940566
0.572708905 0.529899776 0.518671751
0.691404104 0.588330448 0.560493946
0.775971353 0.644002378 0.603219688
0.842633367 0.689117312 0.63944006
0.000533584 0.441745341 0.40410322
0.086476937 0.472088546 0.428549796
0.180563867 0.484872699 0.443453014
0.306108713 0.500216603 0.474418223
0.458744377 0.545381069 0.519263625
0.611217439 0.614435017 0.574314475
0.717260897 0.663342535 0.610622108
0.794432342 0.710716248 0.646122575
0.859181404 0.755747259 0.680380881
0.023528572 0.496670812 0.444390774
0.118756011 0.537631392 0.479568869
0.234472454 0.567762077 0.508786917
0.360213846 0.602036893 0.542522013
0.50537616 0.642128289 0.577089071
0.644573689 0.667340577 0.622330666
0.735999763 0.716081381 0.653955579
0.80110085 0.774000406 0.673337221
0.862543941 0.812323213 0.702279329
0.06341771 0.575056493 0.511234045
0.17975235 0.624390662 0.552582979
0.323166907 0.657162786 0.583126962
0.434324682 0.691167474 0.613646686
0.550255835 0.729411185 0.636373341
0.666990638 0.760890007 0.665521681
0.748473823 0.763844252 0.690401196
0.81269455 0.769594908 0.711570799
0.865004301 0.824961066 0.722164512
0.125282213 0.671608686 0.587531626
0.268330634 0.707610905 0.617585242
0.407779396 0.739120007 0.649588645
0.501985312 0.769249856 0.680661798
0.596776128 0.802484095 0.702221215
0.690220892 0.831324935 0.718180537
0.755523145 0.841570497 0.728051722
0.811917245 0.834683001 0.734690845
0.867836356 0.81867367 0.747110367
0.193433776 0.759180784 0.64909333
0.358670741 0.786472678 0.676598549
0.487599462 0.813935935 0.710361421
0.56392163 0.839141309 0.742218673
0.643120527 0.870907187 0.76680851
0.713345528 0.887715816 0.772489965
0.765751183 0.898350239 0.774105847
0.813840151 0.899984121 0.76804781
0.862419486 0.889297605 0.763717294
0.010524788 0.139416128 0.297240525
0.068827443 0.169911593 0.315982252
0.127485827 0.179083228 0.318575501
0.209139258 0.192030132 0.337127537
0.318529487 0.222260937 0.384875983
0.457562 0.285887986 0.453840703
0.599994481 0.347404987 0.519930184
0.707365096 0.405370653 0.566952586
0.784884989 0.454784781 0.607890427
0.007760059 0.222534999 0.369600773
0.084514841 0.26338926 0.399199754
0.160478085 0.289493024 0.405201316
0.239100918 0.30977574 0.412007093
0.35751453 0.351225197 0.456266731
0.518576324 0.423697323 0.527692258
0.658676207 0.48914215 0.590513766
0.757002175 0.543746531 0.635882139
0.829193652 0.589706302 0.677328885
0.005631521 0.318481147 0.429215044
0.081402324 0.350905687 0.462782443
0.181041539 0.386117816 0.478940547
0.279014856 0.41904369 0.489434302
0.403920531 0.469222158 0.529753447
0.576699972 0.538571119 0.594252646
0.713456273 0.608596027 0.65558666
0.80082947 0.664565623 0.704611778
0.864731312 0.708809972 0.746412456
0.003698103 0.418741792 0.480726242
0.085474834 0.447653383 0.512005508
0.191187352 0.474670857 0.531902194
0.322530299 0.497205734 0.548810422
0.451124936 0.548477054 0.585746706
0.616035521 0.616823018 0.647547364
0.741299748 0.676896095 0.699846804
0.820589602 0.727715373 0.744820297
0.880858958 0.774278522 0.786950827
0.009893835 0.499949098 0.516282082
0.104230098 0.544359565 0.555860221
0.210812256 0.576743305 0.581328511
0.354845494 0.586885154 0.602891028
0.497097254 0.611017227 0.635534108
0.645968556 0.671765268 0.684750855
0.758314788 0.729665816 0.735492349
0.829268336 0.771826208 0.773479462
0.887394845 0.814207613 0.810486376
0.033251923 0.56667769 0.561074913
0.137388945 0.621998012 0.610099316
0.262773573 0.661525965 0.640082359
0.412337035 0.683780789 0.658712327
0.532811642 0.696310461 0.681922317
0.671567082 0.727329016 0.717805386
0.773643315 0.786484957 0.763488829
0.836621821 0.824386179 0.797952294
0.891449213 0.856464386 0.829622686
0.071850024 0.642270207 0.624961436
0.183586061 0.695220649 0.66678071
0.343699276 0.732280612 0.696281195
0.483945966 0.756730974 0.716004729
0.574176252 0.776338756 0.732175052
0.689157605 0.801636398 0.752225578
0.778655648 0.810197353 0.784383595
0.834819317 0.849903703 0.813840926
0.882396519 0.903055966 0.835013032
0.127178118 0.721901059 0.687119246
0.25337556 0.765942574 0.719556928
0.423980981 0.795849741 0.747159183
0.544523358 0.820664048 0.767413616
0.619952619 0.842786074 0.78520453
0.710437119 0.868867993 0.797964752
0.776131332 0.874126852 0.80316633
0.829420567 0.866532147 0.825377643
0.877945602 0.880925059 0.85175693
0.192293763 0.80117768 0.74436599
0.340129465 0.831944883 0.768192053
0.49900344 0.857447624 0.794991553
0.599852145 0.880045414 0.81605494
0.666211486 0.903137386 0.837453604
0.730384767 0.923231483 0.846151471
0.780917108 0.923473716 0.83684659
0.824577987 0.924111903 0.843657792
0.869386852 0.913798213 0.85858649
0.015102499 0.18549864 0.394686043
0.086355098 0.21959573 0.421765417
0.14991726 0.243099451 0.446079403
0.253869891 0.271937877 0.475112438
0.36559853 0.309568286 0.526882589
0.506846249 0.372182518 0.5804739
0.653316975 0.441623867 0.640609443
0.757670939 0.501463413 0.695853114
0.831770062 0.551138163 0.747027159
0.013614517 0.276204109 0.467795938
0.102202915 0.320845574 0.503463149
0.184841558 0.359942377 0.531186759
0.303329647 0.407155693 0.563747942
0.407277375 0.444895506 0.608899713
0.559498012 0.512520611 0.657066286
0.706252754 0.583624303 0.712360322
0.804720104 0.64073813 0.765780449
0.871248722 0.682576418 0.811179698
0.008746304 0.362937003 0.522956491
0.103856929 0.407362193 0.563504338
0.211133927 0.455458432 0.595070064
0.342493594 0.506141841 0.623673677
0.455147564 0.553253949 0.667488873
0.603737772 0.617063165 0.712827384
0.747629166 0.681967437 0.761453807
0.840342343 0.736865759 0.810414493
0.903879106 0.782573521 0.853273451
0.012087395 0.449167848 0.575073361
0.107993074 0.497358322 0.614547014
0.224609867 0.543850362 0.647863686
0.378085554 0.586206496 0.675009906
0.503819823 0.633180261 0.714329958
0.640852571 0.690997064 0.753282309
0.774359286 0.748712361 0.793101311
0.857845604 0.789864659 0.830405593
0.915876389 0.830429971 0.868492424
0.026284534 0.554595768 0.619305551
0.131156445 0.603276014 0.672389388
0.245854795 0.643830717 0.705955029
0.40665406 0.66999197 0.722296834
0.544339836 0.685625136 0.747196078
0.665428281 0.732044518 0.777571976
0.786930144 0.783405364 0.81321609
0.859641671 0.819464147 0.847103536
0.914138019 0.851041138 0.877582729
0.057249974 0.637106121 0.667911947
0.166098967 0.6949085 0.723865509
0.282061189 0.737777531 0.754581869
0.450787753 0.763914824 0.772456884
0.571326077 0.760178864 0.782814562
0.686562836 0.771933377 0.803224921
0.800082386 0.820185661 0.832953632
0.86443162 0.854057014 0.864242315
0.914087474 0.881643116 0.89244467
0.094930448 0.705782831 0.718112648
0.210630536 0.763522565 0.771602392
0.349276423 0.800915062 0.795913696
0.515073895 0.828193307 0.814747334
0.608907402 0.834783673 0.819176793
0.706469476 0.840860784 0.832691848
0.806780159 0.856372297 0.850931764
0.862253785 0.892019272 0.873525739
0.909854949 0.920723796 0.900546491
0.142030478 0.772592127 0.768808305
0.266315609 0.825147986 0.815064967
0.421024024 0.849367678 0.836014986
0.568072379 0.874611199 0.851072252
0.652995825 0.889038801 0.855289578
0.7309708 0.906171858 0.868513525
0.807522595 0.904399157 0.867830575
0.858029544 0.898538888 0.877346158
0.899357438 0.934004664 0.901533842
0.203698963 0.843760729 0.822359383
0.343446791 0.874560118 0.850419223
0.483238339 0.894451201 0.872399449
0.616390705 0.91887027 0.884568036
0.695883155 0.937852681 0.892392457
0.750763535 0.953413963 0.903937101
0.806550503 0.956072927 0.8976264
0.852302313 0.940491855 0.887026608
0.894091725 0.939695418 0.90569967
0.027195502 0.234741911 0.494914144
0.101776578 0.272072762 0.529148102
0.177315682 0.307668626 0.574742019
0.303284317 0.364460289 0.636209965
0.432410687 0.416778833 0.687663913
0.556902051 0.475642651 0.741467357
0.701719344 0.542690396 0.778254271
0.807394266 0.594464839 0.812810779
0.880159795 0.639639497 0.855119586
0.026033467 0.325672776 0.562934637
0.118785784 0.37362203 0.603092909
0.216969997 0.423343956 0.649436414
0.357835948 0.485792845 0.702337205
0.488277644 0.542018592 0.745683193
0.59838897 0.593770444 0.802088201
0.741263807 0.65811187 0.834139943
0.843649209 0.71683228 0.869644582
0.91010648 0.758156598 0.906538188
0.019939236 0.411684424 0.616947472
0.125290573 0.462839901 0.66137588
0.249119431 0.522428393 0.707475603
0.399279505 0.584077895 0.751283109
0.535746813 0.642219961 0.786241949
0.635836363 0.687970996 0.843037665
0.769560277 0.743357182 0.867562771
0.865951896 0.791721761 0.891852617
0.928220034 0.828304231 0.923006415
0.028218308 0.497400135 0.665789127
0.135579169 0.555901527 0.716505229
0.269934356 0.613949299 0.757465422
0.425725937 0.664087117 0.791630387
0.578641653 0.714803696 0.818301022
0.6737445 0.75527209 0.860176325
0.792237043 0.805721581 0.884018481
0.877646744 0.840152502 0.89586091
0.93652159 0.867246509 0.918295503
0.049566973 0.595737934 0.717319429
0.161737859 0.64572221 0.772324085
0.291020989 0.698212206 0.803482831
0.447287679 0.735433698 0.823400021
0.608353496 0.764362812 0.843616247
0.702869117 0.794704556 0.865849614
0.807184577 0.843612194 0.888085485
0.880806446 0.869941652 0.894703269
0.934853673 0.888734043 0.913389206
0.076923363 0.69455409 0.75950551
0.191878721 0.74339968 0.812916815
0.324899197 0.781179905 0.843539357
0.480265975 0.804590166 0.857007504
0.623473167 0.814568043 0.870460749
0.719487011 0.819901228 0.875633538
0.811984897 0.863622308 0.897520006
0.881554723 0.889913082 0.904522419
0.930551589 0.909284651 0.92464596
0.119181238 0.760484517 0.797612727
0.239661142 0.814904749 0.851825118
0.375133902 0.853064835 0.877659559
0.521604538 0.874224901 0.885068417
0.639584064 0.881739259 0.894012153
0.732885957 0.877379179 0.901359379
0.818316698 0.887843132 0.917229772
0.880896449 0.916723907 0.91864109
0.927684307 0.937731802 0.935874701
0.163576275 0.818211198 0.83746475
0.298238039 0.872967601 0.890474856
0.432805032 0.896293581 0.906152785
0.568702281 0.91416496 0.91472429
0.675839245 0.934039772 0.919492066
0.753056169 0.94268167 0.922936499
0.823932111 0.933855534 0.934834003
0.881989956 0.93667537 0.932271123
0.919887245 0.963025391 0.939705312
0.219421953 0.877544463 0.881096303
0.358668655 0.917185128 0.919849157
0.489489138 0.928185165 0.931084096
0.60931319 0.952580631 0.946828008
0.714554846 0.977628708 0.948940873
0.774956465 0.988008022 0.949044824
0.828046143 0.987761378 0.955941081
0.882408679 0.970732033 0.945840895
0.919751167 0.965281427 0.942580223
0.036153447 0.28137359 0.593123257
0.12016543 0.322512358 0.63441962
0.216625005 0.368228048 0.700296104
0.355778605 0.435629874 0.771679878
0.494222552 0.499673396 0.82603246
0.625000596 0.565068245 0.874122918
0.737093985 0.627452314 0.924162984
0.841817021 0.681839466 0.952545404
0.917742193 0.72385782 0.973745883
0.038769823 0.371960789 0.655370414
0.140307903 0.424312919 0.701682627
0.258971214 0.479608148 0.76153791
0.417394102 0.54943794 0.821016252
0.544890344 0.613445044 0.869214892
0.669346929 0.671705306 0.912270308
0.762353718 0.721613944 0.963267684
0.867918313 0.774432838 0.980979383
0.933988988 0.813442767 0.997701883
0.037342325 0.461934507 0.707700193
0.152284935 0.518566966 0.760288596
0.294870287 0.581310809 0.813893855
0.462388277 0.649265587 0.862407386
0.587471247 0.709033072 0.897512436
0.705535233 0.75875473 0.931126773
0.783729434 0.795846343 0.978525043
0.881674528 0.836798847 0.982659161
0.940757036 0.866484642 0.990846574
0.048350539 0.551984668 0.757299066
0.165765911 0.612109721 0.813333452
0.322167397 0.670443475 0.856587231
0.487305671 0.72593683 0.891527236
0.619033277 0.773659348 0.911525667
0.735214114 0.818640411 0.935236514
0.80664283 0.852320611 0.976187468
0.888647139 0.883475602 0.975090206
0.945384502 0.902641833 0.974462986
0.074707597 0.626327872 0.80261004
0.188865721 0.684924722 0.852385819
0.34281373 0.74464798 0.886665165
0.500073612 0.788376272 0.912439883
0.641858041 0.821090996 0.92252779
0.758621871 0.852223754 0.936457932
0.825380147 0.887803793 0.965551496
0.893829882 0.915149748 0.965183437
0.947309375 0.929920912 0.959597051
0.098949179 0.722994804 0.835871875
0.218664274 0.761451542 0.884527028
0.372563362 0.802153647 0.913028598
0.511354506 0.836392522 0.926602244
0.655706882 0.863117754 0.934566557
0.768593252 0.872560978 0.943144083
0.832662165 0.904177666 0.956142366
0.892732859 0.933410585 0.95911175
0.945223272 0.948118567 0.952714384
0.134883091 0.799130261 0.864919484
0.259158045 0.843654752 0.915161133
0.40779382 0.877688408 0.940285087
0.534594476 0.892520308 0.943252027
0.668222189 0.896820366 0.946554065
0.770236611 0.909687757 0.963376045
0.838103831 0.920382142 0.965963781
0.887421906 0.949387252 0.969969928
0.942259908 0.968283176 0.962479472
0.183324128 0.854139745 0.89474678
0.333173245 0.905462503 0.944751441
0.457446754 0.933880508 0.962806225
0.567854881 0.944849074 0.96029973
0.687168479 0.961412847 0.968898714
0.773472428 0.969341218 0.97896868
0.838480115 0.95865649 0.981517553
0.892599285 0.961571038 0.990831852
0.938529134 0.98692441 0.977113903
0.248451337 0.906889975 0.928916752
0.397733003 0.951887369 0.972461522
0.502304733 0.966762185 0.982965946
0.609200537 0.978220105 0.985207379
0.714254677 1 0.992382884
0.789093137 1 0.991173804
0.839695334 1 0.98930943
0.892350674 0.995670915 0.985881507
0.941157103 0.999116957 0.983351231
0.049139045 0.324417382 0.688003004
0.145724133 0.372160673 0.741324604
0.258071899 0.418069005 0.813597023
0.402012676 0.485494435 0.884855986
0.552969396 0.563972473 0.944990158
0.671688259 0.625695288 0.996294796
0.79015553 0.69612056 1
0.869683325 0.74598968 1
0.941598833 0.787084579 1
0.055499516 0.417256206 0.747854173
0.168129772 0.475357711 0.803097308
0.303569674 0.526507676 0.86490804
0.468654633 0.598031282 0.923476934
0.602239847 0.671097219 0.977027595
0.711247027 0.720937848 1
0.816347837 0.779101014 1
0.887309968 0.818930924 1
0.952259719 0.855043232 1
0.05905151 0.513023436 0.800944924
0.18199636 0.568416953 0.857228875
0.340853602 0.624074638 0.909372151
0.5170331 0.694789588 0.954757214
0.641939998 0.757006884 0.992301166
0.741609633 0.799879014 1
0.835662246 0.847659171 1
0.896091104 0.876227856 1
0.954743028 0.900722504 1
0.06899368 0.596535921 0.839390576
0.194913745 0.653345764 0.894220829
0.367750049 0.707315803 0.940285087
0.545051932 0.770284116 0.976540804
0.668330789 0.816895366 0.99714005
0.766629457 0.858651936 1
0.855907142 0.901002467 1
0.902062893 0.920725942 1
0.956751347 0.935541272 1
0.094332099 0.656077445 0.870199084
0.211787209 0.716236353 0.915830016
0.389325976 0.778605819 0.957098186
0.554778099 0.829257727 0.987847865
0.684236944 0.86393851 1
0.789101601 0.898699939 1
0.868848503 0.932361424 1
0.908448935 0.951729 1
0.957801938 0.965358377 1
0.122165926 0.728565156 0.897590935
0.245642915 0.769934535 0.94290179
0.415869206 0.825686574 0.970857143
0.556868494 0.870777965 0.989318132
0.684652746 0.901405632 0.999336302
0.804580927 0.922599256 1
0.87192148 0.944739223 1
0.906977236 0.966755092 1
0.955361903 0.984475076 1
0.151734605 0.814566493 0.921037614
0.281293511 0.848430514 0.967392445
0.446862221 0.885608733 0.991763294
0.570452631 0.904070318 0.999945462
0.680853188 0.91878444 0.995506406
0.804174721 0.945696533 1
0.868421137 0.957246542 1
0.901013792 0.978534818 1
0.944330692 0.989485502 1
0.19804129 0.876395047 0.946830869
0.353648722 0.922125936 0.990421474
0.4851951 0.953492284 1
0.587513745 0.960288942 1
0.689393103 0.962884068 1
0.799080491 0.971944749 1
0.857325912 0.976230264 1
0.902079046 0.982505977 1
0.937243581 0.993770599 1
0.271811098 0.92930764 0.969109356
0.427911133 0.977181375 1
0.533059418 0.996812046 1
0.616430104 1 1
0.706965089 1 1
0.797067285 1 1
0.847071469 1 1
0.897679508 1 0.999789536
0.943102241 0.998356044 0.996320367
