game/public/levels/Train Scene/post/Videofullness_FREE_Underwater_LUT_01.cube
TITLE "25x25x25 Adobe/IRIDAS cube 3D LUT"
LUT_3D_SIZE 5
0 0.00517843 0.037023287
0.030327035 0.007670137 0.03990382
0.076091222 0.036556419 0.07785216
0.373137385 0.042567652 0.117006041
0.681605995 0.052359242 0.108068153
0.00025375 0.077051595 0.079409361
0.029721409 0.091231368 0.082635991
0.113655709 0.188163564 0.14967306
0.387747347 0.241285697 0.212836549
0.709366262 0.275640815 0.168948263
0.000419308 0.297769278 0.212009102
0.033293683 0.366950423 0.248152465
0.234667033 0.392810881 0.303390265
0.534794092 0.441360354 0.341188341
0.786742568 0.534294009 0.29943794
0.000762294 0.493620455 0.368574977
0.111274444 0.586868823 0.461763471
0.420480013 0.621584952 0.503810227
0.668365061 0.670627832 0.531594276
0.871928334 0.680881739 0.485015005
0.033619907 0.687113047 0.572363913
0.323138207 0.768243432 0.662871838
0.572814941 0.802229166 0.687869072
0.759733617 0.836995721 0.681431353
0.918895721 0.877916157 0.693469286
0 0.027954245 0.138704374
0.027026102 0.037877388 0.14522472
0.078456171 0.081376411 0.216276243
0.332284987 0.158921838 0.321956128
0.757029057 0.093632117 0.271397412
0 0.2118828 0.27717483
0.04358951 0.200686559 0.269134074
0.19207193 0.300614834 0.349195421
0.480098903 0.397158295 0.440750271
0.748227119 0.474384218 0.443443924
0.000076938 0.437804699 0.444034457
0.045387715 0.452830642 0.443873763
0.319463909 0.50439018 0.495365798
0.58520329 0.63140291 0.584961295
0.793360472 0.705244422 0.645374537
0.000510067 0.576407671 0.557363331
0.063513495 0.633728921 0.597315252
0.459722936 0.704010129 0.663081467
0.695684612 0.752597928 0.686023355
0.866409183 0.817468345 0.734889746
0.014041064 0.730069518 0.696479559
0.243563145 0.799296677 0.759657919
0.605534792 0.862005353 0.80710274
0.771319509 0.910702586 0.837657213
0.918763101 0.933691859 0.829117835
0 0.066554599 0.261066794
0.02690243 0.091858722 0.283789128
0.092101939 0.157788679 0.359829456
0.360183954 0.284905642 0.511899471
0.732108712 0.376098931 0.529191971
0 0.263051212 0.418280661
0.042770866 0.296248049 0.447294712
0.170064971 0.374616534 0.500638306
0.545332193 0.52737236 0.632988393
0.789346099 0.617390037 0.656433105
0 0.503889799 0.585812688
0.051320761 0.541443408 0.611739874
0.316754133 0.557014108 0.618081033
0.670286179 0.680452466 0.689212263
0.843816876 0.771123111 0.772272289
0.000361574 0.634459138 0.675579965
0.062488917 0.695242584 0.72549969
0.466374785 0.740489841 0.745755076
0.744560361 0.811356843 0.783103704
0.890586853 0.899737775 0.855766177
0.001607138 0.766451359 0.791994035
0.108173087 0.841679573 0.856526792
0.592243731 0.889644504 0.87246418
0.800934672 0.948024452 0.901597261
0.910337687 0.97492528 0.912164867
0 0.133702159 0.391411752
0.029263068 0.171570972 0.426498741
0.104112506 0.27099818 0.530300081
0.415140957 0.416964442 0.656683266
0.734653115 0.518416762 0.693228364
0 0.331842035 0.544454575
0.047036815 0.368833303 0.574365079
0.224808767 0.464831799 0.641899467
0.551227748 0.595541775 0.740452051
0.818631113 0.692556441 0.763353944
0 0.52830565 0.681209803
0.052829441 0.558436334 0.699330091
0.346322924 0.611688972 0.724039853
0.65919888 0.729383767 0.803983033
0.870851994 0.80900383 0.833296657
0.000277147 0.676977575 0.775351644
0.064361617 0.745557189 0.830263674
0.448819786 0.785045087 0.841041982
0.74942857 0.843130767 0.870236993
0.908508718 0.907483995 0.893288314
0.001690793 0.815911114 0.881963074
0.126319379 0.896135449 0.94769752
0.593219817 0.939639926 0.950582564
0.822006822 0.978057325 0.965532243
0.931186736 0.995986342 0.955958664
0 0.207073316 0.525874078
0.032777615 0.247986913 0.564802706
0.129637614 0.377584308 0.688999057
0.49464947 0.507800221 0.755067587
0.760548651 0.590514302 0.761474788
0 0.38616702 0.649690688
0.050786171 0.419620931 0.676898539
0.291177899 0.523530006 0.750475228
0.600298941 0.643229008 0.807501018
0.823773801 0.728421748 0.819095194
0 0.552761555 0.750832319
0.058298621 0.586708963 0.777473748
0.413296372 0.655276537 0.808105528
0.691255808 0.767028868 0.8701033
0.869251788 0.835299909 0.881385982
0.000294733 0.694395959 0.840637028
0.067104518 0.749681711 0.888446808
0.477524996 0.810481191 0.917648017
0.76638329 0.873084903 0.931963623
0.90148294 0.93449825 0.947922289
0.006888134 0.852048039 0.958231807
0.221515179 0.917033851 1
0.551724553 0.96608001 1
0.83340615 0.993501484 0.99971962
0.941182911 1 0.990519881
