game/public/levels/Train Scene/post/Videofullness_FREE_Underwater_LUT_02.cube
TITLE "25x25x25 Adobe/IRIDAS cube 3D LUT"
LUT_3D_SIZE 5
0 0 0.083828516
0.031276733 0.027780257 0.130940437
0.186215103 0.053942021 0.174049288
0.386372864 0.068654083 0.215027422
0.604048967 0.089960814 0.228825152
0.003323086 0.096974179 0.17130217
0.046471983 0.17679888 0.162698224
0.202800304 0.21105513 0.209404096
0.410102606 0.220500976 0.250501633
0.61066103 0.237157106 0.266623974
0.004627213 0.287768006 0.230123818
0.060485676 0.272867948 0.2345476
0.248353586 0.257575333 0.291375428
0.413976401 0.351711571 0.285996884
0.581937432 0.405084938 0.282148898
0.005938381 0.481387079 0.258119285
0.048043281 0.485965222 0.279196918
0.257650435 0.449490011 0.33472386
0.472414881 0.401588321 0.376485974
0.64618504 0.442478567 0.379844189
0.008735985 0.613591671 0.293052137
0.118400842 0.673099875 0.337999463
0.297865123 0.684398532 0.387392163
0.489912331 0.682608247 0.40268296
0.684144676 0.659575403 0.423767596
0 0.046230741 0.235070854
0.073824167 0.042056378 0.28050831
0.211028934 0.089673959 0.331301868
0.40341711 0.121924296 0.374512047
0.613029838 0.155930549 0.395396173
0.0405626 0.223485366 0.302178681
0.146258801 0.214698076 0.310533196
0.263764143 0.255993664 0.367255479
0.452141643 0.28468287 0.416450471
0.643878937 0.316504389 0.438604891
0.036831051 0.389158905 0.376953155
0.151248023 0.351917922 0.368096054
0.278424352 0.394515276 0.403731257
0.454490691 0.446576595 0.446447641
0.643161893 0.473144829 0.473610669
0.025432527 0.526182592 0.435262591
0.127198815 0.544102848 0.422793239
0.285495102 0.539724767 0.451144665
0.486672729 0.508461833 0.513574362
0.641832829 0.614075243 0.504376113
0.054403335 0.631161571 0.483666778
0.172431558 0.683178186 0.49134171
0.335651398 0.716501534 0.519845009
0.512912631 0.741494119 0.548168421
0.700662792 0.731096447 0.574791789
0 0.089650057 0.460472047
0.116549216 0.073404774 0.46570006
0.243545413 0.082347371 0.526589334
0.392205119 0.117934205 0.550615549
0.592633724 0.158167213 0.569334269
0.054507881 0.26288873 0.55369252
0.202660635 0.259209394 0.528310776
0.301017135 0.26476413 0.544516981
0.468275309 0.303370655 0.571551204
0.658757627 0.349066257 0.592905521
0.051591247 0.515425026 0.578152657
0.208773375 0.472667962 0.569612324
0.340728551 0.448512733 0.563953996
0.506221414 0.478539735 0.599985957
0.683560193 0.522466898 0.629981995
0.067434669 0.629445612 0.61312294
0.177309006 0.620098889 0.608455658
0.330005229 0.611029327 0.612201869
0.517045379 0.634844124 0.639499724
0.681184947 0.699153185 0.658525884
0.09143123 0.723515749 0.687147558
0.205236435 0.727312744 0.672491133
0.352168918 0.761326075 0.683435082
0.552143097 0.781346142 0.697427392
0.739901662 0.793284357 0.740127623
0.002171129 0.130926266 0.664316416
0.158559352 0.12309441 0.654611051
0.316354245 0.117343217 0.658758998
0.437619627 0.138790146 0.703396618
0.599784255 0.165376753 0.744740129
0.04479298 0.321172118 0.766350746
0.221964628 0.323565125 0.73747611
0.343069106 0.296978086 0.716231346
0.483829319 0.31712386 0.740362704
0.656340957 0.348488629 0.773223281
0.032022595 0.528272808 0.810322046
0.230737358 0.517308593 0.793173194
0.357531667 0.487633735 0.761637211
0.532088101 0.498644501 0.767332792
0.70255506 0.531054616 0.790632546
0.05890429 0.713464022 0.823554456
0.218180597 0.737535119 0.795820117
0.361844778 0.676640332 0.777500272
0.565545857 0.682555437 0.810240507
0.736729205 0.731996 0.847260654
0.086932003 0.806040764 0.857635617
0.234552234 0.828947902 0.841241777
0.363587797 0.818198621 0.808783412
0.569443166 0.826318502 0.848896205
0.765054047 0.902044833 0.903036833
0.007797718 0.173947707 0.848325253
0.176565304 0.184970796 0.867479444
0.356567681 0.184354872 0.849618971
0.502074122 0.188363284 0.836642623
0.6470505 0.217351437 0.853494883
0.038002163 0.368785113 0.929484725
0.223790586 0.384940714 0.933296621
0.388205945 0.384102941 0.91202879
0.516034544 0.369754344 0.888621807
0.68231225 0.394653201 0.891354561
0.022977352 0.551520824 0.968800604
0.233975887 0.567143083 0.965424359
0.414554775 0.570364535 0.943297565
0.529972494 0.544059694 0.928465009
0.720303297 0.576712251 0.929112792
0.036248207 0.726314068 0.985531271
0.22456485 0.748224914 0.972216725
0.412345469 0.73583746 0.947365582
0.56840384 0.714815557 0.943295121
0.775236666 0.761558771 0.960881114
0.08597374 0.857865155 0.997691631
0.261618555 0.907732606 0.991215587
0.4032377 0.902098298 0.941977024
0.586258352 0.867674291 0.960215926
0.809561491 0.928479373 1
