game/public/levels/Train Scene/post/Videofullness_FREE_Underwater_LUT_04.cube
TITLE "25x25x25 Adobe/IRIDAS cube 3D LUT"
LUT_3D_SIZE 25
0.00053443 0.004586093 0.01468124
0.00442716 0.007038549 0.010168244
0.008340705 0.009223726 0.005502084
0.012250245 0.010499901 0.001329804
0.016159065 0.012268404 0
0.020218028 0.015562106 0
0.024544762 0.021394812 0
0.04690361 0.031420548 0.005475594
0.081911854 0.046495374 0.012694308
0.116501339 0.060620911 0.019980676
0.155145586 0.072432205 0.027328473
0.194390655 0.080718294 0.03524413
0.232263669 0.086179465 0.04453636
0.268811524 0.090121247 0.053435266
0.304526925 0.092551179 0.06097943
0.340957999 0.095133401 0.068315141
0.378508538 0.098236062 0.075078778
0.418375343 0.10199254 0.081060231
0.461003989 0.106550477 0.08537779
0.503754437 0.111528546 0.089177273
0.54263097 0.116788402 0.092683129
0.578112125 0.122315593 0.09640453
0.610725403 0.128292933 0.10025885
0.640941203 0.134556845 0.104466401
0.669188738 0.142120689 0.108811237
0 0.025333796 0.021450061
0.00247176 0.022207916 0.019691616
0.006276924 0.023606189 0.015772201
0.010200163 0.026389925 0.011408601
0.014258754 0.029435674 0.00758357
0.018505327 0.034455679 0.004923632
0.024454849 0.04261443 0.006678174
0.061777513 0.054815527 0.014154935
0.095140256 0.070010006 0.021638133
0.129443869 0.083600976 0.029420599
0.167495087 0.094791695 0.037172377
0.206638247 0.102240138 0.045225017
0.244745687 0.106961668 0.054379147
0.280367255 0.110025778 0.062858298
0.315651357 0.112067312 0.070129968
0.352049083 0.114540227 0.077093035
0.389960051 0.117605612 0.083525747
0.430400759 0.121394619 0.088826053
0.473381042 0.125968799 0.092483185
0.5138309 0.130935609 0.096042983
0.55080688 0.136205137 0.099446952
0.584395766 0.141935229 0.103232391
0.615689456 0.148127839 0.10710872
0.644697487 0.154959902 0.111351922
0.672553957 0.162914246 0.115652017
0 0.042814303 0.027089359
0.000905808 0.042145666 0.025294196
0.004390856 0.039613061 0.023742208
0.008104258 0.039838925 0.020928895
0.012274032 0.044982772 0.016675176
0.016705887 0.052317563 0.013455345
0.039715819 0.062902555 0.014650044
0.072945178 0.077169754 0.021930499
0.105557598 0.092070185 0.029868538
0.14009349 0.105325341 0.038172003
0.177838802 0.115890652 0.046347037
0.217847541 0.122683972 0.054531042
0.255454183 0.126807749 0.063528135
0.290832877 0.129087523 0.071470402
0.326381981 0.131100819 0.078580499
0.363044947 0.133544341 0.085264333
0.401435226 0.136610642 0.091116734
0.442535937 0.140464857 0.095643073
0.48438412 0.14507103 0.099022269
0.522645533 0.150042847 0.102429561
0.557926059 0.155363068 0.105804123
0.590017259 0.161329716 0.109624013
0.619946182 0.168080583 0.113614097
0.648290694 0.175467029 0.117783614
0.675826848 0.183689281 0.122035414
0 0.035445973 0.039611291
0 0.04428203 0.035003006
0.002253809 0.053035382 0.030439775
0.006269858 0.056381166 0.02757708
0.010228738 0.059070695 0.02477959
0.023394495 0.068764001 0.021339357
0.050708514 0.082647428 0.02176852
0.081039131 0.098825499 0.028582124
0.113277346 0.113596074 0.03699195
0.148048878 0.12674664 0.045878008
0.186889619 0.136574805 0.054288767
0.226869047 0.142711177 0.062691733
0.264305532 0.145907715 0.071411438
0.300114989 0.147748962 0.079033785
0.336261004 0.149774626 0.085991159
0.373310417 0.152217209 0.092476733
0.412392884 0.155314535 0.097806327
0.454065174 0.159282342 0.101609528
0.493555248 0.163986206 0.104956806
0.529644608 0.169110894 0.108415902
0.563373268 0.174624324 0.111856073
0.594459593 0.180856675 0.115633704
0.62364614 0.187903374 0.119597115
0.651671112 0.195628539 0.123698995
0.679008782 0.204290733 0.12788175
0 0.034403138 0.050966252
0 0.038679942 0.047546282
0 0.046147536 0.043280683
0.002988976 0.056713812 0.038011342
0.010893475 0.070181012 0.031802844
0.034174748 0.082786687 0.028583307
0.057878133 0.099730805 0.028935798
0.085256241 0.118754543 0.03423579
0.117392227 0.134728223 0.042955671
0.153182551 0.14768815 0.05200427
0.193256333 0.156815618 0.060497619
0.233034655 0.162291452 0.069125928
0.270513266 0.164597169 0.077541448
0.307234943 0.166381896 0.085201994
0.34419167 0.16835852 0.092134498
0.382168233 0.17083545 0.09832029
0.422360539 0.173860103 0.103151754
0.463424146 0.177973717 0.106595911
0.500930727 0.182829961 0.109982856
0.535562038 0.188083574 0.113488615
0.567790866 0.193973854 0.117143646
0.598136306 0.200795412 0.121001735
0.626782119 0.208699897 0.125055328
0.654704154 0.217090964 0.129207507
0.682160199 0.2260575 0.133454934
0 0.048390202 0.059497233
0 0.047004595 0.057364922
0 0.049273182 0.053959176
0.003532961 0.055020828 0.049290616
0.023167603 0.065857649 0.043957401
0.044024888 0.083511397 0.039299767
0.064316496 0.108886302 0.037219796
0.089111902 0.130544782 0.041111905
0.120194592 0.150330096 0.048889238
0.156018689 0.166057125 0.056999058
0.196353361 0.176166326 0.064935558
0.235423386 0.181479067 0.073319949
0.273238599 0.183798507 0.081781894
0.31132558 0.185708493 0.089629292
0.349849313 0.187750101 0.096626192
0.389380902 0.190316811 0.102584854
0.430714577 0.193536714 0.107057638
0.470153183 0.198021382 0.110598303
0.50622797 0.2032094 0.114223905
0.539611638 0.209074825 0.117967285
0.571071863 0.215551615 0.121854834
0.600976527 0.222841829 0.125926107
0.629564822 0.231299877 0.130157754
0.65766573 0.240195081 0.134464383
0.685440123 0.24956429 0.138872534
0 0.07509546 0.065983437
0 0.071509227 0.064372659
0 0.067892529 0.061839018
0.008569785 0.068285085 0.058159072
0.030208018 0.075484723 0.054097347
0.051110007 0.089375906 0.051206194
0.073229074 0.107346192 0.050650559
0.097324617 0.128299385 0.053107522
0.127239287 0.15216963 0.058870688
0.162490994 0.173341349 0.064931072
0.200369418 0.189138353 0.070568979
0.237401366 0.19793874 0.077559978
0.274768591 0.202925116 0.085541353
0.313406825 0.206289545 0.092924811
0.35300386 0.209232777 0.099573888
0.393910527 0.212410718 0.105213329
0.435162574 0.216224492 0.10943611
0.47350505 0.220806807 0.113382615
0.509059608 0.22605069 0.117368177
0.542041838 0.232116342 0.121465638
0.573228896 0.23938337 0.125708476
0.603085279 0.247526199 0.130141392
0.631994426 0.25655368 0.134669691
0.660602212 0.265776664 0.139275402
0.688979626 0.275490284 0.143994018
0 0.102875009 0.072148874
0 0.100860558 0.070717171
0 0.099367991 0.068301566
0.009726365 0.100187793 0.065217897
0.031826608 0.10407497 0.062614076
0.054508012 0.111164562 0.06181892
0.07867413 0.121865548 0.062806994
0.104511805 0.134651825 0.065691158
0.136765182 0.148927197 0.071612358
0.174278453 0.165219203 0.07839483
0.211010426 0.18382062 0.083095685
0.244432792 0.203372821 0.086850733
0.279808968 0.216108158 0.092254728
0.317667574 0.224158362 0.098019302
0.357627302 0.229994982 0.103424162
0.398952991 0.235485375 0.108025797
0.438678235 0.241193295 0.111763567
0.475611836 0.247041702 0.115665138
0.510311246 0.25327909 0.119771153
0.543093264 0.260175228 0.124146201
0.574488521 0.267936498 0.128824353
0.604976475 0.276569635 0.13378562
0.63462764 0.285999715 0.138836235
0.664150715 0.295562267 0.143970683
0.693505526 0.30559358 0.149236023
0 0.132028103 0.078477062
0 0.1318762 0.07690163
0 0.133328095 0.074580923
0.008110236 0.138804823 0.072034352
0.03062015 0.145187467 0.070584469
0.05477142 0.15065299 0.071337402
0.081126861 0.154900074 0.073653795
0.109491296 0.159016281 0.077214636
0.143440872 0.164332181 0.082468972
0.183186904 0.170675591 0.089919217
0.221772835 0.179418504 0.096847802
0.258399785 0.191287577 0.103259295
0.29392457 0.207716674 0.107642837
0.32868731 0.22878702 0.109108619
0.367100328 0.244606644 0.111035749
0.406722486 0.256391823 0.113238811
0.444284678 0.265910983 0.115984052
0.479737312 0.274433345 0.119370013
0.51347822 0.282929927 0.123267941
0.54590559 0.291707695 0.127613544
0.577310205 0.30100134 0.132441863
0.608253002 0.310926199 0.137603179
0.638851464 0.32121703 0.143013909
0.669617712 0.331673533 0.148690403
0.70054251 0.342405945 0.154653177
0 0.163396046 0.085119165
0 0.165494338 0.083155088
0 0.171441481 0.080916569
0.004436104 0.180053592 0.079339154
0.028949624 0.187933996 0.079550728
0.054535385 0.194736123 0.081389412
0.082238086 0.199993178 0.084264435
0.112656727 0.202494159 0.087890245
0.148533061 0.200939223 0.092673451
0.189534187 0.197114706 0.099856131
0.229874805 0.195814878 0.107513011
0.269437253 0.198089823 0.11584641
0.308808386 0.204750896 0.12357752
0.347670168 0.217218772 0.128210112
0.386094958 0.236951575 0.128275141
0.421999753 0.261501282 0.126008704
0.455476314 0.283542812 0.125243664
0.488530487 0.299965978 0.126602262
0.520974696 0.313314527 0.129382968
0.553030968 0.325569987 0.133234978
0.584770083 0.337663472 0.137976483
0.616383195 0.349654168 0.143259898
0.647634268 0.361216187 0.14884606
0.678743303 0.37242204 0.154692993
0.709472299 0.383296818 0.160796344
0 0.19794257 0.091310859
0 0.202899486 0.088855706
0 0.213783279 0.087254494
0.000031312 0.223391637 0.087335333
0.027133495 0.233223066 0.089414291
0.054726738 0.241474003 0.092568442
0.084145702 0.247542918 0.09588442
0.116501532 0.250882864 0.099223837
0.153548092 0.249866083 0.103533737
0.194752097 0.245085075 0.109907016
0.237797305 0.237832114 0.117319271
0.279768407 0.229984686 0.126409113
0.321736664 0.22570841 0.135869429
0.365336239 0.227731541 0.142655417
0.407804191 0.237160608 0.145741239
0.445696622 0.254573107 0.146075949
0.4782812 0.279522628 0.144680008
0.508536994 0.307565033 0.143146768
0.537538826 0.335244864 0.142185599
0.567362726 0.356682211 0.143631816
0.597673655 0.373692513 0.146772772
0.628002286 0.388006181 0.151014492
0.658549547 0.401139408 0.156060383
0.689251184 0.41363132 0.161753222
0.71917212 0.425169259 0.167914674
0 0.232269078 0.097899772
0 0.240328193 0.0949727
0 0.252355814 0.094608195
0 0.264201075 0.096789613
0.027570801 0.27646789 0.10059958
0.057402771 0.286434472 0.105136678
0.088790864 0.29365924 0.109071039
0.123558924 0.298156857 0.112017401
0.160991043 0.299002647 0.1157533
0.203209504 0.29628855 0.121989839
0.247315124 0.291840732 0.129528493
0.291898578 0.285316825 0.137478217
0.336998463 0.277059019 0.14596349
0.384138048 0.267844707 0.153500587
0.428979188 0.265661776 0.159766346
0.468548447 0.272350073 0.163418427
0.504181862 0.286471903 0.164952636
0.534951746 0.309300065 0.164791673
0.563064575 0.336128235 0.163821638
0.589867711 0.364369243 0.163035661
0.616272569 0.393030137 0.162362278
0.643627048 0.417646885 0.16334261
0.672317922 0.436947435 0.166528881
0.701738417 0.453045219 0.171277568
0.730779827 0.466727197 0.177121907
0 0.261553019 0.105071545
0 0.271112651 0.102609724
0 0.28341648 0.103638336
0.001855125 0.298071235 0.108249046
0.033149581 0.312741607 0.113673776
0.065168522 0.324650288 0.119338773
0.099063039 0.333225995 0.124199815
0.135979414 0.33909905 0.12734817
0.17459102 0.342145294 0.130885512
0.218324021 0.341875076 0.137604356
0.263350725 0.340948939 0.14559114
0.310181111 0.338224143 0.152391806
0.357559294 0.334084988 0.15828608
0.402835548 0.328857243 0.1640798
0.446272463 0.32192561 0.169438794
0.486421704 0.314998031 0.175390482
0.523460925 0.31615895 0.179612532
0.556733012 0.326707751 0.182758182
0.586592853 0.344959795 0.18436639
0.613669872 0.369858474 0.184409544
0.640099168 0.396585941 0.184425429
0.666675627 0.42440173 0.184707105
0.693215549 0.453201026 0.185487732
0.719281018 0.48105827 0.187037319
0.745887816 0.502741992 0.190872625
0 0.286569178 0.112396516
0 0.296912014 0.111458458
0 0.310391426 0.114406399
0.009145662 0.32762444 0.120931715
0.043031465 0.344610631 0.128388092
0.077516951 0.358403206 0.135608375
0.114101402 0.368327796 0.141051605
0.152609378 0.376207292 0.144741222
0.193061978 0.381388962 0.148323163
0.238499716 0.383666307 0.155951172
0.284321547 0.384416819 0.163497478
0.330552697 0.383395135 0.170122489
0.377215505 0.381663412 0.174017459
0.420880258 0.379625291 0.176926449
0.461330712 0.376926512 0.179293916
0.4995583 0.373030543 0.183969855
0.536782563 0.36700666 0.189818487
0.571856856 0.364277184 0.195807546
0.604594409 0.371094406 0.20053345
0.634767234 0.385895699 0.203885391
0.662646353 0.408559054 0.205594748
0.690280259 0.434914231 0.207073361
0.717136443 0.462352335 0.208943769
0.743158817 0.490135759 0.211283669
0.76835674 0.518259466 0.21427016
0 0.308873653 0.120570049
0 0.319830328 0.121222928
0 0.335079521 0.126185969
0.020023437 0.35491401 0.13492924
0.056945011 0.374111027 0.144222021
0.095381424 0.389586538 0.152511418
0.134429902 0.401605874 0.158802822
0.173460543 0.410878092 0.163089022
0.214007035 0.417161703 0.166788608
0.259781063 0.420360625 0.174811199
0.305124074 0.422019005 0.181708708
0.350831777 0.422274202 0.18852672
0.395368963 0.422232181 0.190982372
0.437288374 0.422334045 0.191825271
0.475993872 0.422466069 0.192454293
0.512216568 0.42227748 0.194441199
0.547188401 0.421523601 0.199495956
0.58230114 0.419274867 0.205446064
0.61706847 0.416824698 0.212609708
0.650547802 0.41970408 0.219181016
0.682249665 0.4314408 0.2246546
0.711976707 0.45131132 0.22893694
0.739732504 0.477173835 0.232385188
0.766823232 0.504708886 0.236529499
0.792302787 0.532035112 0.240426213
0 0.329570353 0.129517198
0 0.341960996 0.132262528
0 0.359498292 0.139452174
0.03482575 0.381711364 0.14976044
0.075063966 0.402881563 0.160733074
0.116989858 0.419448346 0.169844434
0.156962246 0.432548761 0.176619291
0.195320472 0.442002416 0.181166008
0.235684767 0.448981702 0.18545714
0.280436873 0.453155875 0.193108603
0.325832158 0.455333054 0.200523317
0.37006399 0.456478328 0.206246883
0.412233114 0.457785279 0.208473593
0.452328235 0.459534407 0.208225235
0.489815384 0.461726159 0.207856193
0.525017858 0.464290589 0.208617255
0.558395565 0.467573136 0.212574273
0.592324495 0.470387876 0.216037825
0.627055407 0.471722841 0.22264947
0.661769211 0.471577555 0.231003568
0.696278989 0.473067939 0.23962155
0.72901237 0.481128663 0.247987196
0.759512305 0.497094393 0.255201757
0.786774993 0.519588292 0.260076106
0.812046409 0.544375539 0.264068365
0 0.351032674 0.139650762
0 0.365319699 0.144605771
0.016368628 0.385326028 0.153973892
0.053192113 0.40831399 0.16536206
0.096604191 0.429695398 0.176999792
0.140041605 0.447276264 0.186752409
0.179731578 0.461018145 0.193871632
0.217251107 0.470628858 0.198671237
0.257378101 0.478040546 0.203867495
0.30135566 0.48298499 0.211325213
0.345943898 0.485640228 0.218538135
0.387566298 0.487647802 0.223965138
0.427997649 0.490113229 0.225776508
0.466387182 0.4931705 0.225778922
0.502673745 0.497136384 0.225610763
0.537339091 0.502054036 0.225450382
0.57077533 0.507888794 0.227242649
0.60331881 0.514227748 0.230059579
0.636557102 0.519530833 0.234834492
0.670870364 0.523526371 0.243043825
0.706171751 0.525645435 0.252799898
0.740202248 0.527356803 0.262940377
0.772264242 0.530368865 0.272331387
0.801447988 0.540416062 0.280095577
0.82756412 0.557470918 0.28514874
0 0.375328392 0.151479349
0.004577979 0.391097575 0.158894792
0.035973966 0.410820156 0.168859914
0.073222704 0.433133245 0.181033477
0.118532948 0.455035061 0.193124786
0.163482383 0.473503053 0.203449592
0.202651441 0.487626255 0.210881427
0.239569604 0.497740179 0.216226965
0.278964221 0.505568326 0.222024575
0.322295666 0.511003852 0.229361773
0.365189403 0.514287412 0.236235917
0.404266119 0.517172694 0.241701096
0.442971855 0.520523965 0.24346751
0.480111808 0.524737537 0.243854225
0.515533984 0.530086696 0.24377206
0.549494445 0.536712766 0.244341359
0.582496047 0.544194579 0.245607615
0.61471504 0.552169859 0.248244509
0.646718383 0.56049341 0.253246099
0.679900408 0.56832093 0.259644359
0.713321984 0.573637545 0.267475486
0.746661663 0.57568413 0.276525259
0.778690457 0.575935364 0.286116928
0.809201062 0.576668799 0.294801056
0.837441266 0.580584645 0.30199942
0 0.401331127 0.165110618
0.024869209 0.416863322 0.173275664
0.057218242 0.435668796 0.184227243
0.095499389 0.457279027 0.196797192
0.142793059 0.479277641 0.209506273
0.187269658 0.498658359 0.220174402
0.225959972 0.513304889 0.228098005
0.262426704 0.524026036 0.234099254
0.300676316 0.532333314 0.24012658
0.343537837 0.538090348 0.248161405
0.38390705 0.542177439 0.254472584
0.421018362 0.545866132 0.259780258
0.457761347 0.55019021 0.262130052
0.49361366 0.555366635 0.263019592
0.528035343 0.561576784 0.263385475
0.561504602 0.569079101 0.264065504
0.594027162 0.57758522 0.266212702
0.626170039 0.586943209 0.269592911
0.658039212 0.597175419 0.27445364
0.688952386 0.606851578 0.280877799
0.719573498 0.614185512 0.286886483
0.750314295 0.618763506 0.293833107
0.781282306 0.620298624 0.301086575
0.811441422 0.619575679 0.308999836
0.840312481 0.619131148 0.317690074
0.015932484 0.427559316 0.179193243
0.046498075 0.442684591 0.188392371
0.080031678 0.460757315 0.200033069
0.119042523 0.481799692 0.213236824
0.16717881 0.503768682 0.226483271
0.211553037 0.5232898 0.237417981
0.250065058 0.538597047 0.245951489
0.286165595 0.550099075 0.252787411
0.323402107 0.558853567 0.259251505
0.364259064 0.564998388 0.267478704
0.402335107 0.569874346 0.273981422
0.43775776 0.574344635 0.278729439
0.472436398 0.57921207 0.28152743
0.506892443 0.584921598 0.282527596
0.540681839 0.591885984 0.283609867
0.57372117 0.600223124 0.285229743
0.606231332 0.609552443 0.288039237
0.638489306 0.620115697 0.292252213
0.669333518 0.630419135 0.296832323
0.69841665 0.639898956 0.301936209
0.726529896 0.648314118 0.307188034
0.754591107 0.654788733 0.313303351
0.78239733 0.658996224 0.319362521
0.810836136 0.660630882 0.326060236
0.839492679 0.659843981 0.335218012
0.038298309 0.453853518 0.193643525
0.070334509 0.468495071 0.204088226
0.105250254 0.486586899 0.216767624
0.144780725 0.507375777 0.230668366
0.191656709 0.529070258 0.244484156
0.236299112 0.548938572 0.256181449
0.275215507 0.564222872 0.265297532
0.31124413 0.576422989 0.272949278
0.347160727 0.585819125 0.279971898
0.385087609 0.592356265 0.28823033
0.421073347 0.597626567 0.294201791
0.454716802 0.602514386 0.298563987
0.487756371 0.607677579 0.301360458
0.520778298 0.614052236 0.303375304
0.553935587 0.621892095 0.305208921
0.586622119 0.631123185 0.308007598
0.618922055 0.641139865 0.311722547
0.650182545 0.651256382 0.315137297
0.679564118 0.660727024 0.318872809
0.707502842 0.669621944 0.322788566
0.734018981 0.678142786 0.327183753
0.759572625 0.685801506 0.332262158
0.784905672 0.691789389 0.337468892
0.810340643 0.695808589 0.342888176
0.837232769 0.697614014 0.350471228
0.063579828 0.479912758 0.208907068
0.096599177 0.495159894 0.220870435
0.132167459 0.513445318 0.234624952
0.171973959 0.534073472 0.249501497
0.216942757 0.555912316 0.264184564
0.262049794 0.576228857 0.277006835
0.301360965 0.591909111 0.286934346
0.337750494 0.604195237 0.295463443
0.371730417 0.613313794 0.302996367
0.406485379 0.619905889 0.310438752
0.440379858 0.62545377 0.315730333
0.472449929 0.630929887 0.319792002
0.503956079 0.636615634 0.322912067
0.53559649 0.643691659 0.32613796
0.568049788 0.652461827 0.329076082
0.599956632 0.661751986 0.331935018
0.631060839 0.671199977 0.334957302
0.660836697 0.680240393 0.33754763
0.689018369 0.688859463 0.340190321
0.715828955 0.697133005 0.34302789
0.741460204 0.705188751 0.346373796
0.765762746 0.713034868 0.350106299
0.788752198 0.720126212 0.354776472
0.811864138 0.725828469 0.359369159
0.835965991 0.729980528 0.365262836
0.091291629 0.507603824 0.22611776
0.125462398 0.523529589 0.239638582
0.16233474 0.542195857 0.254936785
0.201338857 0.562972009 0.270947427
0.244632453 0.585085392 0.286710352
0.28958264 0.605766654 0.300724685
0.329228193 0.621783674 0.31183067
0.365265787 0.633805931 0.321086586
0.397499233 0.642223239 0.328701824
0.429649025 0.648566782 0.335403383
0.461242467 0.654353201 0.339737922
0.491687417 0.660458684 0.343662381
0.521542311 0.66667074 0.347268343
0.551810801 0.673855186 0.35034582
0.582254112 0.682215393 0.35320279
0.612789571 0.690919816 0.355412215
0.642398536 0.699417055 0.357403517
0.670542002 0.707587063 0.359144658
0.697650909 0.715379238 0.360847771
0.723487079 0.722974956 0.362735629
0.748414934 0.730430543 0.365317285
0.771961331 0.737899721 0.368168414
0.793480515 0.745325863 0.371981889
0.814845741 0.752094626 0.376167268
0.836773157 0.75782758 0.380899668
0.122553281 0.538415432 0.247298717
0.15876925 0.554935038 0.262378663
0.195605129 0.574373364 0.279446781
0.234106451 0.595497668 0.296823472
0.275384784 0.617230356 0.313358486
0.319758326 0.637519598 0.327999145
0.359522611 0.653426647 0.339965373
0.393945694 0.664984047 0.349645764
0.424411237 0.672916532 0.356861293
0.45365864 0.67863816 0.362318784
0.483014762 0.683715761 0.366063803
0.511863232 0.689553022 0.369112492
0.539766788 0.695906579 0.371813983
0.568042397 0.703043461 0.374349803
0.596646488 0.710862219 0.376453221
0.625096142 0.718790352 0.378205746
0.652902901 0.726359904 0.379272223
0.679756284 0.733660042 0.380271226
0.705552459 0.740681291 0.381293565
0.730538249 0.747614264 0.382630289
0.754704416 0.754515111 0.384311467
0.777539074 0.761491001 0.38639766
0.798553228 0.768621683 0.388985425
0.818853557 0.775804996 0.39254728
0.839123428 0.782457471 0.396555483
0.158903375 0.5732795 0.274048328
0.19482398 0.589748919 0.289721727
0.23063381 0.608313978 0.306519955
0.267683357 0.628179014 0.323406279
0.306503713 0.648744226 0.339708477
0.349828869 0.668341398 0.354753703
0.3888008 0.683722317 0.367038369
0.421300411 0.694599569 0.376784623
0.450167358 0.702457368 0.383683145
0.476870269 0.707943141 0.388372511
0.504187346 0.712434053 0.391691267
0.531546712 0.717769921 0.394079834
0.558110356 0.724146962 0.396322489
0.584442198 0.731257617 0.398040593
0.611016333 0.738477945 0.399359077
0.637100339 0.745428443 0.400372714
0.662954748 0.752097547 0.400763631
0.688422382 0.75856328 0.401008695
0.712985575 0.764906228 0.401450932
0.737044573 0.77128315 0.402113616
0.760592878 0.777670324 0.402993828
0.782830119 0.784222603 0.404405892
0.803416491 0.790952146 0.406119406
0.823289812 0.797740817 0.408686161
0.842548251 0.80473429 0.411938876
0.001239001 0.014527255 0.033786211
0.005183568 0.01753181 0.029634852
0.009080554 0.020017628 0.025270265
0.012874575 0.021309484 0.021150967
0.016659942 0.022444377 0.017614232
0.020637183 0.024647828 0.015169893
0.024760157 0.028592609 0.016239129
0.05412361 0.03689589 0.024029909
0.091089472 0.050621092 0.032357126
0.125853702 0.066174105 0.040624481
0.162950218 0.079711117 0.049066689
0.201816902 0.089781284 0.057936963
0.241373196 0.096692733 0.067941621
0.278961062 0.102670118 0.077844359
0.315891266 0.107297011 0.086756684
0.352429152 0.110683918 0.09434288
0.390006274 0.114368357 0.101436511
0.429680526 0.118627444 0.107628889
0.472026289 0.12359938 0.112098768
0.514021277 0.128939703 0.115910947
0.552145183 0.134471372 0.119414844
0.586706936 0.14029026 0.123329118
0.618540049 0.146590173 0.127437025
0.648087859 0.153444111 0.131752506
0.676107764 0.161394417 0.136171445
0 0.031631477 0.042464297
0.003159635 0.031869873 0.039815698
0.007096527 0.034773279 0.035671461
0.011008366 0.037414033 0.031442713
0.014900954 0.039671019 0.02774635
0.01893682 0.043284301 0.024854224
0.032100052 0.049697038 0.02529815
0.070362173 0.060157523 0.033152085
0.105141141 0.075289495 0.04168506
0.138902634 0.09072984 0.050518055
0.175566941 0.103761956 0.059333548
0.215415463 0.112954095 0.068230785
0.254897326 0.119256116 0.078268267
0.291263402 0.124451771 0.087907813
0.327902585 0.127895132 0.095987834
0.364243656 0.130859196 0.103322104
0.402048916 0.134328395 0.10992983
0.44207707 0.138470858 0.115492821
0.48435998 0.143385619 0.119437732
0.523819327 0.148706347 0.123082653
0.560147941 0.154321939 0.126653761
0.593097925 0.160435319 0.130612001
0.623484373 0.167478994 0.134782135
0.652082562 0.175179079 0.139127061
0.679743409 0.183461204 0.143521339
0 0.053270079 0.047561832
0.001477022 0.050502367 0.046662051
0.005033343 0.048833203 0.044991221
0.009015962 0.051681288 0.04129798
0.013099398 0.055639368 0.037333973
0.020429412 0.061148446 0.034029536
0.049855538 0.070099153 0.034369595
0.083591878 0.082445458 0.041613165
0.116440549 0.098518573 0.050533701
