game/public/levels/Train Scene/post/Videofullness_FREE_Underwater_LUT_01.cube
TITLE "25x25x25 Adobe/IRIDAS cube 3D LUT"
LUT_3D_SIZE 25
0 0.00517843 0.037023287
0.004470174 0.004935212 0.036659259
0.009021834 0.005074176 0.036269125
0.013574872 0.005051382 0.035560552
0.018742668 0.005442624 0.035902418
0.024503374 0.006311795 0.037185971
0.030327035 0.007670137 0.03990382
0.037165407 0.009948481 0.04457552
0.044517662 0.014371824 0.050428942
0.05045284 0.020830756 0.057391882
0.057780191 0.026725484 0.064489447
0.067186475 0.031635251 0.070874743
0.076091222 0.036556419 0.07785216
0.090408288 0.041590631 0.084993489
0.12963365 0.045414221 0.093269788
0.184113398 0.04596857 0.100338727
0.247932047 0.04485593 0.106069997
0.312243104 0.043752406 0.112829342
0.373137385 0.042567652 0.117006041
0.427197665 0.043284748 0.120871164
0.478192061 0.044965059 0.124223344
0.5327788 0.046798658 0.124365017
0.586390257 0.048629202 0.120790184
0.635849118 0.050475802 0.115060501
0.681605995 0.052359242 0.108068153
0 0.01793801 0.041177139
0.004513769 0.016031632 0.041523334
0.009076566 0.015020699 0.041348357
0.013627313 0.015854735 0.040789161
0.018799067 0.016747359 0.041274428
0.024132328 0.018104205 0.042435676
0.029804813 0.019999204 0.044264115
0.036295108 0.022935139 0.048234511
0.042616751 0.028451903 0.055200059
0.048761066 0.034783244 0.062519416
0.055963639 0.041448288 0.069881894
0.064711079 0.047705263 0.077443264
0.072665073 0.053321861 0.085186802
0.09778937 0.058173835 0.093134843
0.134350568 0.063113779 0.101079322
0.1885221 0.064386398 0.109094143
0.249846473 0.06325452 0.116655476
0.314903796 0.061935138 0.122112438
0.380737931 0.059532251 0.125403747
0.439091206 0.056682158 0.127636999
0.506743729 0.055266242 0.122426175
0.559659421 0.057113837 0.121605195
0.610934377 0.058979023 0.116115876
0.658037245 0.060865447 0.108284377
0.700727344 0.062799558 0.101166569
0 0.030357527 0.044747621
0.004540532 0.028996276 0.045489378
0.009114986 0.027724205 0.045802016
0.01367991 0.026502224 0.04605516
0.018859301 0.027682014 0.046093781
0.024187014 0.029586582 0.046525635
0.02950735 0.032092255 0.047917556
0.035537422 0.036347736 0.052180633
0.041723419 0.043219995 0.059335042
0.047836635 0.050222378 0.066799566
0.054949712 0.056964546 0.074406102
0.062733382 0.065111831 0.083921254
0.076382734 0.072366364 0.093370937
0.105992049 0.078583367 0.102454349
0.142556533 0.083523937 0.111294925
0.191223577 0.085962743 0.119764611
0.251508504 0.085139424 0.128106236
0.315353572 0.084038422 0.133747801
0.381767213 0.081145979 0.136401147
0.45243451 0.075410224 0.135043904
0.522004366 0.072464921 0.126985461
0.584211767 0.068906099 0.11657282
0.635846019 0.069362395 0.107025951
0.680436313 0.071299396 0.099510491
0.720736206 0.073561832 0.093601458
0.000062887 0.037850909 0.051931463
0.004601019 0.040051419 0.051246349
0.009155221 0.04047488 0.050867479
0.0137148 0.040243175 0.051276341
0.019286493 0.0401466 0.051760592
0.024846498 0.042000338 0.052545547
0.030564213 0.04602322 0.053837243
0.036662966 0.051748838 0.057774305
0.042882189 0.059845075 0.065200314
0.048960947 0.068265833 0.07358668
0.055546004 0.076452039 0.082672246
0.064405277 0.084918767 0.092586145
0.082017593 0.095135137 0.102325007
0.110931098 0.103794798 0.111937374
0.149758786 0.110385507 0.123409636
0.19845812 0.11398726 0.133633316
0.254366606 0.115393661 0.140862405
0.318207026 0.114231013 0.147316813
0.384529799 0.110484369 0.150441661
0.454563707 0.105875976 0.148866817
0.527605951 0.099305071 0.13897863
0.596872985 0.09051434 0.119324893
0.647856236 0.089847766 0.10789226
0.697711229 0.086054325 0.095369354
0.730851471 0.095223591 0.094742253
0.000162515 0.044716444 0.060223486
0.004714764 0.044818059 0.059413843
0.009258427 0.046196464 0.058677558
0.013787703 0.050015766 0.058442712
0.01896801 0.053966027 0.058946021
0.024866823 0.056807198 0.059855703
0.030820239 0.061497111 0.061632466
0.037078679 0.070454389 0.065925531
0.043310575 0.079606965 0.073099591
0.050534073 0.089883789 0.083050653
0.057794299 0.100208022 0.093568169
0.071294256 0.111556739 0.103593566
0.091065422 0.121753186 0.112831533
0.117320515 0.132798612 0.124036193
0.155998155 0.141039997 0.134726003
0.20369935 0.146900922 0.148422897
0.25873524 0.150555551 0.158150122
0.319675773 0.153045818 0.165475324
0.385718346 0.153631985 0.169243634
0.455537856 0.150636315 0.167373866
0.527119398 0.142765179 0.156863779
0.591645956 0.130813673 0.137799084
0.646889329 0.128620908 0.121899195
0.696078181 0.130175993 0.111300714
0.727876127 0.145916551 0.106606454
0.000225715 0.057438415 0.068904005
0.004796758 0.054440685 0.067640156
0.009352377 0.053909194 0.067001849
0.013893434 0.05597356 0.067255698
0.019090433 0.060729362 0.067726411
0.024384992 0.068995416 0.069187529
0.030309191 0.078964621 0.070442103
0.037525117 0.090895295 0.076162629
0.045430232 0.103504427 0.084438078
0.052521862 0.115320995 0.095021233
0.060853265 0.128736705 0.107157886
0.081212044 0.141129449 0.119345546
0.100644536 0.154191479 0.130184814
0.122504473 0.166581422 0.140073016
0.162887573 0.174864024 0.149449632
0.211965412 0.181992799 0.16337049
0.263432264 0.189354196 0.178226203
0.323314607 0.193447322 0.185463578
0.387148261 0.196138635 0.189267859
0.455922961 0.197564572 0.188898057
0.522069871 0.198954612 0.18372266
0.581545651 0.197957143 0.173870295
0.633993447 0.199450552 0.157724366
0.680486441 0.202425346 0.140699521
0.721769512 0.207066819 0.125607014
0.00025375 0.077051595 0.079409361
0.004835391 0.07308647 0.078695051
0.009406594 0.070684157 0.078747794
0.013960314 0.070405461 0.078688279
0.019029358 0.073215403 0.078858532
0.024415964 0.079267889 0.079671793
0.029721409 0.091231368 0.082635991
0.036613993 0.106402807 0.088478707
0.04442741 0.125263393 0.097676441
0.051929362 0.143023893 0.109034508
0.06396804 0.159651726 0.121070884
0.087402739 0.174311489 0.136336952
0.113655709 0.188163564 0.14967306
0.137621373 0.201172844 0.160038292
0.165081367 0.214024335 0.170142502
0.216763496 0.220246047 0.18282482
0.271073699 0.227172747 0.196446657
0.326496512 0.236194924 0.208491087
0.387747347 0.241285697 0.212836549
0.45520094 0.246218145 0.21523121
0.517534018 0.250902712 0.212563798
0.57402426 0.255603552 0.208013237
0.6250422 0.259477764 0.19736056
0.669724166 0.265568584 0.183967352
0.709366262 0.275640815 0.168948263
0.000278305 0.102943711 0.093905561
0.004854636 0.0986403 0.092900991
0.009420933 0.096379198 0.092908181
0.013978513 0.095957391 0.094056293
0.018527905 0.098000474 0.094596244
0.023658937 0.102935426 0.095415249
0.028885858 0.111748688 0.098211743
0.035465349 0.124381147 0.104130611
0.042706363 0.140946418 0.113182895
0.052134607 0.159609184 0.123327725
0.072731368 0.182389423 0.139796406
0.095740184 0.2027542 0.155486122
0.124510489 0.221212044 0.170230359
0.154323071 0.236591309 0.181728199
0.183980882 0.250310838 0.19193539
0.235095039 0.258174658 0.201362863
0.288261205 0.266144991 0.214874476
0.340695024 0.275770873 0.228016347
0.401189208 0.282880247 0.234319285
0.465417624 0.290642709 0.235861346
0.52651912 0.296005368 0.232443154
0.582199633 0.300623298 0.22754623
0.6330567 0.303852737 0.215266794
0.678178906 0.308844298 0.198367462
0.719891787 0.315553695 0.179307401
0.00030167 0.13549298 0.112344123
0.004871492 0.132202685 0.110285811
0.009430138 0.131296739 0.11043743
0.013979126 0.132937223 0.111332133
0.01852042 0.137627944 0.112496048
0.023051195 0.14538087 0.114744522
0.028158098 0.151741698 0.118325204
0.03609908 0.158487529 0.123275749
0.046046738 0.168041036 0.13116461
0.059443928 0.181472436 0.143034875
0.083324201 0.197331831 0.158340126
0.109318413 0.217372045 0.174126983
0.141954929 0.242510125 0.191578895
0.172614142 0.266151279 0.20495896
0.204619527 0.284077853 0.214331433
0.256575853 0.29478997 0.224025801
0.313254267 0.303826749 0.234022185
0.366423666 0.314188451 0.246501386
0.428043216 0.322078884 0.25210318
0.489794493 0.328827143 0.252206922
0.547685921 0.335360438 0.246115595
0.600613356 0.340640634 0.239264876
0.649932086 0.343872666 0.225288808
0.692686021 0.349206865 0.208544835
0.731691003 0.356865555 0.190787241
0.000321118 0.174830019 0.133370161
0.004884426 0.172022372 0.131623119
0.009436768 0.173449889 0.132124275
0.013978782 0.17773588 0.13395068
0.018509118 0.186047003 0.136032149
0.023034105 0.196058214 0.139631897
0.028267397 0.204530627 0.144168392
0.038175717 0.209634036 0.150232255
0.048398212 0.212916315 0.15784964
0.065903634 0.218237102 0.167294264
0.090545028 0.226703152 0.180163786
0.126671702 0.239849687 0.196330115
0.159112111 0.256967425 0.211012647
0.19081673 0.278521627 0.224202618
0.225466296 0.304843098 0.234838516
0.277769864 0.326515675 0.245021328
0.336533815 0.34073171 0.25504601
0.392457217 0.352884442 0.267475098
0.453136325 0.362873614 0.270346344
0.513648808 0.370952427 0.268479794
0.569357753 0.377901793 0.26215902
0.619077444 0.382781267 0.253625035
0.665619791 0.38632068 0.238155842
0.707405567 0.39135924 0.221520141
0.745731354 0.399370134 0.205904663
0.000339867 0.218467057 0.159168974
0.004898002 0.217251986 0.157181442
0.009443537 0.220323965 0.158446968
0.01397668 0.227682382 0.161486223
0.018496905 0.240201592 0.165635303
0.023019496 0.251861036 0.171125159
0.029096572 0.262098014 0.177151486
0.039017785 0.268669248 0.184206769
0.049833126 0.27267608 0.191989869
0.070714928 0.27500543 0.199989885
0.096396528 0.275766045 0.209330976
0.138954327 0.278336912 0.222120121
0.179623231 0.286110342 0.235577404
0.21251145 0.301021129 0.247016996
0.247625202 0.320047647 0.255457401
0.305425078 0.339419663 0.266577393
0.364628196 0.362554848 0.277435422
0.42263785 0.385883749 0.291126221
0.480868846 0.4009718 0.292932719
0.535879552 0.409932673 0.287291557
0.587577462 0.418122411 0.280288726
0.636098027 0.424373657 0.271096319
0.679293454 0.429904878 0.258516073
0.720611572 0.43700397 0.243686542
0.759032845 0.444780082 0.228982791
0.000374164 0.258856028 0.185980603
0.004926807 0.25954935 0.185027644
0.009464894 0.265457362 0.186754644
0.013987544 0.277229637 0.191043541
0.018503068 0.292370021 0.197647855
0.023021629 0.305648416 0.204864219
0.030625205 0.31740436 0.211917713
0.040813722 0.3261213 0.220787525
0.055660687 0.331701845 0.229555115
0.081188545 0.334706008 0.237600386
0.110692963 0.335757047 0.245221213
0.158669382 0.335380793 0.255919039
0.203234687 0.334618449 0.266504407
0.24028118 0.34015891 0.274475902
0.275845349 0.352662772 0.280564964
0.337720484 0.365710706 0.290097713
0.397816569 0.382238328 0.304231018
0.452883869 0.402352244 0.314420491
0.507548928 0.422814399 0.315882385
0.559538603 0.440726936 0.311119765
0.608394027 0.454423994 0.304731369
0.653570294 0.46442458 0.297453225
0.695510983 0.473320156 0.287654579
0.735093117 0.482545823 0.276308
0.773183703 0.491315246 0.26313141
0.000419308 0.297769278 0.212009102
0.00496609 0.300757438 0.212108731
0.009496682 0.30980444 0.215312347
0.01401215 0.324590415 0.221613273
0.018524801 0.340072274 0.230374575
0.023342336 0.354393423 0.240050018
0.033293683 0.366950423 0.248152465
0.045245875 0.377073139 0.257051378
0.066954143 0.383691549 0.266052008
0.094558276 0.387706399 0.275032133
0.133199781 0.390496641 0.28344655
0.184386805 0.391564578 0.293396086
0.234667033 0.392810881 0.303390265
0.274965286 0.397068143 0.306966841
0.312999696 0.40144217 0.308842093
0.37178123 0.40528053 0.318155855
0.430193633 0.413740128 0.331401974
0.482836902 0.426440716 0.340356916
0.534794092 0.441360354 0.341188341
0.583515584 0.459683657 0.338336647
0.629835844 0.477577239 0.33373487
0.672142625 0.497104436 0.330230623
0.712808132 0.512244046 0.322156936
0.75095427 0.524522781 0.311549664
0.786742568 0.534294009 0.29943794
0.000470732 0.33487013 0.238129064
0.005011098 0.340314865 0.239557162
0.009533941 0.352355659 0.244724452
0.014045945 0.367778003 0.252786428
0.018556073 0.383201689 0.263130158
0.024780985 0.398061335 0.274546921
0.038816284 0.410430521 0.284800947
0.053466294 0.420545787 0.294592619
0.080385976 0.427606881 0.303575456
0.114975609 0.43262729 0.311802596
0.163473681 0.436583996 0.319978565
0.214614883 0.440045804 0.32968393
0.269902408 0.442456037 0.339457065
0.309353381 0.449861914 0.340846181
0.35030821 0.453645736 0.342473716
0.407045007 0.452616781 0.349101245
0.46176672 0.453969061 0.359083444
0.512354612 0.46045959 0.367095917
0.561565042 0.47281754 0.370133638
0.6079548 0.485995322 0.368645251
0.651489496 0.500924528 0.364999384
0.691691101 0.518382668 0.360866159
0.730029285 0.535903573 0.353906602
0.766614139 0.553745329 0.345805556
0.802569985 0.569013774 0.337398797
0.0005254 0.370679379 0.265014052
0.005058559 0.378226399 0.267770857
0.009575341 0.391324729 0.274019897
0.014084822 0.406786472 0.283506632
0.01859259 0.422670573 0.295265794
0.026716368 0.43812266 0.308329016
0.043004863 0.450622261 0.319688827
0.06392058 0.460394293 0.329843372
0.101295754 0.467568815 0.339142829
0.145426482 0.47344023 0.34767288
0.197435662 0.478429049 0.356056631
0.24991256 0.481901586 0.364194363
0.3011024 0.485997617 0.371972978
0.339493901 0.492278934 0.37376529
0.380984217 0.498791099 0.374734491
0.436836988 0.501214862 0.381659091
0.490258008 0.502545655 0.391072512
0.540056288 0.503681719 0.39782083
0.587275207 0.509147525 0.400226772
0.631193697 0.516894221 0.397809327
0.672367513 0.527914882 0.394654483
0.711668193 0.541637778 0.390293688
0.748133004 0.558295548 0.383708358
0.783169866 0.573535323 0.377039552
0.817274213 0.589942634 0.371040076
0.000583135 0.403057218 0.291966468
0.005107333 0.413608253 0.296502471
0.009619495 0.428209394 0.30409348
0.014125877 0.443905711 0.315138519
0.018635204 0.459114552 0.328851908
0.030096322 0.475489557 0.34241873
0.048733208 0.48832947 0.354393452
0.08462438 0.496671587 0.364552289
0.126253501 0.503893614 0.374141246
0.176954463 0.50986135 0.382639289
0.230555207 0.513588548 0.389383048
0.283545196 0.517314136 0.397004873
0.330452055 0.523081779 0.404157162
0.369005263 0.530366838 0.406872392
0.412370384 0.538027585 0.409238368
0.464559257 0.54376322 0.413295746
0.515644431 0.549730659 0.425789684
0.564870656 0.551840365 0.432547659
0.609720409 0.552047074 0.432941526
0.652585506 0.553810656 0.427446723
0.692840338 0.559844553 0.422941059
0.730171204 0.568012536 0.417904705
0.765107453 0.579624236 0.412564844
0.798946142 0.594472528 0.40690136
0.832108676 0.611038804 0.402182609
0.000642997 0.434259802 0.31780982
0.005159268 0.447021127 0.324140638
0.009666579 0.462452114 0.334600747
0.014168278 0.479599953 0.348115832
0.020263681 0.49431327 0.362646461
0.035747912 0.509306371 0.376671165
0.061092336 0.521662414 0.389716566
0.106983669 0.530771613 0.399980158
0.157405868 0.538170695 0.40935266
0.209965616 0.543675482 0.418017328
0.263746858 0.547474325 0.423821211
0.314769387 0.550789297 0.430180222
0.360717058 0.556361258 0.436089844
0.398738414 0.565100014 0.440200537
0.438283622 0.575448811 0.441949308
0.49088046 0.582864583 0.44585216
0.542736471 0.589563429 0.456060827
0.586866975 0.5947088 0.466527581
0.630545139 0.596984267 0.468017697
0.672359943 0.597410977 0.461457521
0.710401237 0.597141862 0.454197079
0.746677995 0.599856138 0.446644127
0.781770408 0.605885983 0.438773394
0.813793242 0.616777718 0.433939964
0.845383167 0.630574226 0.430087954
0.000703277 0.464773029 0.343359262
0.005212935 0.480133474 0.351619095
0.009714686 0.495332688 0.363985568
0.014211347 0.511473179 0.37951228
0.023448525 0.527870297 0.395998418
0.048528653 0.541738093 0.411646932
0.082367994 0.55427748 0.424986929
0.134937361 0.564538777 0.436541677
0.190723151 0.571452379 0.446245879
0.241864279 0.576161265 0.453272641
0.296963304 0.579403162 0.458277106
0.347506046 0.583008945 0.46331048
0.390654385 0.588979006 0.469386816
0.429169238 0.598155379 0.475379109
0.470621258 0.608632505 0.47696358
0.514585674 0.618639171 0.478087962
0.566366136 0.624773383 0.485778868
0.609867513 0.630337179 0.495648026
0.649520159 0.635920525 0.501263797
0.689625025 0.638950825 0.497935832
0.728070438 0.640078306 0.489203304
0.763853192 0.639247596 0.479753375
0.797033787 0.639616489 0.469642729
0.828691721 0.644596696 0.461800098
0.858497798 0.65236026 0.456500351
0.000762294 0.493620455 0.368574977
0.005265433 0.508763909 0.379282027
0.009760801 0.525790334 0.394678354
0.015350049 0.543023229 0.412723005
0.031049676 0.56001693 0.430010259
0.059757233 0.575255275 0.446752697
0.111274444 0.586868823 0.461763471
0.167019933 0.59621954 0.473268837
0.223043323 0.602680981 0.481503338
0.275502771 0.607512772 0.487318784
0.329227149 0.611247718 0.491414696
0.378496766 0.615199387 0.496920824
0.420480013 0.621584952 0.503810227
0.458120257 0.630680621 0.510230899
0.496466845 0.64089781 0.511360049
0.538265228 0.650780916 0.511914253
0.587068915 0.657103062 0.515168548
0.631587923 0.663465738 0.524518788
0.668365061 0.670627832 0.531594276
0.705121994 0.675167859 0.531275511
0.743417323 0.678162277 0.525471926
0.778879404 0.679268837 0.515875459
0.812368333 0.679411471 0.504498839
0.843513012 0.678831279 0.493030578
0.871928334 0.680881739 0.485015005
0.00081545 0.522156 0.394779801
0.005312101 0.53815794 0.409654796
0.009801501 0.555889487 0.427598715
0.020440899 0.574913085 0.447351784
0.041465867 0.591862738 0.466017246
0.080629006 0.60711503 0.483716011
0.141718417 0.618957579 0.498932987
0.19912599 0.628832459 0.509680688
0.255305976 0.635565639 0.517198801
0.308428794 0.640144706 0.522473335
0.362338364 0.643998742 0.525993586
0.407227367 0.64740032 0.531089008
0.447610855 0.653408468 0.537168562
0.484296978 0.662185669 0.543770611
0.5204072 0.671861589 0.545088291
0.560252845 0.681100786 0.544508994
0.608799934 0.688485146 0.539575875
0.650600374 0.694939554 0.550430536
0.687566638 0.701201022 0.558406174
0.720759332 0.707298219 0.561569035
0.755981684 0.712483704 0.559102833
0.790436447 0.715768158 0.552650273
0.824391782 0.717223406 0.5434677
0.855643868 0.716902614 0.532576501
0.884545088 0.716477275 0.521324575
0.000858873 0.553230226 0.425715804
0.005348806 0.570860624 0.443211138
0.014348033 0.588652909 0.462904513
0.030339653 0.606015325 0.483335763
0.065957099 0.62310487 0.502762377
0.113685101 0.638588667 0.519735038
0.17539753 0.651182413 0.534983039
0.233967289 0.66161567 0.545732737
0.287762195 0.667872965 0.552795351
0.339838862 0.671833813 0.557366252
0.391147226 0.674945712 0.560686886
0.434597731 0.678231001 0.565282524
0.47233507 0.684545875 0.57055372
0.508227885 0.692915738 0.576525986
0.542420924 0.701498151 0.578299642
0.578193128 0.710979164 0.576364636
0.62485677 0.717320204 0.571777046
0.669833183 0.723259509 0.576956809
0.704832435 0.729900599 0.584819794
0.73739934 0.737471938 0.589520872
0.768441677 0.743637085 0.590761781
0.80099678 0.748544276 0.586483717
0.832504094 0.753687561 0.580560029
0.864351273 0.754646599 0.572205365
0.894021928 0.7544083 0.562211573
0.00089099 0.586478889 0.460285276
0.010070503 0.604353189 0.480021
0.028542535 0.62107861 0.500457406
0.049018577 0.638087451 0.520801485
0.08912576 0.654870927 0.539653599
0.149510026 0.670503259 0.555847406
0.211413428 0.683216512 0.569698811
0.269300163 0.69239825 0.579808295
0.322462618 0.698221862 0.586289525
0.374400139 0.702357829 0.590626776
0.421958834 0.705075204 0.593371868
0.461115956 0.709172904 0.597301602
0.497501016 0.715185821 0.601639628
0.530635476 0.722989142 0.606274664
0.562326729 0.729975581 0.610871077
0.597387075 0.738898635 0.608630002
0.637299955 0.746704042 0.601549387
0.683479011 0.751422465 0.604048669
0.721453547 0.757431388 0.610684991
0.754100561 0.765844166 0.61501801
0.78361249 0.772359848 0.616460443
0.811345041 0.778495371 0.617182136
0.841597855 0.784913421 0.6132707
0.871163607 0.788831055 0.609337509
0.900978506 0.79068476 0.601966798
0.007250715 0.621585131 0.498817384
0.021522151 0.638700545 0.518285692
0.042922083 0.654543221 0.537567437
0.076572828 0.669526279 0.555893779
0.125760823 0.68570292 0.573460221
0.185997754 0.700827956 0.590005219
0.248428062 0.712829053 0.603083789
0.306431592 0.721723378 0.61277318
0.359654725 0.727465451 0.619089127
0.407570213 0.731563687 0.622319281
0.452836633 0.734973729 0.624450624
0.489864916 0.739576936 0.627084613
0.523284316 0.745400429 0.631357133
0.553446174 0.75113517 0.636677504
0.583419263 0.75797683 0.640179634
0.614699185 0.766300082 0.639312863
0.650325477 0.775257707 0.630367935
0.693855345 0.779710174 0.631105125
0.737154722 0.784104228 0.634556949
0.769207239 0.791772366 0.638817489
0.797338665 0.799027145 0.641446471
0.824052811 0.806413412 0.643182337
0.850138903 0.813604355 0.644735277
0.879718721 0.818991661 0.641063929
0.904985487 0.823916554 0.638281047
0.016094534 0.655860484 0.536640584
0.037433743 0.670492291 0.554348409
0.068744637 0.684676826 0.572327077
0.11040289 0.699926376 0.589181662
0.163836658 0.714653671 0.606431901
0.224057868 0.728530169 0.621934235
0.285723001 0.741025388 0.634291589
0.342878342 0.749692738 0.643109202
0.393765807 0.755718946 0.649052143
0.44054985 0.760175228 0.651876211
0.482753247 0.764939249 0.653023481
0.517562449 0.769435942 0.656413794
0.548145711 0.774329424 0.661004663
0.576458514 0.779357374 0.665467501
0.603567541 0.786252797 0.668659449
0.631311595 0.793719232 0.670848846
0.664725661 0.801396251 0.665179074
0.706302762 0.807044089 0.655816078
0.749519527 0.811341584 0.657335162
0.783295631 0.816989124 0.661945999
0.810847759 0.824892759 0.664656699
0.83660233 0.832984447 0.668117821
0.862283349 0.840622485 0.6699031
0.887403429 0.847489834 0.670060754
0.910454035 0.853155613 0.668886542
0.033619907 0.687113047 0.572363913
0.0629723 0.700453401 0.589244187
0.10540776 0.715070486 0.605582952
0.151797444 0.729349256 0.621895909
0.202756941 0.742798984 0.637838662
0.261435539 0.756781697 0.652368546
0.323138207 0.768243432 0.662871838
0.379063338 0.776880264 0.671796799
0.427103251 0.783076584 0.676880717
0.472177029 0.787940025 0.679504275
0.512895286 0.792570293 0.68082881
0.544773757 0.797143519 0.683754385
0.572814941 0.802229166 0.687869072
0.598364472 0.807901859 0.691783786
0.623490691 0.814490855 0.695715666
0.649744511 0.820961833 0.698193848
0.678849161 0.827910841 0.699223697
0.718924046 0.833232701 0.688756287
0.759733617 0.836995721 0.681431353
0.794269025 0.843024313 0.685108244
0.823761165 0.85035789 0.688217938
0.84909761 0.85857141 0.691441417
0.873039603 0.865139663 0.692824304
0.896595418 0.871783674 0.69328022
0.918895721 0.877916157 0.693469286
0 0.009529339 0.050347082
0.004429868 0.009709418 0.050504074
0.008982047 0.009809932 0.049670849
0.013536383 0.009656344 0.049612124
0.018237485 0.009899421 0.050014183
0.023514276 0.01054625 0.051237877
0.028603166 0.011597225 0.053211216
0.033883903 0.013861507 0.057210181
0.039243795 0.017792901 0.063439764
0.045150168 0.023989974 0.070453443
0.051634178 0.030690227 0.077935129
0.060186353 0.036520746 0.08584518
0.068302646 0.042297091 0.093500502
0.092256851 0.048131801 0.103019238
0.126656681 0.052361008 0.113196306
0.177739948 0.054679357 0.122445926
0.24237147 0.053084783 0.132853672
0.307835281 0.050572194 0.14041698
0.374530464 0.048377234 0.146016657
0.436588496 0.049369723 0.149893716
0.491561919 0.049399275 0.152554303
0.548860252 0.050614089 0.149291277
0.601360381 0.052602787 0.144136086
0.649586082 0.054619707 0.134818122
0.694258511 0.056645889 0.123482846
0 0.022518286 0.055224299
0.004478376 0.020957237 0.055975143
0.009032502 0.020808427 0.0559582
0.013583428 0.021031825 0.055187877
0.018129775 0.021735173 0.055435002
0.022894947 0.022776339 0.056560796
0.028029073 0.024228185 0.05889491
0.033842299 0.026992042 0.063215725
0.040029399 0.031489238 0.070018724
0.045726001 0.038596511 0.077433139
0.052439503 0.045966052 0.085510343
0.06015908 0.05241482 0.093472853
0.07349436 0.058584437 0.103095882
0.100192443 0.065858953 0.114805564
0.135631129 0.072404258 0.12483941
0.185129076 0.076015383 0.134028971
0.246639013 0.074414626 0.144033745
0.311305821 0.072966412 0.151249051
0.379215091 0.068968914 0.156664416
0.448616177 0.063373938 0.158256993
0.51834774 0.060639128 0.152945355
0.573654354 0.062357545 0.148800611
