game/public/levels/Train Scene/post/Videofullness_FREE_Underwater_LUT_05.cube
TITLE "25x25x25 Adobe/IRIDAS cube 3D LUT"
LUT_3D_SIZE 25
0.005933932 0.02228963 0.057530914
0.01305749 0.021102518 0.052717689
0.020248756 0.019976877 0.04822487
0.027639734 0.018513588 0.044387605
0.03513407 0.017102364 0.042003043
0.042886522 0.016022189 0.043256387
0.06097642 0.018657174 0.049328271
0.119282342 0.02774854 0.057299364
0.199850664 0.040248182 0.06371484
0.275238842 0.050855879 0.071043074
0.338156968 0.058991928 0.078805909
0.395513922 0.066306755 0.085178211
0.450959623 0.072831146 0.09007664
0.501574993 0.077569321 0.09352161
0.549265683 0.081767462 0.095523402
0.594774663 0.085842058 0.096870385
0.637606621 0.09003263 0.098361611
0.674914598 0.094946414 0.100022204
0.706186712 0.102067254 0.102580644
0.73483187 0.112397961 0.105139561
0.761645377 0.124392606 0.10769356
0.787499785 0.136495993 0.110248826
0.81302774 0.148509741 0.112807803
0.837801158 0.158939973 0.115399875
0.862549961 0.169564351 0.118071251
0.002924228 0.040095676 0.059592247
0.009042429 0.03385726 0.056379784
0.016007308 0.031832732 0.05238409
0.023355212 0.031400859 0.048475828
0.030753108 0.030993909 0.045802929
0.03881415 0.031707205 0.046646509
0.075729892 0.038296867 0.054537199
0.140977278 0.050367832 0.062718369
0.228221312 0.062508717 0.069125406
0.297745049 0.072689004 0.076123096
0.357317895 0.080519766 0.083528034
0.412964761 0.087562747 0.089254193
0.466135979 0.093493611 0.093499169
0.514903486 0.097848177 0.096286461
0.561427414 0.101989791 0.098091014
0.605172276 0.10614977 0.099841021
0.644869924 0.111148767 0.10206043
0.679061234 0.117408313 0.104129583
0.708958924 0.125715256 0.106615379
0.73647958 0.136531919 0.109095782
0.762835324 0.148638427 0.111595787
0.788744807 0.160604373 0.114122599
0.81377399 0.172286645 0.116677925
0.838838995 0.182860285 0.119296543
0.863470316 0.193435103 0.122022502
0 0.049203224 0.061324846
0.005394799 0.048862528 0.057929039
0.012017594 0.044822115 0.054982912
0.018943403 0.042520132 0.051826462
0.026742179 0.044040237 0.048873477
0.04070003 0.048517607 0.050107993
0.089881524 0.058968931 0.059081413
0.164205059 0.073072359 0.067146637
0.250109613 0.084685005 0.073524632
0.317572534 0.094310835 0.080375575
0.374611765 0.101853244 0.086861543
0.429045409 0.108583532 0.092096969
0.479772568 0.113724619 0.095505051
0.526657045 0.117947102 0.09823399
0.57243973 0.121973626 0.100347005
0.614700377 0.126264393 0.102622338
0.650907874 0.132003099 0.105252922
0.682191849 0.140176803 0.107847124
0.7112782 0.150222331 0.110331073
0.738213181 0.161492661 0.112775989
0.764141321 0.173254669 0.115262315
0.789762199 0.185126364 0.11779879
0.814636886 0.196622103 0.120391868
0.840252459 0.207441777 0.123081714
0.865302324 0.21804978 0.125910237
0 0.039078094 0.065268137
0 0.043685682 0.061455499
0.006336742 0.050139796 0.057343666
0.014476007 0.053489897 0.053719725
0.022455156 0.055453695 0.051602323
0.051098522 0.065676674 0.054276638
0.10322471 0.08026012 0.063013695
0.187985942 0.09545131 0.070539862
0.269429833 0.106705211 0.076578006
0.334971875 0.115762249 0.082510278
0.390238285 0.123007797 0.089059152
0.4430677 0.129197836 0.093606167
0.49166435 0.133661821 0.096767001
0.537224293 0.137916148 0.099832892
0.581100643 0.142220959 0.102475211
0.620421469 0.147804931 0.105412781
0.654407263 0.155344412 0.108262919
0.684756279 0.164372474 0.110992119
0.713069201 0.175092608 0.113576427
0.739762485 0.186672986 0.116072901
0.765554845 0.198467568 0.118603751
0.791380584 0.210018143 0.121220455
0.81656158 0.221623227 0.123930223
0.842120767 0.232530802 0.126780465
0.867625356 0.243209109 0.129772291
0 0.037136748 0.068426721
0 0.038134463 0.06510362
0 0.041152362 0.061442256
0.006428313 0.047242355 0.057439569
0.023580573 0.059278201 0.05516582
0.060294304 0.078043871 0.058206741
0.118453063 0.097700216 0.066542685
0.205474287 0.115613371 0.07291238
0.283179045 0.127449021 0.078621134
0.347067535 0.137031808 0.084238701
0.401838839 0.144411832 0.090227135
0.453659624 0.149358496 0.094300494
0.501259565 0.153532982 0.097660191
0.545588017 0.158206761 0.10100735
0.587319553 0.163102165 0.104314178
0.624148548 0.170238465 0.107526109
0.656621277 0.1794433 0.110609569
0.686414778 0.189924702 0.113589168
0.714425683 0.201517299 0.11642772
0.741270185 0.213361785 0.119171925
0.767222703 0.225114465 0.121900797
0.793267727 0.236928523 0.124738835
0.819297254 0.248440459 0.127706438
0.845097542 0.259744376 0.130839959
0.870374501 0.270658553 0.134071395
0 0.0467645 0.071341977
0 0.043254755 0.06829641
0 0.042607304 0.06493479
0.003260356 0.045532979 0.061432023
0.0296748 0.055747189 0.060577694
0.070196137 0.075694397 0.063388243
0.135699704 0.101094142 0.070482522
0.219779193 0.124514751 0.0764568
0.293094218 0.142928928 0.08128161
0.355499595 0.155436948 0.086068913
0.410277843 0.164826632 0.090780541
0.460178137 0.17059204 0.094471581
0.506529212 0.176090404 0.098154843
0.550376773 0.18190977 0.101875134
0.590439379 0.188480467 0.105537243
0.625894547 0.197035179 0.109055236
0.657822609 0.207297117 0.112506904
0.687693894 0.218662173 0.115861446
0.716017067 0.230619743 0.119087413
0.743409276 0.242765203 0.122206219
0.769941926 0.254232496 0.125289097
0.79620415 0.266118526 0.128470734
0.82276243 0.278100818 0.131823823
0.848949015 0.289545149 0.135301933
0.874632835 0.300902754 0.1389011
0 0.068378597 0.074664749
0 0.06232255 0.071707197
0 0.056308072 0.06827423
0.005145488 0.055760223 0.065686494
0.035269674 0.06435442 0.065917984
0.080433294 0.082745627 0.069052793
0.149476245 0.1014838 0.075153001
0.230975091 0.119781159 0.081950761
0.30230242 0.139249265 0.086578839
0.363872439 0.160515592 0.089824349
0.416702807 0.178601339 0.092745967
0.46505326 0.189429432 0.095832214
0.510926843 0.198166758 0.099333577
0.554684401 0.207295954 0.10300985
0.592821956 0.216848999 0.10666997
0.627382278 0.227821618 0.11030674
0.658608139 0.239987075 0.113986693
0.688806355 0.251819104 0.117678046
0.717564285 0.263854831 0.121359825
0.745817184 0.27612704 0.125015989
0.77363646 0.287771642 0.128664762
0.800890028 0.299642414 0.132393241
0.828294754 0.31212604 0.136273757
0.855072618 0.324196547 0.140209168
0.880779982 0.335167378 0.144090146
0 0.091895863 0.07824827
0 0.087321408 0.075432844
0 0.081883244 0.071759418
0.006518394 0.080622047 0.070331559
0.040580668 0.088066421 0.071646623
0.091425389 0.101573057 0.074806482
0.159848377 0.114845872 0.08021313
0.238303289 0.126318619 0.086437635
0.309227884 0.138037741 0.090952754
0.371640444 0.152196914 0.09497942
0.424033076 0.169292122 0.098009512
0.471378893 0.191760167 0.0995996
0.516463995 0.213124231 0.101820782
0.558608472 0.229676217 0.10488338
0.595678627 0.244032681 0.108335033
0.629802406 0.259163916 0.112053178
0.661099672 0.273545146 0.115937874
0.691632092 0.287178427 0.11993584
0.721076429 0.300516903 0.124036826
0.7499789 0.314038306 0.128203556
0.779678643 0.326978505 0.132443398
0.808277428 0.339315206 0.136652425
0.835415959 0.350817084 0.140727744
0.861717343 0.361628085 0.144766554
0.887351394 0.371524721 0.148831412
0 0.11560221 0.081553876
0 0.112511098 0.078820229
0 0.109839499 0.075736031
0.007899231 0.11415229 0.076001592
0.046428617 0.125597417 0.078163244
0.101783268 0.135629341 0.081410229
0.169758439 0.142482862 0.085980937
0.245432481 0.147559986 0.091510609
0.316647917 0.15161939 0.094936468
0.377994508 0.157602131 0.098670162
0.430790871 0.166769624 0.102585174
0.479684025 0.180635184 0.105931275
0.524710536 0.201654062 0.108260736
0.564622939 0.231231645 0.109852992
0.600357831 0.261029065 0.11185652
0.63411063 0.285414487 0.114951268
0.665785849 0.305864453 0.11874447
0.697350025 0.323369116 0.122997716
0.728220403 0.339285016 0.127484918
0.758163631 0.353865653 0.131965414
0.787463665 0.36771974 0.136364773
0.81573683 0.379576802 0.140598387
0.842435062 0.390708834 0.144707784
0.868357599 0.401007205 0.148860991
0.893668711 0.410666287 0.153130531
0 0.141320646 0.085183576
0 0.140014887 0.082479492
0 0.14208582 0.080853872
0.010151654 0.153256938 0.082443602
0.053823818 0.166551441 0.085053146
0.111998677 0.177732408 0.089204513
0.179099634 0.186178952 0.094034024
0.25320524 0.187766179 0.098157823
0.325137109 0.183905318 0.100562051
0.386275291 0.180728674 0.103226945
0.43902871 0.18167448 0.107048355
0.488879949 0.188149005 0.111340798
0.534588933 0.201491728 0.115149297
0.574870706 0.224084094 0.118205123
0.61093384 0.255367339 0.120458625
0.644421279 0.291045785 0.122637674
0.675346732 0.325466931 0.124795616
0.706011415 0.352373421 0.127767459
0.735987127 0.3731004 0.1314473
0.765670598 0.390911043 0.135574892
0.794968307 0.406195313 0.139859825
0.822376013 0.418944597 0.144090787
0.848722875 0.429898679 0.148330197
0.874605596 0.440484405 0.152721897
0.899646461 0.450351804 0.157219961
0 0.170314178 0.089069806
0 0.171773121 0.086428978
0 0.181036279 0.086893983
0.014425657 0.197062775 0.090082929
0.062901668 0.212761357 0.093474351
0.121219166 0.226723403 0.098231524
0.188721493 0.236972719 0.104542069
0.262421012 0.241079599 0.108675882
0.335756153 0.238016456 0.109055154
0.398600012 0.228684172 0.109981053
0.453347176 0.22048448 0.113463275
0.502904654 0.219755962 0.118060455
0.548573673 0.226645693 0.122555442
0.588619888 0.240514219 0.126677155
0.624866843 0.263033479 0.130162194
0.65717721 0.292441636 0.132695854
0.687241316 0.324629694 0.134680212
0.716987848 0.356836259 0.136665627
0.745797515 0.388738513 0.138694972
0.774518669 0.417123675 0.141252562
0.802798152 0.438316077 0.144662037
0.830279529 0.45489797 0.148613051
0.85649991 0.468748629 0.152868077
0.88199991 0.480640233 0.157360047
0.907036602 0.49124819 0.162178487
0 0.19787024 0.093938597
0 0.203966483 0.092292763
0 0.218851492 0.094326235
0.022759994 0.239709496 0.099417597
0.074488483 0.257374108 0.104700647
0.133362204 0.275154442 0.109946929
0.203298137 0.288596302 0.118853472
0.276398748 0.297191858 0.124623626
0.351109296 0.297616929 0.122299403
0.41608125 0.29180187 0.120652139
0.474149883 0.284755081 0.12251769
0.522033989 0.281818837 0.126719967
0.563329577 0.27909416 0.130700216
0.601691186 0.281894296 0.134550527
0.636840165 0.291968495 0.138423234
0.668865085 0.309209019 0.141931266
0.699203014 0.332534879 0.144830838
0.728748918 0.361638993 0.147042677
0.757707715 0.391769558 0.149340585
0.785782099 0.422126085 0.15171878
0.813214183 0.451563627 0.154175252
0.83992219 0.479659081 0.156762078
0.866188228 0.501814485 0.160256848
0.891434371 0.518639326 0.164634526
0.915436029 0.532641113 0.170237094
0 0.220771849 0.097337551
0 0.233150974 0.09818586
0 0.252235055 0.102859721
0.035614375 0.277275115 0.109994501
0.090188317 0.298300862 0.118447326
0.15115881 0.319632351 0.12533243
0.225041196 0.335154474 0.136979893
0.297068983 0.347877949 0.145687029
0.370485604 0.351005971 0.140925288
0.435657561 0.347632736 0.133866593
0.491911083 0.342588186 0.133038372
0.53775984 0.341115177 0.13556689
0.576892614 0.340792239 0.139062837
0.61261487 0.341408312 0.142648831
0.646970332 0.341169477 0.146277517
0.679303885 0.346121609 0.150244698
0.710507333 0.3590388 0.154231891
0.74122709 0.378317028 0.157981977
0.770471513 0.404194444 0.161169916
0.79824996 0.432273597 0.164104208
0.825715899 0.4602395 0.167173281
0.85239011 0.488180757 0.17046985
0.878947139 0.516693473 0.174064651
0.902709723 0.544908881 0.17803514
0.923817217 0.569443166 0.185349628
0 0.242014512 0.101008087
0 0.25895679 0.103895694
0 0.283061802 0.112705596
0.051010787 0.311625749 0.122780323
0.109294921 0.336948723 0.135587156
0.174608797 0.361893177 0.143004373
0.250652939 0.379034996 0.15798527
0.32063958 0.391820133 0.164956167
0.389002979 0.396275133 0.163193911
0.45201844 0.394733816 0.154279858
0.505550325 0.391497135 0.147659585
0.550632775 0.389997482 0.145072684
0.588761628 0.391281456 0.147644743
0.623509169 0.394219279 0.15095675
0.65669471 0.397612244 0.154631704
0.689051926 0.399877429 0.158668235
0.721458256 0.402590901 0.163344264
0.752918184 0.411856502 0.168461397
0.783115447 0.428077221 0.17344138
0.811749935 0.45054093 0.178143561
0.839908361 0.477292836 0.182580918
0.867045164 0.50398922 0.186623394
0.892474651 0.53035444 0.190267429
0.913890541 0.55668956 0.195491359
0.933955789 0.583352506 0.206967831
0 0.262540668 0.104737237
0 0.283513069 0.110946208
0.011222983 0.312989831 0.122925691
0.068951994 0.345688045 0.139258951
0.134960651 0.375158012 0.154840708
0.200106338 0.400886387 0.162347555
0.275547206 0.417402297 0.178482309
0.34210515 0.430277497 0.185083792
0.407007217 0.434872806 0.185569346
0.466798723 0.435254842 0.175953835
0.517533183 0.433599323 0.164814353
0.560791135 0.432998478 0.15756622
0.599780381 0.434821665 0.156807125
0.63429296 0.439674824 0.159815654
0.667151511 0.445475489 0.163533539
0.699503899 0.451975763 0.167925537
0.731944144 0.45744136 0.172950417
0.764046311 0.46159932 0.178774029
0.794920981 0.467027396 0.185409546
0.823912561 0.478672773 0.191643044
0.851769865 0.496029437 0.19688563
0.878275633 0.518528283 0.200975567
0.901925862 0.543387949 0.204892308
0.922737718 0.568628788 0.211452305
0.942704439 0.594750881 0.228584975
0 0.284474373 0.11065416
0 0.309648186 0.120132379
0.028875856 0.344177127 0.13615267
0.092799194 0.379376054 0.157271728
0.160848811 0.410452396 0.173046902
0.227418318 0.43535316 0.183355466
0.298923254 0.452186078 0.197582528
0.363234162 0.463918954 0.204462394
0.424298316 0.46905455 0.205826938
0.479744434 0.470833212 0.198929697
0.527623057 0.471483916 0.18810083
0.570128083 0.472915202 0.176788494
0.609935224 0.475358099 0.170326769
0.644203365 0.481789678 0.173410103
0.677793324 0.488660455 0.173637182
0.710317254 0.496800125 0.177776933
0.74214375 0.505213499 0.183255434
0.773903847 0.5121122 0.189683899
0.804643929 0.516565084 0.196094781
0.833280861 0.518111706 0.202288687
0.860321224 0.524052978 0.20791164
0.885332167 0.536423802 0.213036999
0.908098757 0.555393696 0.218048736
0.928724825 0.578530788 0.228018969
0.94868964 0.603339791 0.246516466
0 0.309012979 0.118354641
0 0.339837819 0.133449212
0.049120151 0.376720876 0.152635351
0.117134228 0.411183208 0.174689427
0.18752268 0.442975342 0.190928459
0.254444987 0.466925323 0.204120472
0.321886212 0.483943462 0.216537297
0.383743405 0.494742453 0.224006057
0.440691561 0.501117468 0.227018133
0.492525756 0.504542708 0.222676575
0.538441956 0.507196784 0.21468471
0.579389811 0.510596573 0.205177128
0.617835104 0.51446867 0.194637045
0.654237628 0.519837201 0.188937366
0.688250005 0.527849197 0.188250199
0.721901 0.536356688 0.188896552
0.752650023 0.545798898 0.194558129
0.782393932 0.553837299 0.199847609
0.811596632 0.559817672 0.205370203
0.839749515 0.562774181 0.210920557
0.864443362 0.564106643 0.216516107
0.888210118 0.565937221 0.22226727
0.910871506 0.574383199 0.230691016
0.932216465 0.589661062 0.244147152
0.952250957 0.611086071 0.262229502
0 0.339737296 0.131706908
0.013982707 0.373981267 0.149664938
0.070198946 0.408860296 0.170672536
0.144182861 0.442472547 0.192769974
0.21413058 0.472991496 0.209486693
0.278876394 0.497359872 0.223233253
0.345295668 0.513669908 0.236770332
0.404632449 0.524857879 0.243735731
0.456579536 0.532642663 0.250091881
0.505620122 0.53754437 0.247316331
0.549566388 0.541689396 0.241576493
0.589265704 0.546198547 0.234759346
0.626505792 0.550993979 0.226347357
0.662455678 0.557437122 0.218619272
0.6977247 0.565517366 0.212353289
0.730922639 0.573797047 0.212744623
0.761062622 0.582316816 0.212894663
0.789469957 0.589559793 0.211212292
0.814863026 0.596509993 0.215443179
0.839125395 0.601166427 0.219624326
0.863547862 0.605219305 0.229303077
0.887364388 0.60671103 0.239662975
0.910367608 0.607110441 0.250115305
0.932450533 0.611019969 0.261909276
0.953443408 0.622595727 0.277491957
0 0.374481231 0.149099454
0.034794182 0.40832749 0.168105513
0.096010074 0.441015095 0.190695301
0.171821088 0.473410934 0.212770283
0.241375983 0.503116906 0.230667904
0.303930581 0.527009845 0.243353322
0.369496554 0.542967439 0.257837057
0.425164074 0.554666042 0.266197443
0.473795354 0.563275039 0.272392005
0.51885879 0.569903255 0.273134053
0.56129086 0.575351298 0.270107627
0.599954009 0.580870211 0.264620125
0.636796713 0.586725175 0.259357572
0.672441661 0.594316483 0.255173355
0.705716789 0.601846874 0.249992043
0.737498581 0.608989656 0.242838189
0.767359436 0.615858197 0.239054054
0.793390155 0.621938407 0.234628484
0.817047477 0.628852308 0.236514106
0.839016855 0.635230362 0.241651744
0.861552 0.640524447 0.253356189
0.884784639 0.644029558 0.264927506
0.907732368 0.645209849 0.27553162
0.929955721 0.644987226 0.28535378
0.951477885 0.646376371 0.295783669
0.005097369 0.410333574 0.168569759
0.057734933 0.442359716 0.189010903
0.124650069 0.473798752 0.213080555
0.199973643 0.50540626 0.235230491
0.269584775 0.534537971 0.254234254
0.330299586 0.558114469 0.266420394
0.394648969 0.573555589 0.280762613
0.44673273 0.584971666 0.29053843
0.491747022 0.594621301 0.297802299
0.533676624 0.602704883 0.301371247
0.57391268 0.609571695 0.300224751
0.611944854 0.615952969 0.297152162
0.647805214 0.621848047 0.292672664
0.681712687 0.628627658 0.288499475
0.713172317 0.634351373 0.283267409
0.743145168 0.640401721 0.277316332
0.772104502 0.646580815 0.271870792
0.796402276 0.651993692 0.265472084
0.818768859 0.657785475 0.263659984
0.839605093 0.664748907 0.268616855
0.86042583 0.670897424 0.278744608
0.881872237 0.676196635 0.290279657
0.904102981 0.679486454 0.300677925
0.926261723 0.68094933 0.310664475
0.947794616 0.68105942 0.319852829
0.028216427 0.446997017 0.190199971
0.085289553 0.476930916 0.212763965
0.158476382 0.507484376 0.237980828
0.229978964 0.539195776 0.260834336
0.299673826 0.56810385 0.281741917
0.360316724 0.591254234 0.29512468
0.420129061 0.606254816 0.307850361
0.46985656 0.6174981 0.317341954
0.511979282 0.627590418 0.326659709
0.551386774 0.63610512 0.330672771
0.58837986 0.643439531 0.331077695
0.623940349 0.649413824 0.327674568
0.657713592 0.654957056 0.323607206
0.689594984 0.660327673 0.318828374
0.719386339 0.664968491 0.313363343
0.747797847 0.669683874 0.308401227
0.775139034 0.67491889 0.302361548
0.798923969 0.679900467 0.297385991
0.820216537 0.685042441 0.293140441
0.840340972 0.691198826 0.296768725
0.860139906 0.697386205 0.303318471
0.880022049 0.703934789 0.313001126
0.900536776 0.70925945 0.322406828
0.921856344 0.712714434 0.331775069
0.943262398 0.714820027 0.341780156
0.056014467 0.484574407 0.216424137
0.120446905 0.513633847 0.240781367
0.193695709 0.543546379 0.266225249
0.263618231 0.5747298 0.291525751
0.332232296 0.604222059 0.312886268
0.391349792 0.626483321 0.326977462
0.446249366 0.640694976 0.338153958
0.493474305 0.651662171 0.346355796
0.532831192 0.660684824 0.35452351
0.568664432 0.668454647 0.358891338
0.602808654 0.675386071 0.359090537
0.635384619 0.681249201 0.356803954
0.666416109 0.686031461 0.353314191
0.696061075 0.690098464 0.348132551
0.724811316 0.693847954 0.342297345
0.751825809 0.697696209 0.337096602
0.777545154 0.701804042 0.330966473
0.801206708 0.70631969 0.325580657
0.821430564 0.710595489 0.320556432
0.840921938 0.715875924 0.32013914
0.860137701 0.721864641 0.324399501
0.879072368 0.728514075 0.331991851
0.898158371 0.735086381 0.341394544
0.917852461 0.740296364 0.350491226
0.938307643 0.744143844 0.359680295
0.092518792 0.524687648 0.247747123
0.161898181 0.552240908 0.272393525
0.230881676 0.581110358 0.297737241
0.297288835 0.611492038 0.322547495
0.363936305 0.639818549 0.343644083
0.420471847 0.659873962 0.357407898
0.470643759 0.674061418 0.366492718
0.515085757 0.684496641 0.374616176
0.552689493 0.692674279 0.381321341
0.585625768 0.699911416 0.385385722
0.616886556 0.706060827 0.385905445
0.646304488 0.711179256 0.384686351
0.674802125 0.715220332 0.380837053
0.7025581 0.717992008 0.37495023
0.72958374 0.720957875 0.368806094
0.755423963 0.724085331 0.363243371
0.779776931 0.727567255 0.357430249
0.80274421 0.731561542 0.352098078
0.822485566 0.735378742 0.34716931
0.841367006 0.739491045 0.343193382
0.860060394 0.745281696 0.345876127
0.878519714 0.751370788 0.350830287
0.896715581 0.758165896 0.359461159
0.915094495 0.764551044 0.36820668
0.934026182 0.769915044 0.376994729
0.134155154 0.56385988 0.279254109
0.201686829 0.58953619 0.302757382
0.266211778 0.616988063 0.326980174
0.328843921 0.645909607 0.351444423
0.393314183 0.673089445 0.372360259
0.446346641 0.692301273 0.386682034
0.493843019 0.706139147 0.393922418
0.53555423 0.716132402 0.400598615
0.570731938 0.723497748 0.40660876
0.601671994 0.730198741 0.409996271
0.630234778 0.735628724 0.410916805
0.656972945 0.73968184 0.409485608
0.683054864 0.742899776 0.406449139
0.708666503 0.744968653 0.400412768
0.734031439 0.74699986 0.393950403
0.758534789 0.749520838 0.387851655
0.782740474 0.752257824 0.382439137
0.804669201 0.755566418 0.376529038
0.8234604 0.759082854 0.371983767
0.841741681 0.762705624 0.367350042
0.859923303 0.767758429 0.367141783
0.877946973 0.773526549 0.370217234
0.895745456 0.779940486 0.377051532
0.913271666 0.786741078 0.384932905
0.930959523 0.793235242 0.393129796
0.175089613 0.600752652 0.308613122
0.239342153 0.624767661 0.330951273
0.298585832 0.650538981 0.354352474
0.359131724 0.679056704 0.378446162
0.420289159 0.704897821 0.399704248
0.470620155 0.723515093 0.413350254
0.514999926 0.736862183 0.420360982
0.554605067 0.746634662 0.424699247
0.587658942 0.753484428 0.430169731
0.616538167 0.759488583 0.433333188
0.642864287 0.763935685 0.433610767
0.667244613 0.766783237 0.432241231
0.691450179 0.768953323 0.428920925
0.714607835 0.770633876 0.425119519
0.738067925 0.772160113 0.418633223
0.76162672 0.774187863 0.412297875
0.785017371 0.776444733 0.406465709
0.806608319 0.778966248 0.400363624
0.824441969 0.782125115 0.395594418
0.842114925 0.785367966 0.390642822
0.859778523 0.78959769 0.388028502
0.877360344 0.795052767 0.389499277
0.894779682 0.801028073 0.393837392
0.911933839 0.807667553 0.400973201
0.928773046 0.814555407 0.408653498
0.007794495 0.032273591 0.080071442
0.015009888 0.031325299 0.075211927
0.022173576 0.030300345 0.070693724
0.029304754 0.029040385 0.066681646
0.036694836 0.027371366 0.063732103
0.044252988 0.025599243 0.063363947
0.065277375 0.026915813 0.069413215
0.121269077 0.033709742 0.078311406
0.200105369 0.045565959 0.086079121
0.279505491 0.057038575 0.094021529
0.343549013 0.066110261 0.101848952
0.403178394 0.074440919 0.109520487
0.45999527 0.082193419 0.115207165
0.51259166 0.088344097 0.118922286
0.560417235 0.092918783 0.121242471
0.606334209 0.097314253 0.121892251
0.648862958 0.102054015 0.123366766
0.684551656 0.108586371 0.125461012
0.714589298 0.116973683 0.128115416
0.742564917 0.127845079 0.130759269
0.768995166 0.140877381 0.133397132
0.794663727 0.15323168 0.136040211
0.820058048 0.165141642 0.138704196
0.844851494 0.176067054 0.141449004
0.869688034 0.186787635 0.144296676
0.004263894 0.047694016 0.083270468
0.010811561 0.043562118 0.079622388
0.018137235 0.043163061 0.075312831
0.025408976 0.042483643 0.071252428
0.032684617 0.041665249 0.068085007
0.040484373 0.04144432 0.067415558
0.079451181 0.046385661 0.075044498
0.141373649 0.055700183 0.084299281
0.229496449 0.068314254 0.091935612
0.303610027 0.079207025 0.09930367
0.364432216 0.087972812 0.107234411
0.421639919 0.096099764 0.114193112
0.476789892 0.103424363 0.118861571
0.526866972 0.108863749 0.121527888
0.573214114 0.113364413 0.123567924
0.617275298 0.117726117 0.125164554
0.655711472 0.123796456 0.127507821
0.688441694 0.131227061 0.129837304
0.717199862 0.141117752 0.13241142
0.744475305 0.153322786 0.134994447
0.770528078 0.16626215 0.137598723
0.795841575 0.178574473 0.140236855
0.821164072 0.190290287 0.142928213
0.846242011 0.201264992 0.145733953
0.871286273 0.211921275 0.148671791
0.000933344 0.064331807 0.084283136
0.007426559 0.059824966 0.081567816
0.01386862 0.055063579 0.078759246
0.021130197 0.054085646 0.075015172
0.028650722 0.054534037 0.071623124
0.049033567 0.057828054 0.07197284
0.093505099 0.065974288 0.080125198
