game/public/levels/Train Scene/post/Videofullness_FREE_Underwater_LUT_02.cube
TITLE "25x25x25 Adobe/IRIDAS cube 3D LUT"
LUT_3D_SIZE 9
0 0 0.083828516
0.012969151 0.00398274 0.10199514
0.031276733 0.027780257 0.130940437
0.097977139 0.045063052 0.15155524
0.186215103 0.053942021 0.174049288
0.280874729 0.061202239 0.196861923
0.386372864 0.068654083 0.215027422
0.501724958 0.079083361 0.223376974
0.604048967 0.089960814 0.228825152
0.000735417 0.083624862 0.112297624
0.013952591 0.08666791 0.123248756
0.043930255 0.112257674 0.146041334
0.113513455 0.123446204 0.170816272
0.203849971 0.130136088 0.196387619
0.300054789 0.135617271 0.22021243
0.406751633 0.141641498 0.23762393
0.515151858 0.151579991 0.245372325
0.61243248 0.161926806 0.250930995
0.003323086 0.096974179 0.17130217
0.015864313 0.13001661 0.158577412
0.046471983 0.17679888 0.162698224
0.112934925 0.200630099 0.184013039
0.202800304 0.21105513 0.209404096
0.302011669 0.216041192 0.233646676
0.410102606 0.220500976 0.250501633
0.514787138 0.228416771 0.259522527
0.61066103 0.237157106 0.266623974
0.004157633 0.184447169 0.205375046
0.017589837 0.180308133 0.200465307
0.066332288 0.185984105 0.206508368
0.13981916 0.212601081 0.226825044
0.211216822 0.263839215 0.234221324
0.300295532 0.293101847 0.245436013
0.402538091 0.303767562 0.257566124
0.501017988 0.312596738 0.265750587
0.59477669 0.321147263 0.27369082
0.004627213 0.287768006 0.230123818
0.017988101 0.286435246 0.226276308
0.060485676 0.272867948 0.2345476
0.157481909 0.249630019 0.264066756
0.248353586 0.257575333 0.291375428
0.338236809 0.290455699 0.300679117
0.413976401 0.351711571 0.285996884
0.493869305 0.390788287 0.277840137
0.581937432 0.405084938 0.282148898
0.005188584 0.388195902 0.246403843
0.018516541 0.387745351 0.24714379
0.050573424 0.378961354 0.257382482
0.150285184 0.357882082 0.28433767
0.25633496 0.33053875 0.31619814
0.362131834 0.314153016 0.342675328
0.454936087 0.335377514 0.34670803
0.528592408 0.385998547 0.333660811
0.595542192 0.446402341 0.316158116
0.005938381 0.481387079 0.258119285
0.019012123 0.490766287 0.264340162
0.048043281 0.485965222 0.279196918
0.147950709 0.469031155 0.30745402
0.257650435 0.449490011 0.33472386
0.364611566 0.429426908 0.357792795
0.472414881 0.401588321 0.376485974
0.567039967 0.404073715 0.384969532
0.64618504 0.442478567 0.379844189
0.007280141 0.549978018 0.274004877
0.019900501 0.57710588 0.287859678
0.073406368 0.588970065 0.30608505
0.166575283 0.587781012 0.334078252
0.27437833 0.577445567 0.358809471
0.377838969 0.563287795 0.376136988
0.480853319 0.549498141 0.387976825
0.582738698 0.528255999 0.403263479
0.683264971 0.505196869 0.419747978
0.008735985 0.613591671 0.293052137
0.057111919 0.65276885 0.315059006
0.118400842 0.673099875 0.337999463
0.201907396 0.682190895 0.366452366
0.297865123 0.684398532 0.387392163
0.392752767 0.685154498 0.397555053
0.489912331 0.682608247 0.40268296
0.586526394 0.673855782 0.411521375
0.684144676 0.659575403 0.423767596
0 0.015858578 0.154626071
0.01276527 0.018533044 0.165354729
0.060315348 0.031223573 0.204557538
0.122432888 0.060200382 0.229809463
0.20134154 0.077004254 0.252117366
0.294070542 0.089692056 0.275551081
0.395076275 0.101481043 0.295915902
0.507688046 0.11459671 0.306577712
0.611033797 0.128238827 0.312456489
0.00035274 0.104171649 0.188600689
0.02405525 0.102262214 0.190949529
0.091995195 0.118557617 0.222269893
0.148098066 0.143412262 0.249120802
0.227201104 0.158398136 0.274177641
0.318422616 0.169349596 0.298725992
0.420026153 0.179674059 0.318930298
0.527160287 0.192090645 0.328953356
0.625095725 0.204551756 0.335062921
0.007667124 0.15750879 0.231147975
0.045792155 0.182817295 0.216386169
0.099379085 0.202327117 0.234969497
0.155785352 0.224123135 0.264795184
0.239628136 0.236736715 0.293722838
0.332775652 0.24630186 0.320214182
0.434518099 0.255499005 0.340726763
0.536626458 0.267582655 0.351088583
0.631334543 0.279632866 0.357844263
0.020283327 0.236323416 0.270896971
0.069765225 0.217337996 0.268588632
0.106007658 0.239397272 0.265900373
0.160420105 0.285303056 0.284682274
0.237104386 0.316336513 0.307210684
0.330987275 0.329340637 0.332468152
0.431582391 0.337525189 0.352359146
0.532197416 0.347509414 0.363850206
0.627003074 0.3573488 0.37272054
0.016222581 0.328006148 0.302695632
0.058809295 0.325047821 0.297193617
0.101486176 0.311771661 0.295918971
0.178883836 0.301171452 0.32351622
0.264065266 0.325195193 0.35068351
0.340479553 0.380333722 0.356357664
0.425306767 0.414929926 0.36152187
0.519864917 0.429683149 0.369953275
0.612149894 0.440852404 0.378804564
0.004425824 0.424168885 0.323673069
0.041206419 0.428042293 0.318432331
0.086479962 0.418268383 0.319397062
0.167706072 0.402716905 0.339605182
0.273708493 0.375586152 0.377291232
0.372225404 0.377380103 0.407146305
0.456440687 0.414412111 0.411246538
0.526951253 0.477854043 0.395617247
0.604262054 0.520852029 0.389251113
0.005693913 0.495476007 0.342465967
0.03481856 0.51390028 0.340139925
0.083757818 0.519205451 0.345270306
0.161731482 0.512389243 0.361331701
0.269132078 0.496713758 0.39242211
0.375472158 0.475276917 0.423197448
0.479575545 0.453179181 0.448635995
0.569802701 0.47259602 0.453780025
0.643838227 0.52699399 0.4435682
0.007334858 0.551555514 0.361249775
0.049599975 0.581487894 0.365516782
0.108685613 0.601059616 0.376849741
0.184418738 0.608536363 0.39391169
0.287793905 0.611787736 0.419897974
0.386102766 0.609389484 0.440647751
0.487917483 0.596287966 0.457608759
0.591298342 0.56864953 0.478430748
0.688125193 0.56190145 0.492028892
0.019883841 0.6059196 0.379544914
0.08566162 0.647030473 0.392859936
0.155353814 0.676528037 0.411020041
0.225585103 0.692172825 0.431372523
0.316439629 0.702360451 0.454807639
0.405778021 0.711645544 0.469881952
0.499076426 0.717387259 0.475179434
0.592518389 0.716464818 0.482526034
0.691160321 0.699273288 0.498216212
0 0.046230741 0.235070854
0.012358304 0.039551333 0.246811092
0.073824167 0.042056378 0.28050831
0.14359583 0.062202733 0.309242427
0.211028934 0.089673959 0.331301868
0.303753167 0.106368408 0.353404284
0.40341711 0.121924296 0.374512047
0.511302471 0.138417885 0.38808769
0.613029838 0.155930549 0.395396173
0.023801193 0.127043158 0.278088391
0.060245179 0.127701581 0.275744855
0.118223675 0.131902412 0.297002494
0.175613582 0.152560115 0.32570529
0.241884589 0.175746009 0.349386632
0.333102107 0.191462383 0.373421699
0.431772351 0.205964595 0.395152509
0.535127044 0.22241725 0.408194572
0.632253885 0.238686755 0.415799469
0.0405626 0.223485366 0.302178681
0.100478426 0.211894214 0.30227831
0.146258801 0.214698076 0.310533196
0.197270975 0.234887019 0.339407027
0.263764143 0.255993664 0.367255479
0.354110241 0.270716816 0.393639296
0.452141643 0.28468287 0.416450471
0.550144076 0.301002264 0.430005997
0.643878937 0.316504389 0.438604891
0.048382998 0.297739863 0.343520343
0.111957893 0.27141133 0.337205976
0.151028454 0.290823728 0.328970432
0.19997251 0.315515637 0.350088447
0.270714641 0.336978346 0.382731587
0.363710284 0.350142628 0.412104279
0.46072191 0.363402039 0.436303377
0.555854142 0.379192919 0.450855702
0.648214221 0.394003212 0.460439146
0.036831051 0.389158905 0.376953155
0.100333154 0.36906904 0.371171236
0.151248023 0.351917922 0.368096054
0.20759733 0.352788895 0.38155961
0.278424352 0.394515276 0.403731257
0.361638606 0.430094153 0.424261719
0.454490691 0.446576595 0.446447641
0.549380422 0.460891545 0.46178031
0.643161893 0.473144829 0.473610669
0.026544124 0.465998054 0.407330781
0.079358071 0.462689787 0.400393218
0.131623387 0.461703479 0.393677264
0.195031285 0.448423922 0.401685208
0.293437421 0.422482133 0.437689692
0.385732979 0.439821184 0.464837343
0.456818521 0.498816371 0.466402531
0.539097309 0.539834678 0.468631029
0.630578578 0.557328343 0.479113877
0.025432527 0.526182592 0.435262591
0.069889456 0.533473969 0.427321523
0.127198815 0.544102848 0.422793239
0.190453798 0.547063589 0.42858237
0.285495102 0.539724767 0.451144665
0.391901314 0.516933203 0.485815495
0.486672729 0.508461833 0.513574362
0.570099175 0.548516035 0.516061366
0.641832829 0.614075243 0.504376113
0.032852739 0.579724431 0.459309846
0.075693607 0.592563272 0.45305407
0.140069306 0.613657415 0.455373913
0.210599184 0.625469506 0.463409036
0.305486381 0.635766864 0.482022107
0.403613359 0.641015172 0.505582929
0.4984577 0.634065807 0.526460528
0.598705649 0.610588729 0.549737692
0.690838039 0.625913262 0.559218347
0.054403335 0.631161571 0.483666778
0.102237403 0.650530815 0.480202675
0.172431558 0.683178186 0.49134171
0.250763983 0.701006114 0.50280714
0.335651398 0.716501534 0.519845009
0.424830884 0.730650604 0.538198471
0.512912631 0.741494119 0.548168421
0.60350126 0.744260013 0.556477964
0.700662792 0.731096447 0.574791789
0 0.070310786 0.337979078
0.027332582 0.061085887 0.345319927
0.084513761 0.057887554 0.379469812
0.157576904 0.062171377 0.405089438
0.218933985 0.083998039 0.420687467
0.300124824 0.108363062 0.438890994
0.401209682 0.126947686 0.457378536
0.509031713 0.146732002 0.471386105
0.610759377 0.168714508 0.479350954
0.042378895 0.161801353 0.391400665
0.093440838 0.153423324 0.383382171
0.134360179 0.154310718 0.396371454
0.197620809 0.159344569 0.418527126
0.256083906 0.18084687 0.432812572
0.339533508 0.200775325 0.452308595
0.438836157 0.218332499 0.472593397
0.541100025 0.237583235 0.486734867
0.637023747 0.258331895 0.495730668
0.069242731 0.250668496 0.424565315
0.142796487 0.239118233 0.414916337
0.180198252 0.241521031 0.411526442
0.228683516 0.246017948 0.426382482
0.283084601 0.26580435 0.444218785
0.367497683 0.284862906 0.467113197
0.465560853 0.302239239 0.489535034
0.562387586 0.321956724 0.504417658
0.654528856 0.342146605 0.514631093
0.069400236 0.360119402 0.436992884
0.139010921 0.337498993 0.428058326
0.200947076 0.324818999 0.429093629
0.246632546 0.330085605 0.434835076
0.300525308 0.348824471 0.45754832
0.384906203 0.366126925 0.483307481
0.480821848 0.383363545 0.508211613
0.573837876 0.403219342 0.524833798
0.663467169 0.42298317 0.53674078
0.056336582 0.462091565 0.466201723
0.117721856 0.435029089 0.460476339
0.187306762 0.40243122 0.455073357
0.244496569 0.40881601 0.451859683
0.305307031 0.432987958 0.470478356
0.391248912 0.44893682 0.498750031
0.485169619 0.464192063 0.524577737
0.577265203 0.48343724 0.543382287
0.666464925 0.502649248 0.557239652
0.051079512 0.527607083 0.49648273
0.103587389 0.513694286 0.493573487
0.160275459 0.500671029 0.483333111
0.232841179 0.491897523 0.481742799
0.313848019 0.478201509 0.503459811
0.398702264 0.509087026 0.520315111
0.477563888 0.547027707 0.534255326
0.568845212 0.567889571 0.552097619
0.660477459 0.58555156 0.568851352
0.053847432 0.575718343 0.524690092
0.102183104 0.572153509 0.524127424
0.148353547 0.572891951 0.513209462
0.222987801 0.580139816 0.510812342
0.308273017 0.57667321 0.521674335
0.415170848 0.555067062 0.55403024
0.500200331 0.568107784 0.574757993
0.571828842 0.628315449 0.57091248
0.652110755 0.673548996 0.574048638
0.062901974 0.619396567 0.555239499
0.110105008 0.624976516 0.552362323
0.154222906 0.633909285 0.544519305
0.230184793 0.652501225 0.547325134
0.322687924 0.660776317 0.553711653
0.424448013 0.6655671 0.573169112
0.518695652 0.657428384 0.598526776
0.611141562 0.655425429 0.619053423
0.690976262 0.699479818 0.620593429
0.080319375 0.671418786 0.591642618
0.132334411 0.67825371 0.58292377
0.179750621 0.693903744 0.579560399
0.258087844 0.719605029 0.586991668
0.352254838 0.736806393 0.594546854
0.444157451 0.749418318 0.606865823
0.532703876 0.76046288 0.620729208
0.62273252 0.763501227 0.634549737
0.717757344 0.756336808 0.657125235
0 0.089650057 0.460472047
0.059039153 0.074075915 0.444877177
0.116549216 0.073404774 0.46570006
0.180049032 0.075477749 0.505469978
0.243545413 0.082347371 0.526589334
0.304002821 0.104110204 0.539380431
0.392205119 0.117934205 0.550615549
0.492859304 0.134891182 0.562191308
0.592633724 0.158167213 0.569334269
0.032145798 0.17753537 0.513163328
0.111139096 0.171214387 0.493071795
0.159060746 0.169648603 0.500386834
0.213995829 0.168822825 0.525365174
0.273803681 0.175749719 0.538627326
0.337953269 0.198295161 0.550787091
0.431451976 0.212253794 0.562319756
0.532927454 0.231687218 0.573311448
0.630481958 0.256044298 0.580138683
0.054507881 0.26288873 0.55369252
0.147637904 0.26459825 0.53327477
0.202660635 0.259209394 0.528310776
0.243920475 0.257586837 0.535615087
0.301017135 0.26476413 0.544516981
0.370575905 0.28674373 0.556850195
0.468275309 0.303370655 0.571551204
0.566097736 0.324992776 0.583835065
0.658757627 0.349066257 0.592905521
0.047522843 0.394581288 0.570214391
0.158440739 0.369493663 0.560121775
0.228377253 0.350499958 0.552910447
0.272521734 0.34620285 0.545310318
0.325416714 0.354247868 0.551437259
0.39697355 0.374795675 0.565871418
0.492658079 0.391608268 0.582636178
0.585937858 0.414037287 0.59760052
0.675784171 0.438113064 0.609499216
0.051591247 0.515425026 0.578152657
0.142240196 0.504668176 0.569788635
0.208773375 0.472667962 0.569612324
0.279899955 0.442357212 0.563967288
0.340728551 0.448512733 0.563953996
0.41471231 0.464941889 0.58255887
0.506221414 0.478539735 0.599985957
0.595329404 0.498887897 0.61561799
0.683560193 0.522466898 0.629981995
0.059094131 0.581333518 0.589408755
0.132753313 0.576167643 0.587383389
0.186262935 0.559326768 0.586833179
0.254753232 0.529678047 0.582263768
0.337426841 0.531240404 0.582753837
0.421018124 0.555616081 0.597021639
0.509820819 0.567849517 0.616860151
0.599113643 0.584781587 0.633894861
0.687194824 0.60609448 0.649762213
0.067434669 0.629445612 0.61312294
0.129996717 0.628924131 0.612143755
0.177309006 0.620098889 0.608455658
0.236259371 0.612786174 0.604424477
0.330005229 0.611029327 0.612201869
0.437616765 0.599268079 0.631425261
0.517045379 0.634844124 0.639499724
0.592694998 0.677917838 0.643482506
0.681184947 0.699153185 0.658525884
0.076849312 0.673946679 0.646844149
0.136939257 0.67683804 0.643890142
0.182781637 0.673325598 0.637128353
0.237870634 0.679275811 0.635864496
0.32913518 0.692363262 0.643078446
0.438447326 0.693012595 0.6515944
0.542612493 0.678377151 0.676078796
0.628074527 0.703202069 0.68908143
0.697009563 0.77483356 0.68394047
0.09143123 0.723515749 0.687147558
0.156852245 0.726924598 0.682230651
0.205236435 0.727312744 0.672491133
0.260911673 0.740495622 0.675042152
0.352168918 0.761326075 0.683435082
0.454467416 0.777775705 0.687934637
0.552143097 0.781346142 0.697427392
0.648674428 0.77817148 0.71716994
0.739901662 0.793284357 0.740127623
0 0.111181229 0.570054591
0.06577605 0.101928413 0.560982108
0.146794513 0.093987167 0.543825209
0.219663501 0.092157394 0.565183699
0.279757768 0.097264983 0.601678371
0.336897075 0.107185245 0.626192689
0.404685259 0.125976935 0.646731853
0.495894611 0.137706608 0.659645438
0.585982561 0.154047176 0.663128853
0.02960892 0.200359717 0.622359097
0.107812367 0.200105429 0.613209069
0.18585062 0.191179112 0.583939672
0.243862092 0.185801253 0.599189878
0.304512441 0.189050481 0.624219239
0.36142683 0.200303718 0.642215133
0.43738687 0.217046186 0.660960555
0.529655039 0.230136544 0.672102571
0.619880676 0.24847281 0.673826158
0.045047671 0.290774703 0.669919193
0.134280592 0.293068439 0.656233549
0.221451223 0.286755294 0.622309804
0.260980308 0.276623636 0.624565005
0.32430774 0.27647543 0.637256384
0.384766906 0.288747311 0.651616991
0.468247056 0.303883612 0.668745995
0.561317444 0.319913745 0.67923224
0.651889265 0.340782106 0.681540608
0.038006306 0.397440106 0.697516918
0.138837025 0.392967582 0.690059423
0.237206474 0.387783378 0.662373066
0.282024652 0.369244248 0.650586724
0.340433717 0.363810331 0.646237373
0.408512086 0.375744551 0.658937097
0.497274011 0.389801443 0.67404139
0.587604761 0.407478899 0.683402359
0.676347136 0.431355178 0.689769089
0.036795557 0.533820212 0.701223493
0.129570156 0.52684015 0.69194591
0.23251082 0.498110563 0.684646249
0.292199075 0.472908467 0.675970197
0.355086297 0.461924642 0.661411643
0.429651707 0.472536594 0.67420131
0.519681156 0.48522085 0.688848138
0.606295288 0.502672613 0.697818458
0.692265272 0.526541531 0.705483258
0.051869094 0.625404954 0.703117907
0.138178945 0.632325411 0.694294095
0.215751261 0.618040204 0.68497467
0.279569447 0.582564473 0.681591034
0.357984245 0.557302356 0.683529258
0.445902169 0.569011271 0.694651186
0.534451067 0.583567858 0.711916208
0.619999945 0.599065185 0.720854461
0.704562902 0.620112956 0.728603899
0.063632816 0.680075288 0.714879572
0.144757032 0.691509664 0.709410727
0.208189249 0.682907939 0.701520383
0.262750596 0.664100289 0.691621661
0.344361782 0.63975656 0.699663937
0.448221445 0.649533987 0.714259326
0.541401863 0.67433399 0.727192342
0.625712633 0.694416463 0.740702748
0.711792946 0.718145192 0.751487672
0.075335562 0.724830508 0.740966201
0.15087837 0.735031188 0.736822009
0.209307104 0.731915295 0.724906981
0.260659158 0.721846163 0.711360335
0.333216935 0.720079482 0.717485964
0.44485873 0.720541537 0.737100303
0.559206069 0.718393207 0.763935864
0.640958726 0.763212204 0.765845656
0.719033301 0.819959044 0.771342337
0.090428352 0.769984841 0.775158346
0.164934635 0.781342328 0.773962557
0.227987885 0.777871132 0.759386778
0.281104386 0.776219547 0.746598721
0.350005627 0.787042797 0.75339067
0.45304653 0.801880062 0.767455637
0.563892901 0.812023044 0.788010895
0.672572851 0.804540932 0.811607122
0.758503377 0.842925727 0.82502538
0.002171129 0.130926266 0.664316416
0.073282883 0.13224788 0.669456244
0.158559352 0.12309441 0.654611051
0.250448436 0.120517768 0.647177815
0.316354245 0.117343217 0.658758998
0.377610385 0.122126661 0.679518819
0.437619627 0.138790146 0.703396618
0.518506467 0.152639717 0.728848994
0.599784255 0.165376753 0.744740129
0.034181863 0.224958584 0.716766357
0.111412257 0.22823742 0.718015909
0.192669332 0.222563684 0.696107388
0.275725901 0.216795027 0.682472706
0.333198309 0.20886305 0.690458834
0.396721184 0.212553129 0.70032382
0.461178184 0.229964763 0.724291444
0.546720088 0.243050605 0.747609138
0.628953576 0.258400083 0.761937439
0.04479298 0.321172118 0.766350746
0.132488757 0.32458359 0.76175189
0.221964628 0.323565125 0.73747611
0.292441994 0.311082184 0.713057041
0.343069106 0.296978086 0.716231346
0.411892802 0.299893081 0.717032075
0.483829319 0.31712386 0.740362704
0.572252989 0.33056736 0.760377645
0.656340957 0.348488629 0.773223281
0.036546707 0.416969478 0.795766354
0.134317398 0.418233812 0.793002844
0.233544752 0.422705621 0.773290217
0.308280945 0.410163373 0.747734666
0.347175449 0.389192492 0.738831103
0.42505759 0.388814241 0.732680619
0.507707477 0.403277576 0.752767622
0.596747458 0.416960508 0.768177032
0.68029201 0.435521603 0.779172778
0.032022595 0.528272808 0.810322046
0.128509462 0.521044075 0.804726958
0.230737358 0.517308593 0.793173194
0.31324634 0.506773412 0.777230978
0.357531667 0.487633735 0.761637211
0.43790549 0.485402435 0.751401782
0.532088101 0.498644501 0.767332792
0.621917129 0.512441397 0.779495656
0.70255506 0.531054616 0.790632546
0.042629778 0.638119936 0.817907751
0.12913391 0.648434222 0.805703461
0.216059238 0.640811026 0.792523623
0.306883991 0.607708097 0.788753033
0.371004879 0.582775295 0.775632024
0.452613771 0.581047773 0.772305846
0.553311646 0.59594059 0.78894949
0.642092884 0.614500582 0.802205265
0.720650911 0.633656204 0.814919412
0.05890429 0.713464022 0.823554456
0.143930614 0.73564285 0.810954452
0.218180597 0.737535119 0.795820117
0.289109319 0.715597987 0.78497541
0.361844778 0.676640332 0.777500272
0.458027184 0.662714541 0.791324317
0.565545857 0.682555437 0.810240507
0.656061292 0.702949166 0.828163147
0.736729205 0.731996 0.847260654
0.071808815 0.763186097 0.835001707
0.15498203 0.784597635 0.82759881
0.222219974 0.787944734 0.812279582
0.285144448 0.775440812 0.793788314
0.350691527 0.757054746 0.784002781
0.449347734 0.736143589 0.804221869
0.56682992 0.75650084 0.826509833
0.663829088 0.794888198 0.846827567
0.750261426 0.828812599 0.875963449
0.086932003 0.806040764 0.857635617
0.167279065 0.826585233 0.855000734
0.234552234 0.828947902 0.841241777
0.298533231 0.820842683 0.815891743
0.363587797 0.818198621 0.808783412
0.447683036 0.822008789 0.822203159
0.569443166 0.826318502 0.848896205
0.685546398 0.843379259 0.88704437
0.765054047 0.902044833 0.903036833
0.00894016 0.151246771 0.754818439
0.082233757 0.155912355 0.764848828
0.17021662 0.156181812 0.763590455
0.264310688 0.153237641 0.752653122
0.346164107 0.15060769 0.745146871
0.411578655 0.148306072 0.748208821
0.472184539 0.158174664 0.75571841
0.544935822 0.175860852 0.777800262
0.624305844 0.188167334 0.802235126
0.034388766 0.250257075 0.807620168
0.114554062 0.254298896 0.813737035
0.198641092 0.257978439 0.805206239
0.289620429 0.252784222 0.788929582
0.364792943 0.245725259 0.778604746
0.423481822 0.238944978 0.777507544
0.489345491 0.249183342 0.77634275
0.568935871 0.26528734 0.798630714
0.648644805 0.278622508 0.820683479
0.042422563 0.347176433 0.850934029
0.131908014 0.352888942 0.853688896
0.22364521 0.358953804 0.842032969
0.305911869 0.352821261 0.821127415
0.375810593 0.339085102 0.805986226
0.429534227 0.326697588 0.802310109
0.504058003 0.33694756 0.795291066
0.589482129 0.350780129 0.816227555
0.671547413 0.366749287 0.83633399
0.035114974 0.440338343 0.879403591
0.133565933 0.444333643 0.881531954
0.235182539 0.454231441 0.868332088
0.321468592 0.451904595 0.850277662
0.383209825 0.434785426 0.831907272
0.431241661 0.417031765 0.826512814
0.518152535 0.425387233 0.815474391
0.609451473 0.437419534 0.834002614
0.692287207 0.455193222 0.851549387
0.026511371 0.537935376 0.896302819
0.12640509 0.537737131 0.897016346
0.234201491 0.542837501 0.885642648
0.32565999 0.542441785 0.87254858
0.393672526 0.528413534 0.853801191
0.436357737 0.507406712 0.844047368
0.532827437 0.516580105 0.835300922
0.629501462 0.531683326 0.851897836
0.712390602 0.549211383 0.866592288
0.032620817 0.638505757 0.912056565
0.124731481 0.645163774 0.906203985
0.223066241 0.643998742 0.890675545
0.318205088 0.632570624 0.881714761
0.398562938 0.615826547 0.868286431
0.451698899 0.601253092 0.857449293
0.551988661 0.607326746 0.852751911
0.655670464 0.62820524 0.867637515
0.737463713 0.654153705 0.885723591
0.052486122 0.724151909 0.917610824
0.137918502 0.744172096 0.908958793
0.219700158 0.753627419 0.890030026
0.300446957 0.739358068 0.874496102
0.390014529 0.703877389 0.86811316
0.467895836 0.684445322 0.864469409
0.567437947 0.692205906 0.870437205
0.675430894 0.715275943 0.88809514
0.760244727 0.746790648 0.912489355
0.070753753 0.786494493 0.92062515
0.157884538 0.812613189 0.913078785
0.231837928 0.826552808 0.895290136
0.297595471 0.821895838 0.872999907
0.371436089 0.794158757 0.857411385
0.46203649 0.7652511 0.866459012
0.571125984 0.765389085 0.887623608
0.685880959 0.797177553 0.912516892
0.775996089 0.831928492 0.944229841
0.086321175 0.836683393 0.931697607
0.174635351 0.863336682 0.930441737
0.243882179 0.874098063 0.916247249
0.308564931 0.869270146 0.8905164
0.380807966 0.856846154 0.869276702
0.463206172 0.848187029 0.876546562
0.569026828 0.835206747 0.906727314
0.691675246 0.868804872 0.935293198
0.783674181 0.922583103 0.966041684
0.007797718 0.173947707 0.848325253
0.085302249 0.178466469 0.860090077
0.176565304 0.184970796 0.867479444
0.273026377 0.18598108 0.858934522
0.356567681 0.184354872 0.849618971
0.437285781 0.184514299 0.839791417
0.502074122 0.188363284 0.836642623
0.568339169 0.202298135 0.837239861
0.6470505 0.217351437 0.853494883
0.029058188 0.272894114 0.893664777
0.112223014 0.27811712 0.90496552
0.200045586 0.286159813 0.905040443
0.297570795 0.290062755 0.897549868
0.376011014 0.284489125 0.884143472
0.450771391 0.279559791 0.872344494
0.511044383 0.280153036 0.864319563
0.585183144 0.293666542 0.859789729
0.665983319 0.307815939 0.874101579
0.038002163 0.368785113 0.929484725
0.128726527 0.375991642 0.93746078
0.223790586 0.384940714 0.933296621
0.317235172 0.391306967 0.926424384
0.388205945 0.384102941 0.91202879
0.456965864 0.373270392 0.898288488
0.516034544 0.369754344 0.888621807
0.599421144 0.382339746 0.880403638
0.68231225 0.394653201 0.891354561
0.032743961 0.461095512 0.953911424
0.131869674 0.467350602 0.960633755
0.234069765 0.479325116 0.952989161
0.332288295 0.487388194 0.94432801
0.401936054 0.478817433 0.929931521
0.464485168 0.466449291 0.918211818
0.520381987 0.461688578 0.913689077
0.614375293 0.472231388 0.901667476
0.700802445 0.483821005 0.91061151
0.022977352 0.551520824 0.968800604
0.123833895 0.557501554 0.972301602
0.233975887 0.567143083 0.965424359
0.334789217 0.575741708 0.956860662
0.414554775 0.570364535 0.943297565
0.47575137 0.553191543 0.929232001
0.529972494 0.544059694 0.928465009
0.631408274 0.559130728 0.9176687
0.720303297 0.576712251 0.929112792
0.026377797 0.635118246 0.980618119
0.119488806 0.649211347 0.977932572
0.226223499 0.657550514 0.96877116
0.326774806 0.658400834 0.961853325
0.418576539 0.653484523 0.948303699
0.489640117 0.638377368 0.933594763
0.545925677 0.629488826 0.937092423
0.65498507 0.644150913 0.927747786
0.746208906 0.670932055 0.944253564
0.036248207 0.726314068 0.985531271
0.128442079 0.736936986 0.984732151
0.22456485 0.748224914 0.972216725
0.313130289 0.747168005 0.959978223
0.412345469 0.73583746 0.947365582
0.497318178 0.716872096 0.936498046
0.56840384 0.714815557 0.943295121
0.677583456 0.733001053 0.942791522
0.775236666 0.761558771 0.960881114
0.062208533 0.799887598 0.988695323
0.153034508 0.820154309 0.989995241
0.237801462 0.836362422 0.97673583
0.309497893 0.837180257 0.959093153
0.398788184 0.823127985 0.939444304
0.494518489 0.795732141 0.936670542
0.585877657 0.790421724 0.950150192
0.69484508 0.81382221 0.963648498
0.795848906 0.847338498 0.989628553
0.08597374 0.857865155 0.997691631
0.179454744 0.886765361 1
0.261618555 0.907732606 0.991215587
0.325781316 0.91131413 0.970106483
0.4032377 0.902098298 0.941977024
0.489557445 0.881550968 0.938065886
0.586258352 0.867674291 0.960215926
0.701955974 0.887355745 0.990124583
0.809561491 0.928479373 1
