game/public/levels/Train Scene/post/Videofullness_FREE_Underwater_LUT_04.cube
TITLE "25x25x25 Adobe/IRIDAS cube 3D LUT"
LUT_3D_SIZE 5
0.00053443 0.004586093 0.01468124
0.024544762 0.021394812 0
0.232263669 0.086179465 0.04453636
0.461003989 0.106550477 0.08537779
0.669188738 0.142120689 0.108811237
0 0.07509546 0.065983437
0.073229074 0.107346192 0.050650559
0.274768591 0.202925116 0.085541353
0.509059608 0.22605069 0.117368177
0.688979626 0.275490284 0.143994018
0 0.261553019 0.105071545
0.099063039 0.333225995 0.124199815
0.357559294 0.334084988 0.15828608
0.586592853 0.344959795 0.18436639
0.745887816 0.502741992 0.190872625
0 0.401331127 0.165110618
0.225959972 0.513304889 0.228098005
0.457761347 0.55019021 0.262130052
0.658039212 0.597175419 0.27445364
0.840312481 0.619131148 0.317690074
0.158903375 0.5732795 0.274048328
0.3888008 0.683722317 0.367038369
0.558110356 0.724146962 0.396322489
0.712985575 0.764906228 0.401450932
0.842548251 0.80473429 0.411938876
0.004778255 0.064169176 0.137212008
0.065631032 0.083371408 0.124502026
0.270871192 0.136938304 0.190615937
0.521315038 0.194446057 0.247862533
0.708849728 0.253057063 0.274876714
0 0.227881268 0.209998459
0.124775574 0.212602407 0.205251008
0.345154434 0.31500721 0.27820605
0.580229998 0.375312239 0.330498487
0.764636159 0.453334361 0.380770475
0 0.387041837 0.305833161
0.140226275 0.402454257 0.322282314
0.435733616 0.462103724 0.3813425
0.668535829 0.589624405 0.448097467
0.83241111 0.67907995 0.516721845
0.051959619 0.506637275 0.398967654
0.273167372 0.591508865 0.470051289
0.534949958 0.680577576 0.522004783
0.727009237 0.708730042 0.550719738
0.862688601 0.732711554 0.593050122
0.210821956 0.707281411 0.547854245
0.454801261 0.764925063 0.617512524
0.62987572 0.830127418 0.661237001
0.756541848 0.856437981 0.654778421
0.859727144 0.85594815 0.641988218
0.010524788 0.139416128 0.297240525
0.127485827 0.179083228 0.318575501
0.318529487 0.222260937 0.384875983
0.599994481 0.347404987 0.519930184
0.784884989 0.454784781 0.607890427
0.005631521 0.318481147 0.429215044
0.181041539 0.386117816 0.478940547
0.403920531 0.469222158 0.529753447
0.713456273 0.608596027 0.65558666
0.864731312 0.708809972 0.746412456
0.009893835 0.499949098 0.516282082
0.210812256 0.576743305 0.581328511
0.497097254 0.611017227 0.635534108
0.758314788 0.729665816 0.735492349
0.887394845 0.814207613 0.810486376
0.071850024 0.642270207 0.624961436
0.343699276 0.732280612 0.696281195
0.574176252 0.776338756 0.732175052
0.778655648 0.810197353 0.784383595
0.882396519 0.903055966 0.835013032
0.192293763 0.80117768 0.74436599
0.49900344 0.857447624 0.794991553
0.666211486 0.903137386 0.837453604
0.780917108 0.923473716 0.83684659
0.869386852 0.913798213 0.85858649
0.027195502 0.234741911 0.494914144
0.177315682 0.307668626 0.574742019
0.432410687 0.416778833 0.687663913
0.701719344 0.542690396 0.778254271
0.880159795 0.639639497 0.855119586
0.019939236 0.411684424 0.616947472
0.249119431 0.522428393 0.707475603
0.535746813 0.642219961 0.786241949
0.769560277 0.743357182 0.867562771
0.928220034 0.828304231 0.923006415
0.049566973 0.595737934 0.717319429
0.291020989 0.698212206 0.803482831
0.608353496 0.764362812 0.843616247
0.807184577 0.843612194 0.888085485
0.934853673 0.888734043 0.913389206
0.119181238 0.760484517 0.797612727
0.375133902 0.853064835 0.877659559
0.639584064 0.881739259 0.894012153
0.818316698 0.887843132 0.917229772
0.927684307 0.937731802 0.935874701
0.219421953 0.877544463 0.881096303
0.489489138 0.928185165 0.931084096
0.714554846 0.977628708 0.948940873
0.828046143 0.987761378 0.955941081
0.919751167 0.965281427 0.942580223
0.049139045 0.324417382 0.688003004
0.258071899 0.418069005 0.813597023
0.552969396 0.563972473 0.944990158
0.79015553 0.69612056 1
0.941598833 0.787084579 1
0.05905151 0.513023436 0.800944924
0.340853602 0.624074638 0.909372151
0.641939998 0.757006884 0.992301166
0.835662246 0.847659171 1
0.954743028 0.900722504 1
0.094332099 0.656077445 0.870199084
0.389325976 0.778605819 0.957098186
0.684236944 0.86393851 1
0.868848503 0.932361424 1
0.957801938 0.965358377 1
0.151734605 0.814566493 0.921037614
0.446862221 0.885608733 0.991763294
0.680853188 0.91878444 0.995506406
0.868421137 0.957246542 1
0.944330692 0.989485502 1
0.271811098 0.92930764 0.969109356
0.533059418 0.996812046 1
0.706965089 1 1
0.847071469 1 1
0.943102241 0.998356044 0.996320367
