apps/playground/public/levels/Train Scene/post/Videofullness_FREE_Underwater_LUT_03.cube
TITLE "25x25x25 Adobe/IRIDAS cube 3D LUT"
LUT_3D_SIZE 5
0.00098164 0.025991125 0.042311739
0.166758254 0.080406025 0.062633261
0.413404822 0.120955937 0.118314929
0.632826328 0.157273352 0.142296761
0.801560163 0.226339012 0.171746716
0.02993999 0.175807849 0.123862959
0.25883615 0.215117902 0.144513473
0.509716988 0.300428569 0.17364876
0.710164011 0.384748161 0.21210891
0.869749248 0.457322359 0.264323384
0.083771892 0.439689875 0.235203564
0.387619376 0.526834607 0.283116549
0.653643131 0.568054438 0.322570682
0.828398049 0.58472079 0.361653686
0.922945201 0.719310403 0.3831442
0.276883215 0.63384378 0.391509354
0.535487831 0.724756181 0.453491956
0.715458393 0.765791714 0.469056785
0.853832066 0.778788686 0.464706123
0.970154226 0.771420836 0.497995526
0.462504834 0.790637791 0.525801837
0.643447757 0.871408224 0.591861725
0.763822615 0.892683566 0.591921031
0.866493464 0.902342856 0.571084619
0.96174866 0.919967592 0.562691092
0.037786271 0.110211998 0.219707936
0.249361798 0.16659379 0.264729351
0.511021197 0.235320434 0.34601298
0.735384643 0.348956525 0.402556241
0.873515368 0.436470956 0.467944682
0.076963335 0.378790766 0.374063909
0.373316884 0.450434119 0.450570434
0.678304911 0.561186433 0.548404336
0.818117321 0.635531187 0.592592895
0.920206189 0.687469304 0.631658673
0.166979164 0.581941426 0.513118207
0.48905915 0.678490698 0.593472958
0.74711895 0.729732811 0.654847443
0.851575017 0.793771207 0.669721246
0.949721158 0.851468801 0.707406878
0.345127016 0.745671093 0.637373686
0.605474651 0.819327176 0.713079572
0.765634239 0.878236532 0.741676033
0.870205283 0.875480235 0.743195474
0.970314026 0.864366293 0.755925775
0.517018974 0.881266057 0.740065217
0.692553699 0.930452287 0.810640275
0.787696242 0.967233419 0.831312656
0.872095287 0.97616607 0.816941798
0.957391739 0.964922905 0.784457386
0.060949445 0.215104818 0.444104344
0.320840031 0.339323908 0.570550084
0.63986367 0.478773504 0.70913136
0.82633853 0.57675755 0.78786236
0.923303664 0.630568683 0.83168608
0.097801708 0.47432968 0.61550498
0.472819746 0.610022247 0.722416401
0.752953768 0.730228782 0.816039622
0.888903379 0.78230232 0.858599305
0.972392917 0.832978487 0.898982048
0.19294554 0.701462388 0.73736769
0.577228785 0.79893434 0.800733149
0.79199183 0.826499999 0.844803929
0.898771882 0.860988855 0.873829246
0.973339677 0.895870745 0.912676334
0.349547654 0.832166612 0.822809517
0.669880629 0.89812845 0.865937889
0.801048338 0.932780147 0.882903636
0.89905268 0.922076941 0.884249508
0.960213244 0.97026211 0.909618676
0.488161445 0.918665826 0.875950992
0.726112962 0.968385518 0.918371022
0.813029528 0.997092783 0.931053221
0.888992786 1 0.90825814
0.960712671 0.992464662 0.92370826
0.100964263 0.341679722 0.674982369
0.431695253 0.502057731 0.837146699
0.723929882 0.64279902 0.931088507
0.881679356 0.719136238 0.963090241
0.971327543 0.76540947 0.966234505
0.156749338 0.5709517 0.80488342
0.546813428 0.708167434 0.902662516
0.80933398 0.810201883 0.947830677
0.906487763 0.849364221 0.970104456
0.995812416 0.886609495 0.973003149
0.245127961 0.75265044 0.886532962
0.604210079 0.853045523 0.936706305
0.841577411 0.884674609 0.945082128
0.910524607 0.912617564 0.946879923
1 0.937573016 0.96466881
0.379044771 0.888139725 0.936272323
0.66081959 0.945320308 0.95965302
0.831968248 0.973391294 0.964842319
0.901655853 0.953624547 0.967535853
0.995383501 0.970998168 0.967830062
0.488655508 0.964965403 0.969989061
0.694215238 1 0.970712841
0.842666149 1 0.969864786
0.895945907 1 0.966904998
0.991169512 1 0.963066578
0.162187934 0.436108887 0.881095111
0.522585869 0.56983012 0.989744008
0.776623368 0.701332986 0.999865413
0.928892136 0.797656953 1
0.996449292 0.832833111 1
0.223824382 0.627993166 0.94636488
0.630625308 0.754756689 1
0.831333041 0.850227773 1
0.950737834 0.900702655 1
1 0.911397278 1
0.307202309 0.767009139 0.983479977
0.663525403 0.893978536 1
0.856100321 0.933874667 1
0.949171185 0.942906141 1
1 0.941164792 1
0.398670584 0.90102911 1
0.670584798 0.959845603 1
0.843995094 0.973484218 1
0.932497263 0.972346544 1
0.987126708 0.970507443 1
0.518702745 1 1
0.686242402 1 1
0.832105994 1 1
0.908345163 1 1
0.984264731 0.999843538 0.996704817
