apps/playground/public/levels/Train Scene/post/Videofullness_FREE_Underwater_LUT_03.cube
TITLE "25x25x25 Adobe/IRIDAS cube 3D LUT"
LUT_3D_SIZE 25
0.00098164 0.025991125 0.042311739
0.006471335 0.031557798 0.039843157
0.018842926 0.039136 0.037442282
0.048618343 0.047750447 0.037606731
0.089313902 0.056799967 0.044480752
0.12884675 0.068096481 0.053421803
0.166758254 0.080406025 0.062633261
0.207844511 0.08971604 0.072363518
0.248822317 0.096444406 0.083265245
0.289851636 0.102942474 0.093848631
0.330240995 0.109402649 0.103640184
0.37125656 0.11551401 0.111952975
0.413404822 0.120955937 0.118314929
0.456781 0.126074895 0.122528695
0.499128789 0.13132523 0.126524627
0.537300527 0.136966974 0.130514935
0.571806729 0.14301607 0.134269536
0.603574395 0.149411932 0.138149649
0.632826328 0.157273352 0.142296761
0.661331058 0.166576818 0.146571249
0.689559877 0.176786542 0.151035294
0.717836916 0.188536748 0.155739889
0.746247411 0.200962991 0.16074045
0.774159312 0.213594228 0.166069016
0.801560163 0.226339012 0.171746716
0.000682847 0.053463954 0.052089725
0.011864165 0.055596784 0.052016467
0.036614079 0.06180184 0.050465919
0.069004856 0.071723856 0.049678966
0.108065508 0.08220607 0.054969005
0.145005167 0.094851442 0.063952558
0.183142826 0.106543809 0.073183827
0.224705786 0.115278915 0.08311341
0.265919536 0.121814616 0.094352208
0.306456953 0.128224745 0.105100162
0.34748745 0.134427786 0.114538573
0.388630271 0.140256569 0.122460105
0.43100974 0.145403191 0.127743885
0.474336207 0.150696591 0.131799698
0.514538169 0.156365678 0.135824487
0.550314605 0.162617877 0.139974356
0.582697988 0.16980283 0.144233346
0.613450706 0.17747201 0.148401991
0.642640114 0.186523229 0.152782813
0.671190679 0.197373256 0.157329589
0.69980377 0.209489122 0.162126839
0.728841841 0.222475603 0.167282104
0.757528484 0.235806808 0.172827333
0.785184503 0.248737305 0.178649262
0.811889052 0.260935545 0.184611976
0.000069523 0.070916623 0.06544178
0.021613969 0.080738649 0.063027412
0.049818181 0.086896539 0.061907865
0.085995294 0.095047966 0.062175341
0.121889137 0.107450865 0.065653965
0.158228636 0.121159941 0.074439175
0.197447628 0.132454574 0.083772779
0.239310086 0.140962198 0.094092764
0.280769676 0.147295535 0.105292849
0.32167381 0.153702527 0.116035819
0.363240153 0.159750506 0.125309393
0.405572802 0.165075302 0.132239774
0.448786229 0.170299247 0.136742845
0.491000175 0.175949633 0.140921712
0.528684139 0.182191521 0.145204335
0.562710106 0.189306527 0.149679437
0.594023287 0.197915867 0.154228166
0.624067366 0.207879514 0.158832684
0.653476238 0.218884453 0.16359216
0.682620227 0.231292561 0.168593913
0.712179422 0.244663566 0.173957184
0.7414639 0.258408546 0.179682165
0.769397914 0.271659225 0.185601592
0.796230614 0.28404972 0.191676706
0.822135627 0.295867562 0.198008612
0.012977583 0.077284947 0.084086224
0.035904184 0.086767122 0.081463061
0.063521497 0.101441115 0.077256091
0.097176746 0.118920222 0.07426665
0.131145388 0.133084759 0.076995529
0.169251233 0.146536171 0.085332185
0.210113868 0.158706635 0.09411601
0.252514452 0.167822421 0.104401059
0.294471979 0.1742948 0.115573622
0.334985018 0.180640966 0.126755178
0.377331614 0.186080948 0.135507479
0.421576142 0.190912068 0.141217977
0.465383679 0.19661057 0.145648703
0.505160213 0.20318158 0.150156409
0.540916324 0.210797608 0.154784366
0.574053228 0.219461516 0.159567773
0.605606675 0.229316682 0.164436474
0.636020303 0.241317093 0.169520736
0.666202903 0.254250318 0.174872085
0.696421921 0.268165588 0.180559963
0.725941539 0.282020688 0.186502889
0.754014909 0.295130104 0.192532465
0.780946434 0.307550013 0.198751748
0.807044089 0.319649011 0.205293819
0.832477689 0.331379622 0.212278008
0.021252248 0.101201266 0.09877719
0.047294181 0.103513874 0.097756445
0.07880877 0.112941705 0.095444009
0.111164041 0.128931388 0.093413278
0.142459244 0.148356274 0.09362568
0.180255741 0.168144569 0.098395802
0.224258393 0.180765361 0.106652357
0.266181529 0.1928844 0.115258403
0.306940168 0.202402145 0.126024485
0.347630799 0.209849179 0.136452526
0.390557736 0.215216309 0.143975258
0.436087549 0.219314918 0.149181038
0.478541076 0.22609733 0.154306874
0.517496705 0.233673215 0.159038976
0.552660167 0.243253797 0.164126381
0.586046338 0.254134238 0.169337347
0.618271112 0.266148061 0.174792379
0.649815023 0.279597908 0.180648744
0.680893958 0.293542594 0.186775148
0.710918128 0.307233036 0.193041712
0.739254117 0.320460558 0.199390203
0.766506374 0.33301875 0.205963999
0.79285568 0.345340818 0.21289596
0.818590105 0.357684851 0.220369011
0.844079196 0.370166272 0.228525549
0.026169127 0.136727184 0.111198977
0.054021802 0.139420286 0.110546976
0.087590441 0.145267293 0.109753713
0.121053293 0.153878793 0.110036708
0.155206025 0.165337637 0.112400219
0.19618918 0.178489625 0.11758627
0.241505072 0.192257196 0.125055969
0.283825129 0.209663793 0.132152513
0.323301435 0.223895893 0.140386432
0.36309436 0.236060828 0.147321507
0.405748338 0.244681314 0.152768627
0.450492918 0.252707839 0.157558426
0.491588861 0.261425942 0.16249831
0.529769719 0.271425009 0.167666048
0.565470397 0.283201754 0.173385441
0.600063086 0.296259671 0.179409415
0.633132458 0.309640467 0.185774386
0.664862931 0.323197424 0.192419201
0.69565475 0.336544633 0.199227825
0.72511667 0.34975642 0.206180051
0.752882302 0.362473428 0.213359371
0.779708445 0.374910027 0.220963985
0.805923939 0.387464374 0.229155824
0.831830561 0.400200456 0.238051683
0.857057989 0.412597239 0.246877626
0.02993999 0.175807849 0.123862959
0.059313707 0.182529807 0.123378396
0.092447273 0.19158867 0.123106405
0.127438396 0.199736252 0.124770314
0.165703058 0.20550406 0.128675938
0.210575804 0.209568292 0.135122851
0.25883615 0.215117902 0.144513473
0.304237485 0.223548606 0.153852746
0.346461654 0.234656841 0.162996143
0.38729459 0.250400394 0.16790697
0.428204566 0.269694716 0.168777928
0.470260412 0.286090881 0.170300007
0.509716988 0.300428569 0.17364876
0.546889603 0.316064805 0.178898141
0.582290471 0.330631524 0.184558317
0.61598891 0.344703376 0.190660521
0.648256481 0.358234346 0.197300062
0.679685533 0.371597737 0.204439402
0.710164011 0.384748161 0.21210891
0.739161015 0.397465587 0.220253557
0.766968966 0.409841806 0.228942066
0.79411763 0.42240864 0.238154709
0.820226192 0.434533626 0.247147918
0.845350683 0.446121722 0.255846679
0.869749248 0.457322359 0.264323384
0.032779906 0.221058324 0.138136491
0.063375995 0.232983574 0.137949482
0.097717069 0.243614003 0.139337316
0.135207832 0.253697157 0.141863957
0.176590696 0.261080235 0.146383405
0.223918974 0.265568554 0.15300113
0.274232805 0.266969025 0.162907436
0.323797375 0.266249746 0.174199089
0.370653361 0.267072976 0.185013622
0.416090071 0.27280584 0.191664115
0.462528765 0.285334945 0.194258422
0.503479898 0.305498898 0.194766015
0.537772 0.332453907 0.193532154
0.569894612 0.356811881 0.195923701
0.602228642 0.375949889 0.199624687
0.634024024 0.392834634 0.204930112
0.665378332 0.408418804 0.211425245
0.696504474 0.423141867 0.219032124
0.726335764 0.43737331 0.227617189
0.755179465 0.451029122 0.23691453
0.782555282 0.463378906 0.245925948
0.808427513 0.474769264 0.254585117
0.833336055 0.4853414 0.263049185
0.857501507 0.495497614 0.271429241
0.881024301 0.505175471 0.27975589
0.035075221 0.27420193 0.154406145
0.067664139 0.288347006 0.155622676
0.104494363 0.300550282 0.159159973
0.145725191 0.312175781 0.162683427
0.191528454 0.321464121 0.167623311
0.240248531 0.328346163 0.174894035
0.292028248 0.332635134 0.184927598
0.344756633 0.334271818 0.195241511
0.396359235 0.332840145 0.204976574
0.44783619 0.329459488 0.212639257
0.49496901 0.330174953 0.218532145
0.535635293 0.338129729 0.222223163
0.57148236 0.353898168 0.223846823
0.603005946 0.376763225 0.223876312
0.630427301 0.405941337 0.224402428
0.658201218 0.433775306 0.226552218
0.687739372 0.456579328 0.231933236
0.717367232 0.475519836 0.238807619
0.74537015 0.491534323 0.246412635
0.772329628 0.50524503 0.254177839
0.797779083 0.517214954 0.261937559
0.822266877 0.528045356 0.269613981
0.845766008 0.538049877 0.277271479
0.868099272 0.547506332 0.285228878
0.890017211 0.556546628 0.293365866
0.040443607 0.322387606 0.172087267
0.07512062 0.337381959 0.175569534
0.115518659 0.351426929 0.180948332
0.162642658 0.364494264 0.185954362
0.211898893 0.375687659 0.190508962
0.262911409 0.384788781 0.198465362
0.315435231 0.392204076 0.209015161
0.369143009 0.396084875 0.218542621
0.421682 0.397215158 0.22612533
0.473510116 0.397276729 0.231860504
0.519734681 0.396247864 0.237358853
0.560811341 0.393803924 0.243974164
0.598038197 0.397818476 0.251088262
0.631944895 0.410294324 0.255405009
0.662871778 0.430476695 0.259445101
0.691658616 0.457794726 0.261145681
0.718045115 0.486981481 0.262968242
0.742399693 0.515611231 0.264128298
0.766218722 0.538285613 0.268062174
0.790067852 0.555262685 0.272345185
0.813196003 0.569116116 0.278289109
0.835286319 0.580449224 0.284044087
0.856311858 0.59086293 0.29199937
0.877022564 0.600335002 0.301164508
0.897468686 0.609227479 0.311022609
0.049952522 0.364293694 0.191713631
0.087626539 0.380688608 0.197248891
0.133894935 0.396593481 0.204025179
0.186192662 0.411158949 0.209977999
0.236860573 0.424249768 0.215402052
0.288018703 0.4344697 0.223083645
0.340168893 0.442436963 0.232317224
0.392583489 0.447236717 0.242362916
0.445466936 0.450767577 0.248695388
0.495418668 0.45416522 0.25341624
0.540054977 0.456626713 0.258328974
0.58067286 0.458424151 0.264398068
0.618562043 0.459131032 0.272744089
0.654843092 0.460751295 0.282263696
0.688921332 0.469634116 0.291313171
0.719242096 0.485227942 0.296111584
0.745488644 0.506557941 0.298440516
0.768771231 0.531784713 0.298272252
0.790510952 0.55781424 0.298100501
0.810490489 0.584150016 0.298080415
0.828574836 0.607858956 0.300233185
0.847295642 0.625477314 0.304885954
0.866299331 0.639272749 0.314370781
0.885349751 0.650412321 0.32457149
0.904423892 0.659981728 0.334919333
0.063811734 0.402968287 0.212991223
0.105050735 0.421811461 0.220815271
0.15770866 0.438996434 0.228796914
0.21211198 0.454140931 0.235190943
0.261416048 0.467642993 0.240172967
0.312208861 0.478057653 0.248048633
0.363673985 0.486210465 0.257258147
0.415604472 0.49189949 0.266769379
0.467824578 0.49723506 0.272786319
0.515096843 0.502495229 0.277570367
0.558677018 0.50780946 0.282615513
0.599227428 0.513528049 0.288915932
0.637470305 0.518534422 0.296867818
0.673182487 0.521212876 0.305840045
0.706746161 0.522030115 0.31543988
0.738191783 0.524143815 0.323211789
0.765974641 0.532900453 0.328355908
0.790440798 0.547866046 0.331715226
0.811855793 0.569183826 0.332383692
0.831378758 0.592602074 0.332018405
0.84864068 0.616998374 0.332930446
0.8641572 0.641899467 0.334934235
0.878897429 0.666942835 0.340977222
0.894663155 0.686745405 0.349835753
0.911439478 0.701876223 0.35935998
0.083771892 0.439689875 0.235203564
0.128685206 0.459205329 0.244544312
0.184229523 0.476570576 0.25312686
0.237491623 0.492732495 0.260406286
0.286476254 0.50716114 0.266454905
0.336047143 0.518636405 0.274106681
0.387619376 0.526834607 0.283116549
0.438793749 0.532992065 0.292950898
0.488453031 0.539389729 0.298744977
0.534270048 0.546362936 0.303823769
0.576761127 0.5541448 0.309766948
0.616604924 0.561809778 0.31615749
0.653643131 0.568054438 0.322570682
0.688498855 0.572779059 0.329384357
0.720755577 0.574780941 0.336609811
0.75077486 0.573774993 0.344883144
0.779389203 0.572066545 0.352177829
0.805268705 0.574805856 0.358120918
0.828398049 0.58472079 0.361653686
0.848566473 0.601413131 0.363111675
0.866029382 0.622476697 0.363772392
0.881589115 0.645162284 0.365340978
0.89619869 0.668942571 0.368266732
0.909947276 0.693933725 0.375753909
0.922945201 0.719310403 0.3831442
0.107898466 0.472841769 0.257387608
0.15700005 0.4921543 0.26755026
0.211871117 0.510940909 0.277513564
0.263669848 0.528425455 0.285846293
0.312315106 0.543922901 0.293191314
0.360788554 0.555998504 0.301004201
0.411959708 0.564484537 0.310460716
0.46149376 0.572208405 0.320898592
0.508835614 0.57986623 0.327647209
0.55312556 0.588010252 0.33346656
0.593931019 0.596187413 0.338760018
0.632041395 0.603610098 0.343582064
0.667932689 0.610236168 0.348213911
0.701592863 0.61555779 0.352918595
0.732573211 0.618829727 0.357981056
0.760953844 0.619851708 0.364182413
0.787914574 0.617869616 0.37106052
0.814249933 0.614602804 0.377516448
0.838689446 0.612895429 0.383336663
0.860855103 0.618277669 0.388066262
0.880246103 0.630598783 0.391803592
0.896173 0.649375498 0.393408686
0.911007762 0.670892954 0.396213681
0.924922705 0.693981171 0.4006809
0.937964499 0.71822226 0.40756157
0.136369139 0.504331827 0.280045182
0.187823549 0.523894548 0.291702121
0.240878567 0.544055641 0.303458363
0.291509271 0.562404215 0.312982947
0.33955878 0.578473985 0.321441889
0.387631416 0.59126687 0.329973698
0.438020438 0.600881696 0.34008193
0.48515451 0.609838486 0.350338608
0.528867185 0.61823976 0.358013779
0.570525348 0.62631011 0.362876713
0.609373569 0.633819222 0.366621941
0.645972133 0.640906751 0.370064467
0.680309057 0.647288203 0.373621553
0.712055504 0.652520835 0.376842707
0.741627574 0.656276941 0.380267531
0.769313514 0.658304989 0.38378939
0.795017004 0.658566236 0.388534844
0.819958687 0.656180441 0.394042224
0.844602168 0.651946425 0.400396585
0.867132425 0.648721218 0.406854481
0.888725579 0.650159597 0.412696481
0.907380342 0.658984244 0.417700976
0.923359454 0.67461437 0.421073318
0.937497199 0.695142448 0.42482847
0.950921893 0.717501998 0.430377841
0.169620633 0.536217809 0.305095702
0.220756769 0.556448996 0.31883201
0.272041559 0.577246785 0.332190901
0.321715087 0.596202254 0.343367368
0.369332075 0.612846255 0.352814585
0.416869909 0.625910103 0.361397862
0.463893652 0.635567427 0.370536029
0.507572293 0.644519866 0.378987581
0.547916114 0.653232157 0.386193424
0.586537719 0.661245227 0.390912682
0.623283982 0.668561816 0.394049585
0.65831387 0.675224602 0.396183968
0.690714836 0.680674493 0.398073286
0.720882177 0.685193419 0.399865061
0.74923861 0.689022124 0.401765764
0.775932968 0.691614151 0.403669953
0.801071584 0.692933679 0.406823456
0.824202955 0.692985654 0.410681218
0.846959352 0.690759242 0.41566956
0.869899809 0.686190188 0.421838343
0.891962767 0.682426393 0.428498507
0.912845731 0.681144416 0.435747236
0.93146646 0.686852932 0.442082673
0.947618365 0.699449956 0.44741258
0.961699367 0.718253672 0.451821566
0.205901816 0.569915354 0.334545553
0.255871713 0.590098202 0.349332124
0.304829925 0.611049831 0.363343596
0.352695107 0.629624546 0.374856621
0.39933309 0.645337701 0.383956194
0.445043594 0.657502055 0.391786039
0.488720536 0.667327821 0.399399877
0.52927649 0.67651552 0.406669825
0.566931665 0.685540676 0.413066238
0.602283657 0.693398297 0.417473793
0.636484861 0.700682819 0.420341641
0.668984056 0.706702113 0.421764582
0.699630082 0.71138823 0.422372073
0.728406787 0.715086162 0.42288816
0.75552398 0.718296528 0.423437417
0.781113982 0.721108615 0.424219251
0.805341065 0.723124266 0.42561838
0.827824354 0.724190652 0.427886099
0.849162936 0.724286914 0.431036592
0.870264173 0.722499549 0.435826957
0.892143011 0.718399107 0.442278445
0.913608551 0.714422286 0.449815094
0.934098661 0.711706936 0.457559884
0.952766418 0.714493454 0.46478492
0.969588578 0.724056304 0.470959306
0.242149651 0.602915525 0.364113152
0.289909542 0.622160614 0.378453165
0.336255193 0.642470956 0.392587304
0.382348984 0.660743415 0.40443337
0.427921981 0.675547838 0.413389623
0.471074194 0.686981022 0.420893878
0.512898564 0.696796298 0.426684946
0.550676286 0.706317246 0.433751553
0.585429907 0.715478778 0.439214915
0.617838025 0.723306715 0.443218857
0.649289668 0.729986429 0.445344985
0.679239929 0.735376656 0.446091503
0.707830071 0.739613831 0.446207315
0.735269964 0.742755175 0.445491552
0.76122576 0.745314121 0.444809496
0.785870552 0.747732937 0.444571286
0.809217036 0.750078261 0.444627076
0.831067383 0.751888752 0.44575277
0.851485074 0.753031313 0.447504163
0.871144295 0.753414452 0.450831532
0.891039312 0.752322435 0.455408126
0.91189599 0.74904114 0.461737514
0.932743609 0.744992197 0.469682932
0.952857912 0.742066085 0.478425145
0.972184658 0.741987407 0.486271024
0.276883215 0.63384378 0.391509354
0.322459012 0.652220607 0.405855983
0.36670202 0.671826124 0.420140833
0.410742223 0.689943552 0.432517529
0.454398185 0.703799784 0.441351205
0.495515347 0.715019643 0.448222905
0.535487831 0.724756181 0.453491956
0.571397543 0.73422575 0.459968925
0.603840947 0.743143499 0.464597106
0.633566737 0.75098604 0.467755854
0.661604702 0.756900549 0.469259292
0.68904382 0.761754632 0.469382256
0.715458393 0.765791714 0.469056785
0.741300046 0.768568397 0.467826754
0.766282797 0.770557761 0.466225535
0.790145278 0.772589624 0.464849323
0.812908173 0.774771571 0.463993669
0.833700955 0.776953638 0.46393466
0.853832066 0.778788686 0.464706123
0.87289685 0.780086398 0.466555595
0.891364276 0.780861795 0.469565392
0.910199642 0.780596316 0.474077791
0.929921091 0.77834481 0.480513602
0.950067043 0.77447933 0.488645107
0.970154226 0.771420836 0.497995526
0.310271442 0.662912309 0.417007387
0.353773445 0.680592299 0.431727022
0.396132916 0.699663818 0.446095496
0.438445389 0.717480481 0.458777785
0.479178399 0.730649412 0.467566341
0.518394172 0.741912842 0.474619389
0.556622684 0.751761675 0.479719847
0.590868056 0.761003017 0.485090524
0.621628523 0.769453168 0.489078701
0.64904815 0.776378334 0.491322875
0.674042404 0.781775177 0.492151052
0.698656261 0.786313593 0.491964281
0.723123431 0.790062666 0.490922004
0.747219324 0.792776763 0.489505351
0.771115005 0.794493496 0.487345725
0.794186294 0.796180367 0.485222995
0.816316664 0.798027158 0.483498186
0.836635709 0.800119936 0.482483834
0.856084704 0.802267492 0.482195348
0.874651849 0.804139018 0.482785344
0.89260751 0.805718482 0.484309852
0.910096943 0.807145655 0.4873344
0.927940309 0.807728589 0.492090613
0.946843922 0.8064152 0.499142855
0.966795504 0.803023338 0.507293999
0.342286766 0.690259457 0.441147327
0.384088188 0.707754612 0.455877215
0.424996525 0.726154447 0.47035712
0.464581043 0.743361413 0.483349472
0.502993643 0.756506503 0.492652118
0.539912641 0.76774615 0.499839425
0.57646203 0.777861953 0.504762173
0.609369159 0.786787987 0.509206653
0.637947798 0.794324696 0.512327492
0.663311899 0.800162435 0.513837576
0.686448693 0.804763496 0.514242887
0.70871532 0.808945119 0.513742328
0.731131554 0.812487006 0.512161195
0.753337979 0.815330982 0.510665774
0.775835156 0.817253947 0.508247852
0.798134685 0.818720758 0.505646527
0.819423914 0.820273161 0.503128409
0.839465916 0.822035015 0.501278877
0.858222604 0.824113429 0.500025213
0.876327991 0.826303363 0.499706388
0.893865645 0.828337967 0.500066817
0.910918891 0.830489039 0.501714766
0.927525818 0.832735777 0.505182624
0.944792867 0.833988488 0.510309279
0.963315308 0.833336592 0.516423762
0.373572767 0.716664851 0.463591129
0.413663328 0.733649671 0.478560656
0.45304653 0.751309574 0.493305415
0.489670068 0.767976761 0.506652951
0.525772035 0.781508327 0.516562641
0.5607391 0.792864442 0.523962319
0.595063686 0.80302006 0.528606057
0.626249313 0.811280429 0.531864107
0.652804852 0.817912459 0.534314454
0.676475585 0.822840214 0.535283923
0.698104262 0.826787174 0.535443366
0.718951166 0.830269396 0.534673393
0.739470422 0.833523989 0.53321147
0.76011157 0.836432636 0.531162858
0.780801892 0.838726103 0.528870523
0.801890194 0.84024179 0.52569896
0.822288513 0.841514289 0.522539079
0.841771245 0.843044817 0.519870102
0.8602736 0.844872057 0.517932534
0.877913117 0.847059727 0.516733646
0.895052373 0.849380016 0.516212463
0.911750138 0.851918519 0.516730905
0.92808938 0.854677796 0.518518984
0.944298804 0.857627749 0.522341013
0.961249888 0.859450459 0.527067661
0.403943062 0.74206239 0.484843463
0.442965299 0.758451104 0.500076115
0.480055392 0.775281429 0.514855087
0.513908327 0.791726172 0.528597832
0.547755778 0.805796206 0.539040208
0.580739856 0.817426801 0.546706736
0.61216712 0.827006817 0.550967395
0.641212344 0.83452493 0.553629041
0.666382849 0.840244055 0.555328012
0.688598216 0.84453392 0.555968642
0.709154725 0.848022282 0.555739999
0.728717446 0.85095191 0.554906487
0.748009026 0.853743017 0.55353272
0.767437577 0.856362581 0.551307499
0.786532283 0.85875994 0.548630118
0.805995107 0.860538781 0.54531008
0.825519621 0.861833453 0.541676164
0.844371557 0.863195956 0.538261294
0.862283885 0.864867032 0.535710812
0.879431903 0.866876006 0.533761501
0.896153152 0.869279444 0.532528996
0.912535548 0.872014046 0.532149732
0.928747952 0.875034571 0.532710254
0.944794893 0.878357589 0.534659564
0.960715175 0.881759346 0.538283587
0.433599561 0.76652652 0.50533551
0.471420676 0.782302558 0.520533442
0.505807877 0.798486292 0.535297811
0.537668347 0.814748347 0.549049199
0.569096267 0.829635918 0.560346842
0.599907637 0.840921998 0.567909122
0.628275931 0.849703014 0.572095037
0.65484494 0.856558681 0.574231446
0.678990602 0.861558974 0.57539165
0.699915349 0.865398645 0.575870097
0.719496489 0.868530214 0.575476229
0.737915933 0.871108472 0.574593782
0.756152093 0.873457491 0.57309413
0.774371684 0.875662863 0.570930183
0.792569697 0.877743065 0.567998171
0.810683072 0.879648149 0.564494491
0.828846514 0.88114059 0.560570061
0.847177625 0.882438838 0.556570411
0.864236712 0.883986473 0.553429484
0.880941629 0.88588804 0.550875783
0.897204041 0.888262272 0.549020946
0.913358927 0.891129315 0.547932923
0.929435074 0.89423883 0.547472954
0.945389926 0.897675335 0.548002422
0.961179256 0.901520848 0.550066233
0.462504834 0.790637791 0.525801837
0.498222381 0.805571198 0.540438354
0.530931413 0.821307778 0.55478853
0.561105788 0.837460577 0.56845361
0.58996141 0.852554739 0.5800969
0.617929101 0.863252878 0.587683976
0.643447757 0.871408224 0.591861725
0.667606115 0.877627552 0.593835413
0.690172255 0.88226223 0.594810367
0.710550249 0.885690689 0.594867706
0.729157984 0.888526082 0.59448725
0.746625006 0.890677094 0.593548656
0.763822615 0.892683566 0.591921031
0.781063259 0.894522846 0.589616477
0.798369348 0.896285057 0.58664763
0.81571281 0.897918522 0.58306706
0.83283478 0.899428368 0.579158962
0.85018605 0.900795162 0.574743629
0.866493464 0.902342856 0.571084619
0.882475972 0.90420264 0.568089545
0.898380399 0.906535327 0.565599024
0.914281309 0.909393311 0.563783944
0.930179954 0.912629485 0.562684238
0.946019769 0.916132271 0.562260747
0.96174866 0.919967592 0.562691092
0.001223154 0.035101149 0.063531496
0.012631917 0.040776491 0.061646562
0.032051709 0.047873117 0.059625823
0.059823822 0.056275766 0.05973018
0.099235661 0.064610407 0.065608487
0.140219331 0.073921017 0.075567469
0.176837891 0.086722188 0.085705914
0.215840444 0.097305834 0.096549317
0.25748089 0.104803778 0.107818507
0.300727129 0.112154596 0.118610889
0.340834439 0.119907252 0.129127145
0.383277357 0.127274677 0.137851343
0.425699234 0.134490252 0.145123079
0.469456494 0.140856281 0.149771973
0.51133877 0.146798715 0.153705373
0.548488438 0.153030321 0.157609254
0.581857383 0.159977496 0.161716819
0.612985313 0.1675338 0.165860668
0.642323017 0.176348925 0.17033045
0.671032727 0.186834529 0.17500706
0.699600995 0.198888585 0.179975018
0.728322804 0.212241784 0.185337961
0.756697357 0.225667149 0.191153705
0.784379721 0.23902601 0.197431415
0.811139405 0.251937449 0.204071701
0.005649212 0.060531698 0.075215295
0.027005335 0.063840941 0.075083226
0.050624132 0.071396619 0.073229589
0.081977479 0.080805168 0.072526209
0.119548194 0.090358891 0.076932989
0.157924205 0.10160505 0.086897127
0.194400594 0.114504702 0.097142205
0.233403638 0.124858461 0.10816782
0.275486797 0.132254079 0.119786806
0.317240953 0.139697075 0.131127879
0.359275728 0.147104353 0.141028404
0.40252012 0.15421091 0.14914985
0.445393175 0.16119127 0.155312464
0.488549858 0.167251498 0.159602061
0.527596295 0.173421919 0.163684592
0.562529266 0.180187404 0.168004841
0.594209254 0.188201815 0.172566235
0.624082446 0.197744623 0.177177653
0.653320014 0.208663166 0.182015508
0.682353437 0.221126869 0.187177941
0.711679518 0.234761164 0.192754611
