apps/playground/public/levels/Train Scene/post/Videofullness_FREE_Underwater_LUT_03.cube
TITLE "25x25x25 Adobe/IRIDAS cube 3D LUT"
LUT_3D_SIZE 9
0.00098164 0.025991125 0.042311739
0.048618343 0.047750447 0.037606731
0.166758254 0.080406025 0.062633261
0.289851636 0.102942474 0.093848631
0.413404822 0.120955937 0.118314929
0.537300527 0.136966974 0.130514935
0.632826328 0.157273352 0.142296761
0.717836916 0.188536748 0.155739889
0.801560163 0.226339012 0.171746716
0.012977583 0.077284947 0.084086224
0.097176746 0.118920222 0.07426665
0.210113868 0.158706635 0.09411601
0.334985018 0.180640966 0.126755178
0.465383679 0.19661057 0.145648703
0.574053228 0.219461516 0.159567773
0.666202903 0.254250318 0.174872085
0.754014909 0.295130104 0.192532465
0.832477689 0.331379622 0.212278008
0.02993999 0.175807849 0.123862959
0.127438396 0.199736252 0.124770314
0.25883615 0.215117902 0.144513473
0.38729459 0.250400394 0.16790697
0.509716988 0.300428569 0.17364876
0.61598891 0.344703376 0.190660521
0.710164011 0.384748161 0.21210891
0.79411763 0.42240864 0.238154709
0.869749248 0.457322359 0.264323384
0.040443607 0.322387606 0.172087267
0.162642658 0.364494264 0.185954362
0.315435231 0.392204076 0.209015161
0.473510116 0.397276729 0.231860504
0.598038197 0.397818476 0.251088262
0.691658616 0.457794726 0.261145681
0.766218722 0.538285613 0.268062174
0.835286319 0.580449224 0.284044087
0.897468686 0.609227479 0.311022609
0.083771892 0.439689875 0.235203564
0.237491623 0.492732495 0.260406286
0.387619376 0.526834607 0.283116549
0.534270048 0.546362936 0.303823769
0.653643131 0.568054438 0.322570682
0.75077486 0.573774993 0.344883144
0.828398049 0.58472079 0.361653686
0.881589115 0.645162284 0.365340978
0.922945201 0.719310403 0.3831442
0.169620633 0.536217809 0.305095702
0.321715087 0.596202254 0.343367368
0.463893652 0.635567427 0.370536029
0.586537719 0.661245227 0.390912682
0.690714836 0.680674493 0.398073286
0.775932968 0.691614151 0.403669953
0.846959352 0.690759242 0.41566956
0.912845731 0.681144416 0.435747236
0.961699367 0.718253672 0.451821566
0.276883215 0.63384378 0.391509354
0.410742223 0.689943552 0.432517529
0.535487831 0.724756181 0.453491956
0.633566737 0.75098604 0.467755854
0.715458393 0.765791714 0.469056785
0.790145278 0.772589624 0.464849323
0.853832066 0.778788686 0.464706123
0.910199642 0.780596316 0.474077791
0.970154226 0.771420836 0.497995526
0.373572767 0.716664851 0.463591129
0.489670068 0.767976761 0.506652951
0.595063686 0.80302006 0.528606057
0.676475585 0.822840214 0.535283923
0.739470422 0.833523989 0.53321147
0.801890194 0.84024179 0.52569896
0.8602736 0.844872057 0.517932534
0.911750138 0.851918519 0.516730905
0.961249888 0.859450459 0.527067661
0.462504834 0.790637791 0.525801837
0.561105788 0.837460577 0.56845361
0.643447757 0.871408224 0.591861725
0.710550249 0.885690689 0.594867706
0.763822615 0.892683566 0.591921031
0.81571281 0.897918522 0.58306706
0.866493464 0.902342856 0.571084619
0.914281309 0.909393311 0.563783944
0.96174866 0.919967592 0.562691092
0.021157637 0.060240395 0.111574061
0.085600883 0.081417255 0.114152007
0.204513967 0.105819218 0.14120248
0.324699521 0.135983944 0.178599581
0.455474228 0.163742363 0.206538841
0.575650752 0.18966046 0.220074803
0.667597711 0.223067686 0.235687748
0.75530833 0.269838989 0.257166386
0.837084532 0.316191018 0.286655337
0.047739066 0.152398884 0.158118248
0.148875087 0.168646544 0.166748896
0.262064308 0.21071358 0.193627596
0.384398967 0.246562034 0.236494198
0.517009318 0.281038344 0.262400687
0.624884129 0.318506926 0.27840817
0.719250679 0.363984227 0.303196073
0.800697923 0.406438082 0.332909375
0.870282054 0.442567706 0.360347569
0.063546628 0.281488806 0.226652995
0.173641533 0.295324177 0.235427544
0.306307018 0.333996445 0.259783864
0.44972533 0.376850694 0.303151369
0.583177269 0.42393443 0.335698545
0.690222502 0.471275538 0.367818594
0.772716403 0.507845521 0.392383188
0.839405894 0.537731469 0.415031463
0.89773345 0.564867079 0.438918978
0.078787409 0.401043445 0.297023922
0.198579922 0.438592851 0.315387517
0.368349522 0.487026364 0.345374137
0.536106586 0.507892251 0.391399562
0.658647656 0.538843632 0.421607703
0.740696073 0.606850088 0.436999172
0.810408175 0.646387339 0.459677011
0.870295763 0.675501466 0.48462081
0.924662411 0.699786723 0.508483708
0.127487406 0.500551164 0.368786335
0.275151163 0.554240704 0.403252184
0.443724155 0.611114621 0.436539143
0.592126191 0.644036591 0.468583435
0.704131067 0.658051312 0.490394056
0.788752735 0.649504185 0.508955181
0.84733969 0.692375004 0.521761
0.888263583 0.764761567 0.5321486
0.933620632 0.807447076 0.548790336
0.221891299 0.606522322 0.459599793
0.368043721 0.650155127 0.492224783
0.514281094 0.70354563 0.521491468
0.636380613 0.739525318 0.541061461
0.726157963 0.757082403 0.552148879
0.802226186 0.757215917 0.558066964
0.869012535 0.74022001 0.571980059
0.92232269 0.750816941 0.589921892
0.958277404 0.809171975 0.595769942
0.324216247 0.690434992 0.531348884
0.454812974 0.732027173 0.569306552
0.57412076 0.780440867 0.599322379
0.675064385 0.812134445 0.61049062
0.745416105 0.829002202 0.613130331
0.808534503 0.834372222 0.611588299
0.867556691 0.82933104 0.608978868
0.922586501 0.815470994 0.616582036
0.9757424 0.80687201 0.63385421
0.415578634 0.764861584 0.592512727
0.532798707 0.804975033 0.635175586
0.622736216 0.848689318 0.669062018
0.704917312 0.873777211 0.67557013
0.765604973 0.886936188 0.673268914
0.816419959 0.893095553 0.665461779
0.868091762 0.893619418 0.655684412
0.91829592 0.888478756 0.646261632
0.965219736 0.880747139 0.64922744
0.498879433 0.835725546 0.650411129
0.599392831 0.871626675 0.692780495
0.666102588 0.907676935 0.724823892
0.72602278 0.928092897 0.733282864
0.780269861 0.938410044 0.727355838
0.827346385 0.942485034 0.717501223
0.87304318 0.944728851 0.703000903
0.917711973 0.943283975 0.686003685
0.96187669 0.942024112 0.674605846
0.037786271 0.110211998 0.219707936
0.130212426 0.142024994 0.232436165
0.249361798 0.16659379 0.264729351
0.37292394 0.198941767 0.311898708
0.511021197 0.235320434 0.34601298
0.637872875 0.284448832 0.366315514
0.735384643 0.348956525 0.402556241
0.811341524 0.398101866 0.436124474
0.873515368 0.436470956 0.467944682
0.061809283 0.214268431 0.292829961
0.182317644 0.255407482 0.322356522
0.320743144 0.299373716 0.34881404
0.456307143 0.345289677 0.398531616
0.600765467 0.405432403 0.441872597
0.709525347 0.464443177 0.477215946
0.784580529 0.507374644 0.50606364
0.843841195 0.541627526 0.533446312
0.8984887 0.56972146 0.557997644
0.076963335 0.378790766 0.374063909
0.211948738 0.413340747 0.408886701
0.373316884 0.450434119 0.450570434
0.544020176 0.508853197 0.510975897
0.678304911 0.561186433 0.548404336
0.7612288 0.602008641 0.571598828
0.818117321 0.635531187 0.592592895
0.869660974 0.664116085 0.613084793
0.920206189 0.687469304 0.631658673
0.109575562 0.480374664 0.436178893
0.261345118 0.532514811 0.483276725
0.428215712 0.580555916 0.528841496
0.606072068 0.618314564 0.579108834
0.717655361 0.665452421 0.609379292
0.787069976 0.691856146 0.623858035
0.838940561 0.718640029 0.640289307
0.889438808 0.748890042 0.65977639
0.94056356 0.779619694 0.679760695
0.166979164 0.581941426 0.513118207
0.335777819 0.627035797 0.551551282
0.48905915 0.678490698 0.593472958
0.645611405 0.724304438 0.628619313
0.74711895 0.729732811 0.654847443
0.808126986 0.744193494 0.668253183
0.851575017 0.793771207 0.669721246
0.898495674 0.824463427 0.685656309
0.949721158 0.851468801 0.707406878
0.247670099 0.670032382 0.580317914
0.418210328 0.705905318 0.613335431
0.552363157 0.754750788 0.655424416
0.671897829 0.799965441 0.67933476
0.75502646 0.817967951 0.693782032
0.81696409 0.812654376 0.704855323
0.872542322 0.801115036 0.716668367
0.917348623 0.834244609 0.720168829
0.951815248 0.901457489 0.724147439
0.345127016 0.745671093 0.637373686
0.4988437 0.779944599 0.674743533
0.605474651 0.819327176 0.713079572
0.696478486 0.8582775 0.735429585
0.765634239 0.878236532 0.741676033
0.817926109 0.884030163 0.7438851
0.870205283 0.875480235 0.743195474
0.922110736 0.851149142 0.748778224
0.970314026 0.864366293 0.755925775
0.434482425 0.815993249 0.690238535
0.569833219 0.84631747 0.729678571
0.65230155 0.878243685 0.766640127
0.71830225 0.909236968 0.786746681
0.776763141 0.926199555 0.790013492
0.824484348 0.933654368 0.787436247
0.868995547 0.933755636 0.777771533
0.916134953 0.923649669 0.768125236
0.964618325 0.898569643 0.768036246
0.517018974 0.881266057 0.740065217
0.629526675 0.906537771 0.779532492
0.692553699 0.930452287 0.810640275
0.73936516 0.953570604 0.827080786
0.787696242 0.967233419 0.831312656
0.830209792 0.974597991 0.828528225
0.872095287 0.97616607 0.816941798
0.914439678 0.974160612 0.79916054
0.957391739 0.964922905 0.784457386
0.048367653 0.15668875 0.331491739
0.145099267 0.195583373 0.360747457
0.274685204 0.236729458 0.409387499
0.428457499 0.294146597 0.482324868
0.583198249 0.357050329 0.544618011
0.706980348 0.423683226 0.593216121
0.783836603 0.474105984 0.629821181
0.841236532 0.511530638 0.655408502
0.893607616 0.543334484 0.677318513
0.058075003 0.279885828 0.42672801
0.183078989 0.337689102 0.474469662
0.350150406 0.412021458 0.53402102
0.524005115 0.484918475 0.596144915
0.676487684 0.543376327 0.646030128
0.772060215 0.59159416 0.684340298
0.831898212 0.624939442 0.71049422
0.878280282 0.651507199 0.729360282
0.922810435 0.675050735 0.746002436
0.077809036 0.42802164 0.503296494
0.227590233 0.483424991 0.560212433
0.416229576 0.537613928 0.613505781
0.600483477 0.609131396 0.666575074
0.730831325 0.664207041 0.712061346
0.807231545 0.6975348 0.740634978
0.859701931 0.724604547 0.762209117
0.901996076 0.75277859 0.781693578
0.943587542 0.779112101 0.798466444
0.119637869 0.552400231 0.575847089
0.291989833 0.617837906 0.621771574
0.470483691 0.651978374 0.659934342
0.64376694 0.686945081 0.703356385
0.763994694 0.732579231 0.743382931
0.82478261 0.759958148 0.770562172
0.870147169 0.779884875 0.788702667
0.910442114 0.805061936 0.806340516
0.952246964 0.834468782 0.823812366
0.175950974 0.646536648 0.638068914
0.375210255 0.702462733 0.674493968
0.534927249 0.736430228 0.701829433
0.670272291 0.774702013 0.736158788
0.783475637 0.788735926 0.766165376
0.836748481 0.819686711 0.78776449
0.876087427 0.839311659 0.806687057
0.915744841 0.8551386 0.821351945
0.957233489 0.880469859 0.84085536
0.248926789 0.726882875 0.691699028
0.457098454 0.768745482 0.723916292
0.594788671 0.802139163 0.749603808
0.698696971 0.841026366 0.77644819
0.786436081 0.859306037 0.789200127
0.844689846 0.85048461 0.80645597
0.882396162 0.865324259 0.822110474
0.912537813 0.91263479 0.828441024
0.954771519 0.936320722 0.844445765
0.341433764 0.790198445 0.733737469
0.530267894 0.827882707 0.768621027
0.644444942 0.858348668 0.794139206
0.722559273 0.889170945 0.816619694
0.789919674 0.909309089 0.821770549
0.840078115 0.915000141 0.822779298
0.880759716 0.901455224 0.834076345
0.919518709 0.900545716 0.850991011
0.958115757 0.932462215 0.859546125
0.424738586 0.848849237 0.775247574
0.591075957 0.880466163 0.808487773
0.684148431 0.90742445 0.833640456
0.741815269 0.9308272 0.851974308
0.792619765 0.947596371 0.854505539
0.838877439 0.955910861 0.850706398
0.876884699 0.955895483 0.851167262
0.915023923 0.943749428 0.858288646
0.95656997 0.932648361 0.87326771
0.498718679 0.90343225 0.81560272
0.641537726 0.933043599 0.84714973
0.716424108 0.952092528 0.869357824
0.759875596 0.968359172 0.882363737
0.797457159 0.981094778 0.882875025
0.839934289 0.988204122 0.878552854
0.87777108 0.993342519 0.87882036
0.914456129 0.992425561 0.87854439
0.952578902 0.983270824 0.881147146
0.060949445 0.215104818 0.444104344
0.162662879 0.268175989 0.497209698
0.320840031 0.339323908 0.570550084
0.475408465 0.407642037 0.651255488
0.63986367 0.478773504 0.70913136
0.755266607 0.536711693 0.752369046
0.82633853 0.57675755 0.78786236
0.877998352 0.605656147 0.81266284
0.923303664 0.630568683 0.83168608
0.074137636 0.336954325 0.533274293
0.206654191 0.411028028 0.602368951
0.408275902 0.497598052 0.667488396
0.555116951 0.569946706 0.739518106
0.704528213 0.630813777 0.782795787
0.804422855 0.674765468 0.812959194
0.866739929 0.703843117 0.837833405
0.914648652 0.731369197 0.85873872
0.955901146 0.754940689 0.876599133
0.097801708 0.47432968 0.61550498
0.250692427 0.542043686 0.674463093
0.472819746 0.610022247 0.722416401
0.626383722 0.670229256 0.779618859
0.752953768 0.730228782 0.816039622
0.833687305 0.764581442 0.84115237
0.888903379 0.78230232 0.858599305
0.933447242 0.806301951 0.878185213
0.972392917 0.832978487 0.898982048
0.137074187 0.605526328 0.685457468
0.309286386 0.671531081 0.732644737
0.520653725 0.709621549 0.760922074
0.673632145 0.737958252 0.799066305
0.782174528 0.784729958 0.831934512
0.849541366 0.810821652 0.850276113
0.894448936 0.825518131 0.868223786
0.935423672 0.841858208 0.885534525
0.973406792 0.866806149 0.906563938
0.19294554 0.701462388 0.73736769
0.383117229 0.763705611 0.777032256
0.577228785 0.79893434 0.800733149
0.698714256 0.815392792 0.820446372
0.79199183 0.826499999 0.844803929
0.858795047 0.846454144 0.856127322
0.898771882 0.860988855 0.873829246
0.936445355 0.87534982 0.892002225
0.973339677 0.895870745 0.912676334
0.264269292 0.777716696 0.785787523
0.467648327 0.822535992 0.816345274
0.6304726 0.856745422 0.835551202
0.724137485 0.878292501 0.847118974
0.795370042 0.884770036 0.860299647
0.860371351 0.881814659 0.865284443
0.899669349 0.90624392 0.878014743
0.935315967 0.923747241 0.897139132
0.973815322 0.93773669 0.917151928
0.349547654 0.832166612 0.822809517
0.533425272 0.86712873 0.85099256
0.669880629 0.89812845 0.865937889
0.746302068 0.918844759 0.874224663
0.801048338 0.932780147 0.882903636
0.856145501 0.92911917 0.877589822
0.89905268 0.922076941 0.884249508
0.931031585 0.940944254 0.899141014
0.960213244 0.97026211 0.909618676
0.426174343 0.874914527 0.848455548
0.57832998 0.904183567 0.876336873
0.701072514 0.933029771 0.891600728
0.763281584 0.951829791 0.900350809
0.806932211 0.96668154 0.907549024
0.85170275 0.969554603 0.897873759
0.892454743 0.964984655 0.891064286
0.926577985 0.956497431 0.899881542
0.962631047 0.967868268 0.921381772
0.488161445 0.918665826 0.875950992
0.61815834 0.944821358 0.905036986
0.726112962 0.968385518 0.918371022
0.777808845 0.984983742 0.926961005
0.813029528 0.997092783 0.931053221
0.849076629 1 0.919722974
0.888992786 1 0.90825814
0.924571931 0.998309791 0.911371946
0.960712671 0.992464662 0.92370826
0.076613642 0.276809543 0.556563437
0.197079673 0.346322119 0.637102842
0.37159133 0.432943404 0.720291913
0.5435341 0.511953056 0.782002389
0.673548758 0.570226967 0.845258296
0.787444651 0.622119188 0.877206445
0.858088732 0.663688898 0.909118652
0.908577859 0.688277066 0.927280486
0.953580379 0.70601213 0.940797269
0.098271742 0.401513219 0.644757807
0.243903562 0.478003681 0.716665328
0.452437013 0.566679597 0.782220006
0.617978811 0.638640106 0.827695668
0.728399754 0.689933181 0.882864356
0.822988331 0.731284499 0.905669868
0.884604931 0.758432627 0.925231934
0.933315039 0.78170383 0.942042708
0.978638709 0.805444062 0.950017214
0.125617161 0.525129557 0.716609776
0.298566401 0.598010957 0.772648275
0.505769372 0.666028619 0.818820775
0.679256916 0.724094689 0.852350414
0.770196855 0.771028519 0.895381629
0.845606983 0.806409717 0.911844015
0.899952829 0.824477434 0.923079967
0.949422061 0.840902984 0.934562445
0.993430555 0.865230739 0.95072031
0.165587276 0.635804474 0.774837196
0.352797419 0.708032548 0.820840001
0.551006258 0.752729297 0.844346166
0.718932152 0.786124825 0.869015634
0.800076365 0.82057035 0.89640075
0.857490301 0.849491954 0.906919658
0.907408953 0.866018414 0.916261911
0.952620685 0.875713587 0.927709401
0.994542897 0.894929826 0.944405079
0.215274125 0.741046786 0.820507109
0.408605427 0.800829232 0.861832261
0.599463224 0.831128299 0.873667717
0.740958512 0.850462615 0.889360726
0.81014365 0.850229859 0.895075142
0.85891521 0.869181454 0.905859113
0.909321249 0.888135374 0.911977053
0.950454772 0.89846164 0.927868843
0.990965307 0.912916958 0.945301056
0.289249122 0.813040197 0.856737554
0.470344514 0.86112541 0.887535095
0.643489301 0.892962098 0.897450924
0.751765311 0.91498965 0.906835079
0.809292614 0.90393424 0.908320069
0.854524851 0.898521364 0.917087734
0.908140361 0.916823208 0.916876554
0.950204611 0.93154794 0.933115184
0.990644693 0.94556576 0.952023208
0.362330347 0.864913762 0.88766247
0.529765368 0.895273566 0.906927466
0.672323644 0.927457571 0.919035375
0.766017914 0.95236975 0.923692763
0.81553787 0.955435395 0.923009753
0.855152965 0.941115975 0.929539919
0.905705214 0.940420747 0.925494492
0.945010543 0.967457652 0.934988439
0.98107338 0.971073151 0.950718582
0.42729193 0.90421313 0.912181854
0.57038486 0.925957739 0.927315235
0.694719911 0.956241906 0.940335095
0.779665411 0.979129612 0.94244051
0.823112428 0.988117814 0.942271888
0.856127083 0.987542808 0.945790112
0.902457237 0.973793626 0.932122171
0.945550501 0.974359095 0.934915125
0.976232588 0.985772491 0.948077857
0.486294657 0.938256562 0.928128242
0.602269053 0.960985184 0.950441658
0.714373648 0.986941814 0.953155398
0.792694271 1 0.953959644
0.829658031 1 0.953193128
0.857962728 1 0.951820731
0.896614075 1 0.947030187
0.939524233 1 0.93562752
0.978515565 1 0.946171284
0.100964263 0.341679722 0.674982369
0.240339786 0.410131723 0.760012031
0.431695253 0.502057731 0.837146699
0.584251881 0.578558683 0.89222157
0.723929882 0.64279902 0.931088507
0.811539292 0.683648109 0.960482597
0.881679356 0.719136238 0.963090241
0.92989397 0.744729936 0.964875638
0.971327543 0.76540947 0.966234505
0.127652094 0.461438447 0.749620736
0.295642555 0.5309273 0.816692173
0.503169715 0.616778016 0.876271069
0.646047294 0.684265077 0.917593598
0.773849189 0.742091238 0.946946383
0.839790642 0.773266971 0.966148078
0.89892453 0.793088734 0.967341483
0.943873763 0.815006316 0.969128847
0.986522913 0.838585556 0.971120477
0.156749338 0.5709517 0.80488342
0.353473872 0.642286658 0.861328602
0.546813428 0.708167434 0.902662516
0.698184252 0.762390018 0.926728129
0.80933398 0.810201883 0.947830677
0.857897043 0.836427748 0.969365537
0.906487763 0.849364221 0.970104456
0.95096159 0.864345551 0.971262932
0.995812416 0.886609495 0.973003149
0.196488783 0.667037904 0.850490153
0.401128381 0.740756333 0.895983517
0.577705204 0.78736943 0.921921968
0.733008027 0.82201612 0.930742502
0.83402127 0.853149354 0.943975806
0.865863383 0.874281406 0.965980649
0.911554813 0.890451908 0.959593236
0.955870628 0.903122306 0.964543045
1 0.918600023 0.97324723
0.245127961 0.75265044 0.886532962
0.445592701 0.813447833 0.927046597
0.604210079 0.853045523 0.936706305
0.759885907 0.880107105 0.940237522
0.841577411 0.884674609 0.945082128
0.870698273 0.894043505 0.949657321
0.910524607 0.912617564 0.946879923
0.956887484 0.928238094 0.951482534
1 0.937573016 0.96466881
0.306239665 0.831846595 0.911022604
0.483983517 0.880711615 0.944596112
0.632321239 0.907151997 0.948539555
0.773840547 0.925547957 0.951750159
0.838423252 0.926585615 0.955239773
0.868633747 0.91243577 0.952405691
0.904567242 0.929231346 0.952333629
0.955450416 0.949883938 0.953020573
1 0.956313848 0.967474401
0.379044771 0.888139725 0.936272323
0.530189455 0.924111724 0.959538817
0.66081959 0.945320308 0.95965302
0.776146293 0.973596156 0.961403847
0.831968248 0.973391294 0.964842319
0.863273501 0.955875635 0.963980973
0.901655853 0.953624547 0.967535853
0.951372921 0.971651912 0.962169111
0.995383501 0.970998168 0.967830062
0.435464174 0.931369185 0.962274492
0.569642782 0.950847208 0.972443044
0.678877831 0.97510618 0.972517192
0.783943653 0.988846898 0.972824454
0.835447609 0.988344014 0.971910298
0.864606202 0.987653911 0.970421672
0.898895979 0.984143734 0.967867672
0.949042261 0.986445189 0.966236949
0.990330458 0.985772669 0.965318978
0.488655508 0.964965403 0.969989061
0.601448774 0.981040776 0.970326841
0.694215238 1 0.970712841
0.792179286 1 0.970508218
0.842666149 1 0.969864786
0.870149374 1 0.968525231
0.895945907 1 0.966904998
0.944151282 1 0.964492202
0.991169512 1 0.963066578
0.130164281 0.398579359 0.785624743
0.286807448 0.457891166 0.861545861
0.483466476 0.546171427 0.930122316
0.631847501 0.623866141 0.976687431
0.743144035 0.680796623 0.981037855
0.846898079 0.732030988 0.983183742
0.898684204 0.759791076 0.985074103
0.944289327 0.782450616 0.986657917
0.987230599 0.804037571 0.988295555
0.160068363 0.506029487 0.840872765
0.345922828 0.568883657 0.90286994
0.548530698 0.649832964 0.955150008
0.681437433 0.714873493 0.981815934
0.785546899 0.76961726 0.986063421
0.877003789 0.809356391 0.987726688
0.912101626 0.822951496 0.988265634
0.953545928 0.838083148 0.989224672
0.995631039 0.860482097 0.991130114
0.188708231 0.605798781 0.880738318
0.397713512 0.670630634 0.935011208
0.589480758 0.736281633 0.974204361
0.719828367 0.786367714 0.98570472
0.817864776 0.836751282 0.989724636
0.892549992 0.866255581 0.990309894
0.917980194 0.875083447 0.990113556
0.958076298 0.882429719 0.990519881
0.999578834 0.902265906 0.992108226
0.225682259 0.693307638 0.912337005
0.441136926 0.764372349 0.958776891
0.615254045 0.813536644 0.985994339
0.742212057 0.845604837 0.988378644
0.846835375 0.882407486 0.990881741
0.898684144 0.90208745 0.990829766
0.92056334 0.913428724 0.990917325
0.961365759 0.921745658 0.990836143
1 0.926623464 0.990913689
0.277774364 0.756656706 0.939226866
0.480225265 0.830498219 0.979133785
0.629474938 0.876957119 0.990202427
0.753154397 0.901750743 0.99136132
0.865975797 0.915954769 0.9902004
0.903560221 0.924289227 0.989878297
0.91846782 0.936383247 0.990047455
0.959762037 0.942031145 0.989498496
1 0.94139868 0.988670647
0.324817717 0.832864702 0.958340347
0.511862278 0.883912802 0.990708351
0.641726553 0.911296189 0.990677714
0.7593261 0.933401883 0.991512954
0.866307318 0.952516437 0.990431666
0.898955405 0.943138242 0.988626957
0.914619744 0.949781597 0.988028646
0.951994777 0.956765354 0.981265068
1 0.956069887 0.979515135
0.39141798 0.901518643 0.978317559
0.545102954 0.941028118 0.992096543
0.653614163 0.958091438 0.992517948
0.7628088 0.970420241 0.991683185
0.854826868 0.973895669 0.990660787
0.886129737 0.972699642 0.988843322
0.912311256 0.96329987 0.985890448
0.945410192 0.971422434 0.985233486
0.993492007 0.970808744 0.98432225
0.456091374 0.952142119 0.989541471
0.575744748 0.97638905 0.99016118
0.673002005 0.988458693 0.990036428
0.764667511 0.988283575 0.989155352
0.847757757 0.988355458 0.988304317
0.873707294 0.987666309 0.986932874
0.903618932 0.986827612 0.985004961
0.943855941 0.986021578 0.982992232
0.991523623 0.985438168 0.982226133
0.502840579 0.987473845 0.987301409
0.602253199 1 0.987554729
0.687254429 1 0.987202466
0.770046473 1 0.986853302
0.849993527 1 0.986414135
0.87754041 1 0.985173225
0.901228189 1 0.98360455
0.939395666 1 0.98135221
0.989250124 1 0.9799667
0.162187934 0.436108887 0.881095111
0.329051793 0.488041282 0.94524467
0.522585869 0.56983012 0.989744008
0.676874459 0.650377572 0.9979195
0.776623368 0.701332986 0.999865413
0.858631611 0.75802964 1
0.928892136 0.797656953 1
0.959381759 0.814837098 1
0.996449292 0.832833111 1
0.192841411 0.533771217 0.918625712
0.387309909 0.591751873 0.976739109
0.587404311 0.669176638 0.995662749
0.722031355 0.73454839 1
0.809022486 0.784323633 1
0.888515234 0.8314991 1
0.945129752 0.854676366 1
0.964983225 0.862269282 1
1 0.878919303 1
0.223824382 0.627993166 0.94636488
0.434791118 0.687638462 0.995351553
0.630625308 0.754756689 1
0.755464971 0.803864419 1
0.831333041 0.850227773 1
0.906167746 0.889373958 1
0.950737834 0.900702655 1
0.967910349 0.903954506 1
1 0.911397278 1
0.261273801 0.710522652 0.966207385
0.474051058 0.778220773 1
0.654031694 0.830337167 1
0.771873415 0.864623368 1
0.847804427 0.897747338 1
0.92056638 0.926848888 1
0.950327992 0.927929938 1
0.969093263 0.926875412 1
1 0.926324487 1
0.307202309 0.767009139 0.983479977
0.508764923 0.844721854 1
0.663525403 0.893978536 1
0.771642923 0.917992949 1
0.856100321 0.933874667 1
0.935053527 0.944049597 1
0.949171185 0.942906141 1
0.965983212 0.941775501 1
1 0.941164792 1
0.351583242 0.828312457 1
0.54263097 0.887650013 1
0.667238772 0.922976375 1
0.759191573 0.947930872 1
0.851150751 0.958835304 1
0.93646121 0.958890259 1
0.944548905 0.957765698 1
0.955937684 0.956665933 1
0.998650491 0.955901921 1
0.398670584 0.90102911 1
0.566892087 0.944551587 1
0.670584798 0.959845603 1
0.751996934 0.963115692 1
0.843995094 0.973484218 1
0.918520868 0.973392069 1
0.932497263 0.972346544 1
0.949926257 0.971327126 1
0.987126708 0.970507443 1
0.46984446 0.960997164 1
0.593568444 0.988809049 1
0.673644125 0.988325834 1
0.75022471 0.987881184 1
0.832279801 0.987922192 1
0.899846613 0.987777531 1
0.919145703 0.986886024 1
0.949207842 0.98600316 1
0.983834088 0.98515743 0.999233484
0.518702745 1 1
0.610581934 1 1
0.686242402 1 1
0.759102762 1 1
0.832105994 1 1
0.889648378 1 1
0.908345163 1 1
0.942047536 1 0.998218358
0.984264731 0.999843538 0.996704817
